Suke0811/REMS/test_robot.csv
timestamp,x,y,z,d_x,d_y,d_z,j.0,j.1,j.2,j.3,j.4,j.5,h2_norm,h2_norm_x,h2_norm_y
0.25,0.24999999999873052,0.0,-0.24999999999977282,0.9680236698375041,0.02268923394854011,-0.9999999999990913,0.0,0.36686574988772785,1.624147125641893,8.426139125282772e-17,0.7572976076597144,-1.5707963267948966,0.0,0.0,0.0
0.5,0.24815592109835097,0.019115864873433395,-0.249999999999785,-0.03916618020709663,0.0993418437002174,-4.873879078104437e-14,0.0768798440694809,0.3562354574787175,1.632902022104882,3.784227316085074e-17,0.7505882611708795,-1.4939164827254157,0.012773434771052314,0.012714896615642072,0.001221490852958825
0.75,0.24269167813546688,0.037526696850219796,-0.24999999999940048,-0.0536442262358679,0.0965128171796931,1.5381029783156919e-12,0.1534120738506317,0.32549694254166445,1.658086287545824,1.1053134182041058e-16,0.7310349695555052,-1.4173842529442648,1.1505650735532462,1.1505650734636494,1.4358752996850744e-05
1.0,0.23336891083854142,0.05522339473239003,-0.250000000000002,-0.06907577158925308,0.09364234229174359,-2.4060753389676393e-12,0.23236140608787537,0.2751150998513408,1.6987871541957418,7.05447538678073e-17,0.6985970919061741,-1.3384349207070212,0.8101831396433975,0.8101831393335436,2.2407070728503015e-05
1.25,0.22071068200752944,0.07071067607317537,-0.25000000000000394,-0.082414526506833,0.08479424586051887,-7.771561172376096e-15,0.3100450932979584,0.20948236159507544,1.7503533082253377,6.670427767174848e-17,0.6558687430788406,-1.2607512334969382,0.38210420740290124,0.38210407921192374,0.00031299298276667907
1.5,0.20522341093577126,0.08336891972081498,-0.24999999999545292,-0.09372728301566208,0.07347063820374283,1.8204104890173767e-11,0.38586974143981934,0.13145398569950498,1.8089537955589046,6.251784056351484e-17,0.6047625604898416,-1.1849265853550772,0.10169881273981919,0.10167757230646275,0.0020784134701372662
1.75,0.18752670887079706,0.09269167489539865,-0.2500000000000126,-0.10256139844936588,0.06012470440582879,-1.8238743848542072e-11,0.459065318107605,0.04289817343288647,1.8712625076256857,5.825843250551453e-17,0.5468004137995599,-1.1117310086872916,0.023057143593787854,0.02297722251044144,0.0019181022939915077
2.0,0.16832861322559006,0.09830595788839795,-0.2499999999999768,-0.10856354886136477,0.04529013843618995,1.432187701766452e-13,0.5285807847976685,-0.05519022270746071,1.934439568761651,5.41291423311543e-17,0.4830747275337567,-1.0422155419972283,0.0054760343655702644,0.005472131434721481,0.00020671220099345168
2.25,0.14839722021147442,0.09998715621919843,-0.25000000000000633,-0.11149382345181097,0.029560116668655045,-1.1812772982011666e-13,0.592911422252655,-0.16245481262213105,1.9959345428453816,5.029105289515494e-17,0.4142992355948285,-0.9778849045422415,0.0011044189714225152,0.001104362541742369,1.1164265954389256e-05
2.5,0.127747910455637,0.0974927911181368,-0.2500000000000183,-0.11436249755980404,0.012860528311943918,-4.796163466380676e-14,0.6518738865852356,-0.2837580902554448,2.0554096120686394,4.677262924329115e-17,0.33785323934177136,-0.918922440209661,0.0003471135570403349,0.0001844644513435908,0.0002940419828386787
2.75,0.108790138587189,0.09111392418743168,-0.25000000000026756,-0.1075960347301118,-0.0026763152469847576,-9.969802761133906e-13,0.697204053401947,-0.4097782060778249,2.1054904194595156,2.2017517244191293e-17,0.25981665798513964,-0.8735922733929496,0.0007041478576863591,7.933593835388227e-06,0.0007041031625927724
3.0,0.09148112304273369,0.08108970931825493,-0.2500000000286758,-0.10100089365621448,-0.01725744631093502,-1.1363288088261925e-10,0.7252554297447205,-0.5443516034442509,2.1454636757667718,4.2203636757165756e-17,0.17748400121123895,-0.8455408970501761,0.0014896302384770686,3.6672405820668666e-05,0.0014891787609405973
3.25,0.07651337412471301,0.06782120610936147,-0.2500000000000163,-0.09163664210304236,-0.030233421436331342,1.1463785476450994e-10,0.7252484560012817,-0.6850022736981549,2.1718536040032714,5.735796345951507e-17,0.09135908210371164,-0.8455478707936149,0.002301868909590621,2.3405204810695388e-05,0.0023017499154616436
3.5,0.0644857271189555,0.051839255105913654,-0.2500000000003473,-0.07987795109209767,-0.0410851970479282,-1.3238299345630367e-12,0.6771067380905151,-0.8253307731834658,2.1814953161411865,6.084143057770407e-17,0.0034126801319832095,-0.8936895887043814,0.0029946241891447107,4.1409903685349455e-05,0.0029943378657204646
3.75,0.055879391226317264,0.0337832927194705,-0.2500000000009172,-0.0661952541951433,-0.04937846533673564,-2.2797319587652964e-12,0.54377681016922,-0.9517203976048502,2.1741000169471043,7.148497689431416e-17,-0.07999094509134291,-1.0270195166256766,0.0034052500514127255,0.00010405453785738632,0.003403659878101461
4.0,0.051038697210428356,0.014375699670014029,-0.24999999999999872,-0.05113595904444155,-0.054781549796759726,3.673950033089568e-12,0.2745499014854431,-1.0395839243841059,2.1582753796256053,6.072333000801577e-17,-0.14211883429369937,-1.2962464253094534,0.0037795287081298133,0.00014121522915851186,0.003776889661431894
4.25,0.05015731666731264,-0.0056070445025702045,-0.2499999999999655,-0.03530257496644498,-0.05707821667460533,1.3289369604763124e-13,-0.11132695525884628,-1.0576133135576613,2.1537613918787395,6.282101615980077e-17,-0.15545683038736777,-1.6821232820537428,0.004444435021716596,4.100839140473871e-06,0.004444433129812996
4.5,0.053270514036899155,-0.025365456310135145,-0.2500000000000356,-0.019328581593886243,-0.05617671425071316,-2.8033131371785203e-13,-0.4443969428539276,-0.9970126353677327,2.167161944092665,6.304047798637405e-17,-0.11147412747245994,-2.015193269648824,0.006241377683279471,0.0004816323496795067,0.006222766721088074
4.75,0.060253732004532,-0.04410903084691232,-0.25000000000018624,-0.0038531164725493852,-0.05211324330944731,-6.02629057766535e-13,-0.631916880607605,-0.883827531786984,2.1801262712848395,6.442652514699713e-17,-0.03451122677389623,-2.2027132074025015,0.012054577617991743,0.0016562205812693177,0.011940258579041218
5.0,0.070827573556625,-0.06108786140774439,-0.24999999999961411,0.01050457145257875,-0.045050573905356835,2.288502720659835e-12,-0.7116988897323608,-0.7473803006041913,2.1782917957935912,6.314155187547043e-17,0.05266388406027696,-2.2824952165272574,0.022863878516090234,0.0005907815715912513,0.02285624461571062
5.25,0.08456900808155791,-0.0756226529718635,-0.24999999999993563,0.02317004865089836,-0.03527131700720672,-1.2860823517257813e-12,-0.7296082973480225,-0.6057461307691946,2.1589585952883943,6.268321854052667e-17,0.13999388978874056,-2.300404624142919,0.028012681757491383,5.2041965123934424e-05,0.028012633415663665
5.5,0.10092824880853513,-0.08713187785208433,-0.250000000005206,0.03363656684917325,-0.023166470231911415,-2.1081469903094785e-11,-0.7121678590774536,-0.4680226018938441,2.1245235237331244,6.464506052238896e-17,0.22410549530737536,-2.28296418587235,0.023397187635283655,8.389973928689152e-05,0.0233970372071854
5.75,0.11925077428802268,-0.0951550614318495,-0.2500000000000824,0.04148551023922007,-0.009220167909224287,2.0494494989975465e-11,-0.6734840869903564,-0.3380870467487545,2.0784812854322916,2.2738251038681208e-17,0.3040573329383856,-2.244280413785253,0.012383043707012592,0.0013010507243180372,0.012314505205753728
6.0,0.138803558148992,-0.09937122675417023,-0.25000000000042366,0.046403180929195334,0.006009669324280539,-1.3651302310790925e-12,-0.6213259696960449,-0.21719913340828023,2.0241236884550777,7.289455296879158e-17,0.3796229272723504,-2.1921222964909415,0.0072249713128484565,0.005576475279482717,0.004593814746896232
6.25,0.15880427610558162,-0.09961166936311606,-0.2500000000000028,0.048192560506219166,0.02191383198220509,1.6835421945415874e-12,-0.5602232813835144,-0.10553647077802285,1.9643195379455716,1.0448266915817347e-16,0.4506612841124525,-2.131019608178411,0.008333157229508505,0.007549746218774138,0.0035274412034526463
6.5,0.17845276131698995,-0.0958667821570355,-0.25000000000005285,0.04678217897828246,0.037855600141644005,-2.0028423364237824e-13,-0.49297139048576355,-0.0030285481320567885,1.9016401504058924,5.624960695693389e-17,0.5168793804991717,-2.06376771728066,0.0073887453708680415,0.006817355212163763,0.00284907459830512
6.75,0.19696287533962561,-0.0882863986784691,-0.2500000000029629,0.04222816947370451,0.0531972413245793,-1.1640244323984916e-11,-0.42138832807540894,0.09018176266882409,1.8385836451591187,1.2093713800542343e-16,0.577719358691994,-1.9921846548703055,0.00691138940767861,0.006685927462360798,0.0017509076253822734
7.0,0.2135940853313261,-0.07717377875492812,-0.2500000000000029,0.03471301372814667,0.06732511075216671,1.1840084468417444e-11,-0.34671521186828613,0.1734377999191189,1.7778214165242539,1.2943853368273044e-16,0.6322793157004624,-1.9175115386631827,0.005403077208336761,0.005288264767233686,0.0011079255710033117
7.25,0.22768095907819055,-0.06297355264901396,-0.25000000000000333,0.02453706435957357,0.07967377851152482,-1.7763568394002505e-15,-0.26984086632728577,0.24531635884455757,1.722428622621984,1.3753008020365894e-16,0.6792464316561294,-1.8406371931221823,0.0042705434372559675,0.004226418838081646,0.0006123112399740884
7.5,0.23865993004504713,-0.04625382986140026,-0.24999999999859698,0.012107732635094882,0.08974939756697295,5.625389043473206e-12,-0.19143317639827728,0.303433092564306,1.676011334741076,1.0843627236244865e-16,0.7168805706893981,-1.7622295031931738,0.003921674776748404,0.003911622010504738,0.0002806177141940949
7.75,0.2460917394938056,-0.027683551587282806,-0.24999999999971753,-0.002077827425823686,0.09714870953038733,-4.482192395016682e-12,-0.11202186346054077,0.34449776121311076,1.6425440848892265,5.618633596873296e-17,0.7431470184178878,-1.6828181902554373,0.0030116773324883905,0.0030045804069661055,0.00020663236217925238
8.0,0.2496790366555101,-0.008005690362563869,-0.2499999999997807,-0.017452152668163218,0.10157566736628107,-2.5268676040468563e-13,-0.03205294534564018,0.36500523868163626,1.6256807919401246,9.056446847649772e-17,0.7561254893693445,-1.6028492721405367,0.0025133273904061784,0.0025124453317457362,6.658097592397918e-05
8.25,0.24999679258792265,-0.000801418123287192,-0.2499999999997729,-0.030521002314152376,0.05167125409193181,3.11972669919669e-14,-0.0032057026401162148,0.3668471507073467,1.6241624601482454,8.414534715353142e-17,0.7572858948413388,-1.5740020294350128,0.0021679561860861022,0.0021678192063107676,2.4370341383567803e-05
8.5,0.24815592109835097,0.019115864873433395,-0.249999999999785,-0.039158550570388626,0.10252922567490586,-4.8405723873656825e-14,0.0768798440694809,0.3562354574787175,1.632902022104882,3.784227316085074e-17,0.7505882611708795,-1.4939164827254157,0.0020253573030658977,0.0020253569155439513,1.2528929158964945e-06
8.75,0.24269167813546688,0.037526696850219796,-0.24999999999940048,-0.05364775638992049,0.09649613745379002,1.5381029783156919e-12,0.1534120738506317,0.32549694254166445,1.658086287545824,1.1053134182041058e-16,0.7310349695555052,-1.4173842529442648,0.002027570083354591,0.001973968886432041,0.0004631277127454045
9.0,0.23336891083854142,0.05522339473239003,-0.250000000000002,-0.06907780848365908,0.09362846470834725,-2.4060753389676393e-12,0.23236140608787537,0.2751150998513408,1.6987871541957418,7.05447538678073e-17,0.6985970919061741,-1.3384349207070212,0.0013793162267850675,0.0013644669211022734,0.00020184963386213564
9.25,0.22071068200752944,0.07071067607317537,-0.25000000000000394,-0.0824151543303244,0.08478380523491102,-7.771561172376096e-15,0.3100450932979584,0.20948236159507544,1.7503533082253377,6.670427767174848e-17,0.6558687430788406,-1.2607512334969382,0.0012725777641132943,0.0012725192365898904,1.2204844295346917e-05
9.5,0.20522341093577126,0.08336891972081498,-0.24999999999545292,-0.09372706247782281,0.07346300830402044,1.8204104890173767e-11,0.38586974143981934,0.13145398569950498,1.8089537955589046,6.251784056351484e-17,0.6047625604898416,-1.1849265853550772,0.0007528077435309226,0.0007511932164083013,4.927728018337064e-05
9.75,0.18752670887079706,0.09269167489539865,-0.2500000000000126,-0.10256090321790132,0.06011918703396854,-1.8238743848542072e-11,0.459065318107605,0.04289817343288647,1.8712625076256857,5.825843250551453e-17,0.5468004137995599,-1.1117310086872916,0.0005777162893940964,0.0005777081820864505,3.060617854584109e-06
10.0,0.16832861322559006,0.09830595788839795,-0.2499999999999768,-0.10856316087307405,0.0452861121575509,1.432187701766452e-13,0.5285807847976685,-0.05519022270746071,1.934439568761651,5.41291423311543e-17,0.4830747275337567,-1.0422155419972283,0.0004216618229056208,0.0004201604675602964,3.555101117555222e-05
10.25,0.14839722021147442,0.09998715621919843,-0.25000000000000633,-0.11149375426590362,0.029557198803300926,-1.1812772982011666e-13,0.592911422252655,-0.16245481262213105,1.9959345428453816,5.029105289515494e-17,0.4142992355948285,-0.9778849045422415,0.00014163342772530502,0.00010350830180940845,9.667501903672743e-05
10.5,0.127747910455637,0.0974927911181368,-0.2500000000000183,-0.11436293531679131,0.012858475379027453,-4.796163466380676e-14,0.6518738865852356,-0.2837580902554448,2.0554096120686394,4.677262924329115e-17,0.33785323934177136,-0.918922440209661,0.0003787371984321798,5.032891470230164e-05,0.0003753782969500831
10.75,0.108790138587189,0.09111392418743168,-0.25000000000026756,-0.10759712933070475,-0.002677893329096643,-9.969802761133906e-13,0.697204053401947,-0.4097782060778249,2.1054904194595156,2.2017517244191293e-17,0.25981665798513964,-0.8735922733929496,0.0006593018456157297,4.079483861985571e-05,0.0006580385283357559
11.0,0.09148112304273369,0.08108970931825493,-0.2500000000286758,-0.10100283700829485,-0.017258773752234505,-1.1363288088261925e-10,0.7252554297447205,-0.5443516034442509,2.1454636757667718,4.2203636757165756e-17,0.17748400121123895,-0.8455408970501761,0.001584095659379577,5.8921548996801206e-05,0.0015829994659282214
11.25,0.07651337412471301,0.06782120610936147,-0.2500000000000163,-0.09163952092181844,-0.030234972471288788,1.1463785476450994e-10,0.7252484560012817,-0.6850022736981549,2.1718536040032714,5.735796345951507e-17,0.09135908210371164,-0.8455478707936149,0.002212897311208905,5.006246154621051e-06,0.002212891648376631
11.5,0.0644857271189555,0.051839255105913654,-0.2500000000003473,-0.07988175811660939,-0.0410873155011814,-1.3238299345630367e-12,0.6771067380905151,-0.8253307731834658,2.1814953161411865,6.084143057770407e-17,0.0034126801319832095,-0.8936895887043814,0.0029465850011532384,3.522134515697224e-05,0.0029463744883952824
11.75,0.055879391226317264,0.0337832927194705,-0.2500000000009172,-0.06620002271300646,-0.04938144223998185,-2.2797319587652964e-12,0.54377681016922,-0.9517203976048502,2.1741000169471043,7.148497689431416e-17,-0.07999094509134291,-1.0270195166256766,0.003615152983993974,0.00012374333802127896,0.003613034553388036
12.0,0.051038697210428356,0.014375699670014029,-0.24999999999999872,-0.05114170791547928,-0.05478564410171047,3.673950033089568e-12,0.2745499014854431,-1.0395839243841059,2.1582753796256053,6.072333000801577e-17,-0.14211883429369937,-1.2962464253094534,0.003518230674743054,0.00010360174650818532,0.003516704957602133
12.25,0.05015731666731264,-0.0056070445025702045,-0.2499999999999655,-0.035309210254276024,-0.05708355143137948,1.3289369604763124e-13,-0.11132695525884628,-1.0576133135576613,2.1537613918787395,6.282101615980077e-17,-0.15545683038736777,-1.6821232820537428,0.004965436193853557,2.6712407862026644e-06,0.0049654354753338155
12.5,0.053270514036899155,-0.025365456310135145,-0.2500000000000356,-0.01933598559900665,-0.05618363006346783,-2.8033131371785203e-13,-0.4443969428539276,-0.9970126353677327,2.167161944092665,6.304047798637405e-17,-0.11147412747245994,-2.015193269648824,0.0062886128393490354,0.0005291794963830972,0.006266308363289607
12.75,0.060253732004532,-0.04410903084691232,-0.25000000000018624,-0.0038610365040732675,-0.05212196239525335,-6.02629057766535e-13,-0.631916880607605,-0.883827531786984,2.1801262712848395,6.442652514699713e-17,-0.03451122677389623,-2.2027132074025015,0.012182965009769632,0.0016729166397507192,0.01206755925387219
13.0,0.070827573556625,-0.06108786140774439,-0.24999999999961411,0.010496294482019171,-0.04506157862037022,2.288502720659835e-12,-0.7116988897323608,-0.7473803006041913,2.1782917957935912,6.314155187547043e-17,0.05266388406027696,-2.2824952165272574,0.022186292445185468,0.0005246780562809697,0.02218008758775652
13.25,0.08456900808155791,-0.0756226529718635,-0.24999999999993563,0.023161307516992476,-0.0352850212364231,-1.2860823517257813e-12,-0.7296082973480225,-0.6057461307691946,2.1589585952883943,6.268321854052667e-17,0.13999388978874056,-2.300404624142919,0.026289655082245064,2.966162499410828e-05,0.026289638349194087
13.5,0.10092824880853513,-0.08713187785208433,-0.250000000005206,0.03362734113334442,-0.023182903827579315,-2.1081469903094785e-11,-0.7121678590774536,-0.4680226018938441,2.1245235237331244,6.464506052238896e-17,0.22410549530737536,-2.28296418587235,0.022353541400893476,0.00012971807726000503,0.022353165019341013
13.75,0.11925077428802268,-0.0951550614318495,-0.2500000000000824,0.041476011867651846,-0.009239111345606114,2.0494494989975465e-11,-0.6734840869903564,-0.3380870467487545,2.0784812854322916,2.2738251038681208e-17,0.3040573329383856,-2.244280413785253,0.011957373288596189,0.0015662438082677203,0.011854351787250817
14.0,0.138803558148992,-0.09937122675417023,-0.25000000000042366,0.046393860400870755,0.005988801302199188,-1.3651302310790925e-12,-0.6213259696960449,-0.21719913340828023,2.0241236884550777,7.289455296879158e-17,0.3796229272723504,-2.1921222964909415,0.0072911039465921815,0.0058198159538609745,0.0043920313094509425
14.25,0.15880427610558162,-0.09961166936311606,-0.2500000000000028,0.0481839219928956,0.021891684577819776,1.6835421945415874e-12,-0.5602232813835144,-0.10553647077802285,1.9643195379455716,1.0448266915817347e-16,0.4506612841124525,-2.131019608178411,0.007835563175738395,0.0070683354244953,0.003381521049440978
14.5,0.17845276131698995,-0.0958667821570355,-0.25000000000005285,0.04677438443579434,0.037832477860196057,-2.0028423364237824e-13,-0.49297139048576355,-0.0030285481320567885,1.9016401504058924,5.624960695693389e-17,0.5168793804991717,-2.06376771728066,0.006610058467849311,0.006070071595809493,0.002616697110888684
14.75,0.19696287533962561,-0.0882863986784691,-0.2500000000029629,0.04222125830286888,0.053173484901826704,-1.1640244323984916e-11,-0.42138832807540894,0.09018176266882409,1.8385836451591187,1.2093713800542343e-16,0.577719358691994,-1.9921846548703055,0.005771147035383237,0.005524522814218845,0.0016690673381227665
15.0,0.2135940853313261,-0.07717377875492812,-0.2500000000000029,0.034707014047981787,0.0673010810071993,1.1840084468417444e-11,-0.34671521186828613,0.1734377999191189,1.7778214165242539,1.2943853368273044e-16,0.6322793157004624,-1.9175115386631827,0.005010387461438166,0.004907545303488173,0.001009941388372595
15.25,0.22768095907819055,-0.06297355264901396,-0.25000000000000333,0.024531995110432546,0.07964979956742295,-1.7763568394002505e-15,-0.26984086632728577,0.24531635884455757,1.722428622621984,1.3753008020365894e-16,0.6792464316561294,-1.8406371931221823,0.0042711452674179355,0.004227198963450936,0.0006111225889999196
15.5,0.23865993004504713,-0.04625382986140026,-0.24999999999859698,0.012103558446965236,0.0897257411762506,5.625389043473206e-12,-0.19143317639827728,0.303433092564306,1.676011334741076,1.0843627236244865e-16,0.7168805706893981,-1.7622295031931738,0.0037771615775461895,0.003764087864985463,0.0003139938336343479
15.75,0.2460917394938056,-0.027683551587282806,-0.24999999999971753,-0.0020811676607971827,0.09712565228251306,-4.482192395016682e-12,-0.11202186346054077,0.34449776121311076,1.6425440848892265,5.618633596873296e-17,0.7431470184178878,-1.6828181902554373,0.0029530813267855237,0.0029486468971937937,0.00016177391099543942
16.0,0.2496790366555101,-0.008005690362563869,-0.2499999999997807,-0.017454752797571374,0.10155348284674834,-2.5268676040468563e-13,-0.03205294534564018,0.36500523868163626,1.6256807919401246,9.056446847649772e-17,0.7561254893693445,-1.6028492721405367,0.0024868609592052604,0.0024860040412844164,6.52789180123105e-05
16.25,0.24999679258792265,-0.000801418123287192,-0.2499999999997729,-0.030522979267639645,0.051650115499242255,3.11972669919669e-14,-0.0032057026401162148,0.3668471507073467,1.6241624601482454,8.414534715353142e-17,0.7572858948413388,-1.5740020294350128,0.0021031654525282793,0.002103137043449626,1.0931476498974696e-05
16.5,0.24815592109835097,0.019115864873433395,-0.249999999999785,-0.039160037388728815,0.10250931105614064,-4.8405723873656825e-14,0.0768798440694809,0.3562354574787175,1.632902022104882,3.784227316085074e-17,0.7505882611708795,-1.4939164827254157,0.0019810720551371804,0.0019810589138763166,7.215774153988797e-06
16.75,0.24269167813546688,0.037526696850219796,-0.24999999999940048,-0.05364897469846124,0.09647696912981497,1.5381029783156919e-12,0.1534120738506317,0.32549694254166445,1.658086287545824,1.1053134182041058e-16,0.7310349695555052,-1.4173842529442648,0.0019875220074145454,0.0018942747939128285,0.0006016367135603132
17.0,0.23336891083854142,0.05522339473239003,-0.250000000000002,-0.06907880533662816,0.09361023526682734,-2.4060753389676393e-12,0.23236140608787537,0.2751150998513408,1.6987871541957418,7.05447538678073e-17,0.6985970919061741,-1.3384349207070212,0.0014529921005384666,0.0014514281468105007,6.73971725921857e-05
17.25,0.22071068200752944,0.07071067607317537,-0.25000000000000394,-0.08241603032934008,0.08476682781675501,-7.771561172376096e-15,0.3100450932979584,0.20948236159507544,1.7503533082253377,6.670427767174848e-17,0.6558687430788406,-1.2607512334969382,0.0011378559898395603,0.0011218304432606126,0.00019029637460409761
17.5,0.20522341093577126,0.08336891972081498,-0.24999999999545292,-0.09372789270844678,0.07344765516542995,1.8204104890173767e-11,0.38586974143981934,0.13145398569950498,1.8089537955589046,6.251784056351484e-17,0.6047625604898416,-1.1849265853550772,0.0007305102234689455,0.0007188214293676815,0.00013015736350453563
17.75,0.18752670887079706,0.09269167489539865,-0.2500000000000126,-0.10256190894633832,0.06010523835407592,-1.8238743848542072e-11,0.459065318107605,0.04289817343288647,1.8712625076256857,5.825843250551453e-17,0.5468004137995599,-1.1117310086872916,0.0005856136321615229,0.00058561362195145,1.093540839501345e-07
18.0,0.16832861322559006,0.09830595788839795,-0.2499999999999768,-0.10856454682882416,0.045273196310863836,1.432187701766452e-13,0.5285807847976685,-0.05519022270746071,1.934439568761651,5.41291423311543e-17,0.4830747275337567,-1.0422155419972283,0.00025637767095663857,0.00025615775282448203,1.061677131061996e-05
18.25,0.14839722021147442,0.09998715621919843,-0.25000000000000633,-0.11149570442164347,0.029545235334348833,-1.1812772982011666e-13,0.592911422252655,-0.16245481262213105,1.9959345428453816,5.029105289515494e-17,0.4142992355948285,-0.9778849045422415,0.00011895824845212767,9.268654137389314e-05,7.45672174815698e-05
18.5,0.127747910455637,0.0974927911181368,-0.2500000000000183,-0.1143655920197391,0.012847173697581489,-4.796163466380676e-14,0.6518738865852356,-0.2837580902554448,2.0554096120686394,4.677262924329115e-17,0.33785323934177136,-0.918922440209661,0.0002876833067283409,1.4865366635467253e-05,0.00028729898336914773
18.75,0.108790138587189,0.09111392418743168,-0.25000000000026756,-0.10760063689673421,-0.0026888113001224713,-9.969802761133906e-13,0.697204053401947,-0.4097782060778249,2.1054904194595156,2.2017517244191293e-17,0.25981665798513964,-0.8735922733929496,0.0007864967134497443,2.6694403907987614e-06,0.0007864921832766357
19.0,0.09148112304273369,0.08108970931825493,-0.2500000000286758,-0.10100731607842356,-0.01726976591970215,-1.1363288088261925e-10,0.7252554297447205,-0.5443516034442509,2.1454636757667718,4.2203636757165756e-17,0.17748400121123895,-0.8455408970501761,0.0014763992350236156,1.668822397831456e-05,0.0014763049157808718
19.25,0.07651337412471301,0.06782120610936147,-0.2500000000000163,-0.09164498381917605,-0.030246293884792344,1.1463785476450994e-10,0.7252484560012817,-0.6850022736981549,2.1718536040032714,5.735796345951507e-17,0.09135908210371164,-0.8455478707936149,0.0020943981687073458,4.970192929383918e-07,0.002094398109733798
19.5,0.0644857271189555,0.051839255105913654,-0.2500000000003473,-0.0798881914297909,-0.04109924953873126,-1.3238299345630367e-12,0.6771067380905151,-0.8253307731834658,2.1814953161411865,6.084143057770407e-17,0.0034126801319832095,-0.8936895887043814,0.0030153554411258303,4.429477154584633e-05,0.0030150300843508763
19.75,0.055879391226317264,0.0337832927194705,-0.2500000000009172,-0.06620748115888002,-0.04939429895638754,-2.2797319587652964e-12,0.54377681016922,-0.9517203976048502,2.1741000169471043,7.148497689431416e-17,-0.07999094509134291,-1.0270195166256766,0.003393171955629067,8.137498525051116e-05,0.003392196048615567
20.0,0.051038697210428356,0.014375699670014029,-0.24999999999999872,-0.05115011173769898,-0.05479958576476933,3.673950033089568e-12,0.2745499014854431,-1.0395839243841059,2.1582753796256053,6.072333000801577e-17,-0.14211883429369937,-1.2962464253094534,0.003449993602156701,8.985967892691806e-05,0.003448823146092783
20.25,0.05015731666731264,-0.0056070445025702045,-0.2499999999999655,-0.035318490026497076,-0.057098728655584186,1.3289369604763124e-13,-0.11132695525884628,-1.0576133135576613,2.1537613918787395,6.282101615980077e-17,-0.15545683038736777,-1.6821232820537428,0.004786047417180606,3.1329997569798895e-06,0.004786046391732289
20.5,0.053270514036899155,-0.025365456310135145,-0.2500000000000356,-0.019345959711868338,-0.05620026561660495,-2.8033131371785203e-13,-0.4443969428539276,-0.9970126353677327,2.167161944092665,6.304047798637405e-17,-0.11147412747245994,-2.015193269648824,0.005916986266896516,0.0005967035955492959,0.0058868218336977475
20.75,0.060253732004532,-0.04410903084691232,-0.25000000000018624,-0.00387138885494602,-0.05214022498304264,-6.02629057766535e-13,-0.631916880607605,-0.883827531786984,2.1801262712848395,6.442652514699713e-17,-0.03451122677389623,-2.2027132074025015,0.011369546916784115,0.0016386425255162354,0.011250842091440309
21.0,0.070827573556625,-0.06108786140774439,-0.24999999999961411,0.010485760800498768,-0.04508182913404578,2.288502720659835e-12,-0.7116988897323608,-0.7473803006041913,2.1782917957935912,6.314155187547043e-17,0.05266388406027696,-2.2824952165272574,0.020910777258586644,0.0004527345918058287,0.02090587565608307
21.25,0.08456900808155791,-0.0756226529718635,-0.24999999999993563,0.0231504774706617,-0.03530765839073009,-1.2860823517257813e-12,-0.7296082973480225,-0.6057461307691946,2.1589585952883943,6.268321854052667e-17,0.13999388978874056,-2.300404624142919,0.027062811695239254,0.0001177216355898317,0.027062555652940332
21.5,0.10092824880853513,-0.08713187785208433,-0.250000000005206,0.033616231667681,-0.023208302974433433,-2.1081469903094785e-11,-0.7121678590774536,-0.4680226018938441,2.1245235237331244,6.464506052238896e-17,0.22410549530737536,-2.28296418587235,0.022254578532653346,0.00011245359571056162,0.022254294413772073
21.75,0.11925077428802268,-0.0951550614318495,-0.2500000000000824,0.04146475452637879,-0.00926686360719636,2.0494494989975465e-11,-0.6734840869903564,-0.3380870467487545,2.0784812854322916,2.2738251038681208e-17,0.3040573329383856,-2.244280413785253,0.011619119765262446,0.0014754602540383319,0.011525057967674852
22.0,0.138803558148992,-0.09937122675417023,-0.25000000000042366,0.046382908851504166,0.005959345038485976,-1.3651302310790925e-12,-0.6213259696960449,-0.21719913340828023,2.0241236884550777,7.289455296879158e-17,0.3796229272723504,-2.1921222964909415,0.007889516171345829,0.006175864629060596,0.004909497072149609
22.25,0.15880427610558162,-0.09961166936311606,-0.2500000000000028,0.048173792134103305,0.021860932647884263,1.6835421945415874e-12,-0.5602232813835144,-0.10553647077802285,1.9643195379455716,1.0448266915817347e-16,0.4506612841124525,-2.131019608178411,0.008380722513721248,0.00744380372142218,0.003850492956614189
22.5,0.17845276131698995,-0.0958667821570355,-0.25000000000005285,0.046765237138417785,0.037800700419934274,-2.0028423364237824e-13,-0.49297139048576355,-0.0030285481320567885,1.9016401504058924,5.624960695693389e-17,0.5168793804991717,-2.06376771728066,0.007838835077551032,0.0072718628857190186,0.0029270028261596816
22.75,0.19696287533962561,-0.0882863986784691,-0.2500000000029629,0.04221321599778994,0.05314096336622377,-1.1640244323984916e-11,-0.42138832807540894,0.09018176266882409,1.8385836451591187,1.2093713800542343e-16,0.577719358691994,-1.9921846548703055,0.006535016848889925,0.0062759293690842965,0.0018218550352704767
23.0,0.2135940853313261,-0.07717377875492812,-0.2500000000000029,0.03470006354986252,0.06726821675502033,1.1840084468417444e-11,-0.34671521186828613,0.1734377999191189,1.7778214165242539,1.2943853368273044e-16,0.6322793157004624,-1.9175115386631827,0.006137847574038723,0.006076696673644797,0.0008642513399742505
23.25,0.22768095907819055,-0.06297355264901396,-0.25000000000000333,0.024526219514726208,0.07961704641815025,-1.7763568394002505e-15,-0.26984086632728577,0.24531635884455757,1.722428622621984,1.3753008020365894e-16,0.6792464316561294,-1.8406371931221823,0.00481430901834117,0.00478800205674052,0.0005026008642349031
23.5,0.23865993004504713,-0.04625382986140026,-0.24999999999859698,0.012098830819008151,0.08969341454823404,5.625389043473206e-12,-0.19143317639827728,0.303433092564306,1.676011334741076,1.0843627236244865e-16,0.7168805706893981,-1.7622295031931738,0.004006867120252959,0.0039996383289547435,0.00024057713299553975
23.75,0.2460917394938056,-0.027683551587282806,-0.24999999999971753,-0.0020849645240501105,0.09709403171912809,-4.482192395016682e-12,-0.11202186346054077,0.34449776121311076,1.6425440848892265,5.618633596873296e-17,0.7431470184178878,-1.6828181902554373,0.0035448251783419473,0.0035445144896636208,4.693162656098938e-05
24.0,0.2496790366555101,-0.008005690362563869,-0.2499999999997807,-0.0174576460094256,0.10152289937289759,-2.5268676040468563e-13,-0.03205294534564018,0.36500523868163626,1.6256807919401246,9.056446847649772e-17,0.7561254893693445,-1.6028492721405367,0.0025755644291005986,0.002575418802036387,2.738836551813223e-05
24.25,0.24999679258792265,-0.000801418123287192,-0.2499999999997729,-0.030525211879933463,0.05162066822905302,3.11972669919669e-14,-0.0032057026401162148,0.3668471507073467,1.6241624601482454,8.414534715353142e-17,0.7572858948413388,-1.5740020294350128,0.002085340462041373,0.0020852169250921144,2.2698412638602617e-05
24.5,0.24815592109835097,0.019115864873433395,-0.249999999999785,-0.03916183420942226,0.10248096603809848,-4.8405723873656825e-14,0.0768798440694809,0.3562354574787175,1.632902022104882,3.784227316085074e-17,0.7505882611708795,-1.4939164827254157,0.0019735111805734874,0.0019735106497769535,1.4474341113831817e-06
24.75,0.24269167813546688,0.037526696850219796,-0.24999999999940048,-0.05365054235077565,0.0964492727778797,1.5381029783156919e-12,0.1534120738506317,0.32549694254166445,1.658086287545824,1.1053134182041058e-16,0.7310349695555052,-1.4173842529442648,0.002013643867473772,0.0019220917135377954,0.0006002708303458294
25.0,0.23336891083854142,0.05522339473239003,-0.250000000000002,-0.06908015465895215,0.09358348286635496,-2.4060753389676393e-12,0.23236140608787537,0.2751150998513408,1.6987871541957418,7.05447538678073e-17,0.6985970919061741,-1.3384349207070212,0.0013856061378180492,0.0013839769049758535,6.717362319026971e-05
25.25,0.22071068200752944,0.07071067607317537,-0.25000000000000394,-0.08241730135482407,0.0847413816431459,-7.771561172376096e-15,0.3100450932979584,0.20948236159507544,1.7503533082253377,6.670427767174848e-17,0.6558687430788406,-1.2607512334969382,0.0012137412096299355,0.0012120926173253613,6.323931513935365e-05
25.5,0.20522341093577126,0.08336891972081498,-0.24999999999545292,-0.09372926870160259,0.07342330385918741,1.8204104890173767e-11,0.38586974143981934,0.13145398569950498,1.8089537955589046,6.251784056351484e-17,0.6047625604898416,-1.1849265853550772,0.0007529645216594087,0.0007513109119019152,4.9874688318771294e-05
25.75,0.18752670887079706,0.09269167489539865,-0.2500000000000126,-0.1025635876995446,0.06008193606736356,-1.8238743848542072e-11,0.459065318107605,0.04289817343288647,1.8712625076256857,5.825843250551453e-17,0.5468004137995599,-1.1117310086872916,0.0004445695170966635,0.00043917339295217097,6.90564005320187e-05
26.0,0.16832861322559006,0.09830595788839795,-0.2499999999999768,-0.1085666489402732,0.04525125130888455,1.432187701766452e-13,0.5285807847976685,-0.05519022270746071,1.934439568761651,5.41291423311543e-17,0.4830747275337567,-1.0422155419972283,0.00019213915840711614,0.0001921391165640578,1.2680448842166443e-07
26.25,0.14839722021147442,0.09998715621919843,-0.25000000000000633,-0.11149843856382148,0.029524261504223284,-1.1812772982011666e-13,0.592911422252655,-0.16245481262213105,1.9959345428453816,5.029105289515494e-17,0.4142992355948285,-0.9778849045422415,0.0001397538867501401,0.00010003288580162674,9.75939066743907e-05
26.5,0.127747910455637,0.0974927911181368,-0.2500000000000183,-0.11436910651861035,0.012826700784898264,-4.796163466380676e-14,0.6518738865852356,-0.2837580902554448,2.0554096120686394,4.677262924329115e-17,0.33785323934177136,-0.918922440209661,0.00030344174930061445,8.861229405867384e-06,0.0003033123370917074
26.75,0.108790138587189,0.09111392418743168,-0.25000000000026756,-0.10760508281450754,-0.0027090644397916794,-9.969802761133906e-13,0.697204053401947,-0.4097782060778249,2.1054904194595156,2.2017517244191293e-17,0.25981665798513964,-0.8735922733929496,0.0007623549163687267,9.621854326350996e-06,0.0007622941941474372
27.0,0.09148112304273369,0.08108970931825493,-0.2500000000286758,-0.10101282714920967,-0.017290040205499034,-1.1363288088261925e-10,0.7252554297447205,-0.5443516034442509,2.1454636757667718,4.2203636757165756e-17,0.17748400121123895,-0.8455408970501761,0.0014290483440873394,1.070173309132932e-05,0.0014290082724209851
27.25,0.07651337412471301,0.06782120610936147,-0.2500000000000163,-0.09165152354373027,-0.030266926938484425,1.1463785476450994e-10,0.7252484560012817,-0.6850022736981549,2.1718536040032714,5.735796345951507e-17,0.09135908210371164,-0.8455478707936149,0.002238432778659038,1.648381223987061e-05,0.0022383720844643463
27.5,0.0644857271189555,0.051839255105913654,-0.2500000000003473,-0.07989584247833695,-0.041120579295861985,-1.3238299345630367e-12,0.6771067380905151,-0.8253307731834658,2.1814953161411865,6.084143057770407e-17,0.0034126801319832095,-0.8936895887043814,0.002852698629489135,2.47116712148305e-05,0.002852591594321725
27.75,0.055879391226317264,0.0337832927194705,-0.2500000000009172,-0.06621610719308672,-0.04941651122928985,-2.2797319587652964e-12,0.54377681016922,-0.9517203976048502,2.1741000169471043,7.148497689431416e-17,-0.07999094509134291,-1.0270195166256766,0.0030500563996651952,4.4722387316914235e-05,0.003049728504180542
28.0,0.051038697210428356,0.014375699670014029,-0.24999999999999872,-0.05115962758055861,-0.054822800873040776,3.673950033089568e-12,0.2745499014854431,-1.0395839243841059,2.1582753796256053,6.072333000801577e-17,-0.14211883429369937,-1.2962464253094534,0.0035555102408393797,7.609260521715008e-05,0.0035546959065642972
28.25,0.05015731666731264,-0.0056070445025702045,-0.2499999999999655,-0.03532888124665293,-0.05712323491871925,1.3289369604763124e-13,-0.11132695525884628,-1.0576133135576613,2.1537613918787395,6.282101615980077e-17,-0.15545683038736777,-1.6821232820537428,0.004259726239676472,9.935050521481232e-06,0.004259714653795415
28.5,0.053270514036899155,-0.025365456310135145,-0.2500000000000356,-0.019356958801396693,-0.0562260668377015,-2.8033131371785203e-13,-0.4443969428539276,-0.9970126353677327,2.167161944092665,6.304047798637405e-17,-0.11147412747245994,-2.015193269648824,0.006017407565860643,0.000571559742108645,0.005990201438589324
28.75,0.060253732004532,-0.04410903084691232,-0.25000000000018624,-0.003882779371248944,-0.052167681059808645,-6.02629057766535e-13,-0.631916880607605,-0.883827531786984,2.1801262712848395,6.442652514699713e-17,-0.03451122677389623,-2.2027132074025015,0.011216798772312414,0.0016578300656979407,0.011093609609672464
29.0,0.070827573556625,-0.06108786140774439,-0.24999999999961411,0.010474236624823392,-0.04511126119996499,2.288502720659835e-12,-0.7116988897323608,-0.7473803006041913,2.1782917957935912,6.314155187547043e-17,0.05266388406027696,-2.2824952165272574,0.02088325127249163,0.00048687188638560196,0.02087757503821434
29.25,0.08456900808155791,-0.0756226529718635,-0.24999999999993563,0.02313872471486368,-0.03533951546141617,-1.2860823517257813e-12,-0.7296082973480225,-0.6057461307691946,2.1589585952883943,6.268321854052667e-17,0.13999388978874056,-2.300404624142919,0.025856960531276802,6.573911692945578e-05,0.025856876963092655
29.5,0.10092824880853513,-0.08713187785208433,-0.250000000005206,0.03360421190839887,-0.023242532004577925,-2.1081469903094785e-11,-0.7121678590774536,-0.4680226018938441,2.1245235237331244,6.464506052238896e-17,0.22410549530737536,-2.28296418587235,0.021054536377498944,0.00012757005799807168,0.021054149898576496
29.75,0.11925077428802268,-0.0951550614318495,-0.2500000000000824,0.04145272233641768,-0.009303187133500083,2.0494494989975465e-11,-0.6734840869903564,-0.3380870467487545,2.0784812854322916,2.2738251038681208e-17,0.3040573329383856,-2.244280413785253,0.01228144982162007,0.0016627086969478024,0.012168377439497256
30.0,0.138803558148992,-0.09937122675417023,-0.25000000000042366,0.046371271488931914,0.005921178472143664,-1.3651302310790925e-12,-0.6213259696960449,-0.21719913340828023,2.0241236884550777,7.289455296879158e-17,0.3796229272723504,-2.1921222964909415,0.00793834275705266,0.006282911124927681,0.0048520422014560445
30.25,0.15880427610558162,-0.09961166936311606,-0.2500000000000028,0.04816307160429967,0.021821677308481464,1.6835421945415874e-12,-0.5602232813835144,-0.10553647077802285,1.9643195379455716,1.0448266915817347e-16,0.4506612841124525,-2.131019608178411,0.008640009247189372,0.00782349437458332,0.0036664281749927965
30.5,0.17845276131698995,-0.0958667821570355,-0.25000000000005285,0.046755646134732924,0.037760665724325154,-2.0028423364237824e-13,-0.49297139048576355,-0.0030285481320567885,1.9016401504058924,5.624960695693389e-17,0.5168793804991717,-2.06376771728066,0.007306867718709887,0.0067026407200434,0.0029094541131869938
30.75,0.19696287533962561,-0.0882863986784691,-0.2500000000029629,0.042204644443810474,0.05310043030154054,-1.1640244323984916e-11,-0.42138832807540894,0.09018176266882409,1.8385836451591187,1.2093713800542343e-16,0.577719358691994,-1.9921846548703055,0.00631799396183686,0.00609849363243319,0.0016508855553850057
31.0,0.2135940853313261,-0.07717377875492812,-0.2500000000000029,0.03469258647406495,0.06722759832331014,1.1840084468417444e-11,-0.34671521186828613,0.1734377999191189,1.7778214165242539,1.2943853368273044e-16,0.6322793157004624,-1.9175115386631827,0.004970913415872896,0.004852604285793778,0.001078059290392229
31.25,0.22768095907819055,-0.06297355264901396,-0.25000000000000333,0.024519579086164547,0.07957649103170786,-1.7763568394002505e-15,-0.26984086632728577,0.24531635884455757,1.722428622621984,1.3753008020365894e-16,0.6792464316561294,-1.8406371931221823,0.003966356892315333,0.0039056789147617257,0.0006911289402152181
31.5,0.23865993004504713,-0.04625382986140026,-0.24999999999859698,0.012092963547094215,0.08965315494157133,5.625389043473206e-12,-0.19143317639827728,0.303433092564306,1.676011334741076,1.0843627236244865e-16,0.7168805706893981,-1.7622295031931738,0.003665958784874754,0.003653729492749254,0.0002991899166326722
31.75,0.2460917394938056,-0.027683551587282806,-0.24999999999971753,-0.002090028073038,0.09705438351842886,-4.482192395016682e-12,-0.11202186346054077,0.34449776121311076,1.6425440848892265,5.618633596873296e-17,0.7431470184178878,-1.6828181902554373,0.0035455165398089127,0.0035452131498393694,4.638163714857459e-05
32.0,0.2496790366555101,-0.008005690362563869,-0.2499999999997807,-0.017461909035318822,0.10148417066846196,-2.5268676040468563e-13,-0.03205294534564018,0.36500523868163626,1.6256807919401246,9.056446847649772e-17,0.7561254893693445,-1.6028492721405367,0.0025760739993707475,0.002575932763560613,2.6974948544549512e-05
32.25,0.24999679258792265,-0.000801418123287192,-0.2499999999997729,-0.030528853624492626,0.051582994272583865,3.11972669919669e-14,-0.0032057026401162148,0.3668471507073467,1.6241624601482454,8.414534715353142e-17,0.7572858948413388,-1.5740020294350128,0.0022844070861928545,0.0022843468231400345,1.6592982196094988e-05
32.5,0.24815592109835097,0.019115864873433395,-0.249999999999785,-0.039164868354107,0.10244485999873018,-4.8405723873656825e-14,0.0768798440694809,0.3562354574787175,1.632902022104882,3.784227316085074e-17,0.7505882611708795,-1.4939164827254157,0.0019896348823180265,0.0019895516678655714,1.8196863190970538e-05
32.75,0.24269167813546688,0.037526696850219796,-0.24999999999940048,-0.053653298020549495,0.09641401159284348,1.5381029783156919e-12,0.1534120738506317,0.32549694254166445,1.658086287545824,1.1053134182041058e-16,0.7310349695555052,-1.4173842529442648,0.0019869694696446243,0.001894695336045715,0.0005984791198249567
33.0,0.23336891083854142,0.05522339473239003,-0.250000000000002,-0.06908272096674187,0.09354914986335672,-2.4060753389676393e-12,0.23236140608787537,0.2751150998513408,1.6987871541957418,7.05447538678073e-17,0.6985970919061741,-1.3384349207070212,0.001448376679198675,0.001341273434724386,0.000546608249250988
33.25,0.22071068200752944,0.07071067607317537,-0.25000000000000394,-0.0824196317017337,0.08470913607312902,-7.771561172376096e-15,0.3100450932979584,0.20948236159507544,1.7503533082253377,6.670427767174848e-17,0.6558687430788406,-1.2607512334969382,0.0012238710114662928,0.0012205278430885108,9.039931942904424e-05
33.5,0.20522341093577126,0.08336891972081498,-0.24999999999545292,-0.09373167880838311,0.07339238001428493,1.8204104890173767e-11,0.38586974143981934,0.13145398569950498,1.8089537955589046,6.251784056351484e-17,0.6047625604898416,-1.1849265853550772,0.0006437006522790762,0.0006238173258582502,0.00015875286990656195
33.75,0.18752670887079706,0.09269167489539865,-0.2500000000000126,-0.10256630913897966,0.06005248008453072,-1.8238743848542072e-11,0.459065318107605,0.04289817343288647,1.8712625076256857,5.825843250551453e-17,0.5468004137995599,-1.1117310086872916,0.0004929906186049307,0.000491898550658015,3.2795821273701166e-05
34.0,0.16832861322559006,0.09830595788839795,-0.2499999999999768,-0.10856985178590191,0.045222672425615604,1.432187701766452e-13,0.5285807847976685,-0.05519022270746071,1.934439568761651,5.41291423311543e-17,0.4830747275337567,-1.0422155419972283,0.00034689995961345593,0.0003458791239835472,2.65934874018308e-05
34.25,0.14839722021147442,0.09998715621919843,-0.25000000000000633,-0.11150223497594201,0.02949611640132431,-1.1812772982011666e-13,0.592911422252655,-0.16245481262213105,1.9959345428453816,5.029105289515494e-17,0.4142992355948285,-0.9778849045422415,0.0001184948220783937,9.278871524454368e-05,7.369719928638515e-05
34.5,0.127747910455637,0.0974927911181368,-0.2500000000000183,-0.11437370475252176,0.012799129609989818,-4.796163466380676e-14,0.6518738865852356,-0.2837580902554448,2.0554096120686394,4.677262924329115e-17,0.33785323934177136,-0.918922440209661,0.00035996593066344167,6.371982117428398e-05,0.00035428132271955146
34.75,0.108790138587189,0.09111392418743168,-0.25000000000026756,-0.10761048573728912,-0.0027365890421825294,-9.969802761133906e-13,0.697204053401947,-0.4097782060778249,2.1054904194595156,2.2017517244191293e-17,0.25981665798513964,-0.8735922733929496,0.0007284081544916732,4.464514694613344e-09,0.0007284081544779914
35.0,0.09148112304273369,0.08108970931825493,-0.2500000000286758,-0.10101919938919574,-0.017317648185897903,-1.1363288088261925e-10,0.7252554297447205,-0.5443516034442509,2.1454636757667718,4.2203636757165756e-17,0.17748400121123895,-0.8455408970501761,0.001531795738821046,4.6950842375758086e-05,0.0015310760281156913
35.25,0.07651337412471301,0.06782120610936147,-0.2500000000000163,-0.09165909418685872,-0.030294972552733654,1.1463785476450994e-10,0.7252484560012817,-0.6850022736981549,2.1718536040032714,5.735796345951507e-17,0.09135908210371164,-0.8455478707936149,0.0023572012403886814,3.1198189686171645e-05,0.00235699477314869
35.5,0.0644857271189555,0.051839255105913654,-0.2500000000003473,-0.07990453949589393,-0.04114937378534722,-1.3238299345630367e-12,0.6771067380905151,-0.8253307731834658,2.1814953161411865,6.084143057770407e-17,0.0034126801319832095,-0.8936895887043814,0.002987888417905156,4.1121447094738186e-05,0.002987605433192377
35.75,0.055879391226317264,0.0337832927194705,-0.2500000000009172,-0.0662258898844731,-0.04944629229074761,-2.2797319587652964e-12,0.54377681016922,-0.9517203976048502,2.1741000169471043,7.148497689431416e-17,-0.07999094509134291,-1.0270195166256766,0.003397752869124113,0.00010351280346855884,0.0033961757403231096
36.0,0.051038697210428356,0.014375699670014029,-0.24999999999999872,-0.05117052265714915,-0.05485381181115792,3.673950033089568e-12,0.2745499014854431,-1.0395839243841059,2.1582753796256053,6.072333000801577e-17,-0.14211883429369937,-1.2962464253094534,0.0034438825080085732,8.951100919017383e-05,0.0034427190574023285
36.25,0.05015731666731264,-0.0056070445025702045,-0.2499999999999655,-0.0353406652011855,-0.057155433825384044,1.3289369604763124e-13,-0.11132695525884628,-1.0576133135576613,2.1537613918787395,6.282101615980077e-17,-0.15545683038736777,-1.6821232820537428,0.004710879723485361,6.133885003296996e-06,0.004710875730116459
36.5,0.053270514036899155,-0.025365456310135145,-0.2500000000000356,-0.019369467350805115,-0.05625986257291332,-2.8033131371785203e-13,-0.4443969428539276,-0.9970126353677327,2.167161944092665,6.304047798637405e-17,-0.11147412747245994,-2.015193269648824,0.005934279357786679,0.0005811951619189964,0.00590575005228083
36.75,0.060253732004532,-0.04410903084691232,-0.25000000000018624,-0.0038956302170340407,-0.0522030537316851,-6.02629057766535e-13,-0.631916880607605,-0.883827531786984,2.1801262712848395,6.442652514699713e-17,-0.03451122677389623,-2.2027132074025015,0.011397668231594526,0.00168161749490081,0.011272932347811841
37.0,0.070827573556625,-0.06108786140774439,-0.24999999999961411,0.010461271167721484,-0.04514864260756154,2.288502720659835e-12,-0.7116988897323608,-0.7473803006041913,2.1782917957935912,6.314155187547043e-17,0.05266388406027696,-2.2824952165272574,0.021925037447097784,0.0005759385629094036,0.02191747161121451
37.25,0.08456900808155791,-0.0756226529718635,-0.24999999999993563,0.02312557138546862,-0.03537950027091806,-1.2860823517257813e-12,-0.7296082973480225,-0.6057461307691946,2.1589585952883943,6.268321854052667e-17,0.13999388978874056,-2.300404624142919,0.028698045623217483,0.00013158566347049635,0.028697743949750495
37.5,0.10092824880853513,-0.08713187785208433,-0.250000000005206,0.033590839535992977,-0.02328555113027994,-2.1081469903094785e-11,-0.7121678590774536,-0.4680226018938441,2.1245235237331244,6.464506052238896e-17,0.22410549530737536,-2.28296418587235,0.02533541583257339,0.00011097186788263452,0.025335172797001974
37.75,0.11925077428802268,-0.0951550614318495,-0.2500000000000824,0.04143910328769694,-0.009349238778225171,2.0494494989975465e-11,-0.6734840869903564,-0.3380870467487545,2.0784812854322916,2.2738251038681208e-17,0.3040573329383856,-2.244280413785253,0.014553403333707063,0.001333289042064439,0.014492200968930384
38.0,0.138803558148992,-0.09937122675417023,-0.25000000000042366,0.04635778255881922,0.0058728994271820475,-1.3651302310790925e-12,-0.6213259696960449,-0.21719913340828023,2.0241236884550777,7.289455296879158e-17,0.3796229272723504,-2.1921222964909415,0.007765895708656302,0.005743732360848244,0.005226726960983424
38.25,0.15880427610558162,-0.09961166936311606,-0.2500000000000028,0.04815035920185697,0.021772229360489948,1.6835421945415874e-12,-0.5602232813835144,-0.10553647077802285,1.9643195379455716,1.0448266915817347e-16,0.4506612841124525,-2.131019608178411,0.008794873173974309,0.007961720515237821,0.0037364154725530903
38.5,0.17845276131698995,-0.0958667821570355,-0.25000000000005285,0.04674406304470268,0.03771040798315813,-2.0028423364237824e-13,-0.49297139048576355,-0.0030285481320567885,1.9016401504058924,5.624960695693389e-17,0.5168793804991717,-2.06376771728066,0.007539563806597497,0.006960432896686403,0.0028978261308230118
38.75,0.19696287533962561,-0.0882863986784691,-0.2500000000029629,0.04219422852397451,0.053049668865960534,-1.1640244323984916e-11,-0.42138832807540894,0.09018176266882409,1.8385836451591187,1.2093713800542343e-16,0.577719358691994,-1.9921846548703055,0.00713789216162938,0.006929892141734126,0.0017105845243605311
39.0,0.2135940853313261,-0.07717377875492812,-0.2500000000000029,0.03468346595564742,0.0671765929639615,1.1840084468417444e-11,-0.34671521186828613,0.1734377999191189,1.7778214165242539,1.2943853368273044e-16,0.6322793157004624,-1.9175115386631827,0.006008367829932969,0.00592640528068394,0.0009890421774903892
39.25,0.22768095907819055,-0.06297355264901396,-0.25000000000000333,0.024511791588187726,0.07952563555919806,-1.7763568394002505e-15,-0.26984086632728577,0.24531635884455757,1.722428622621984,1.3753008020365894e-16,0.6792464316561294,-1.8406371931221823,0.004547103966298548,0.004517323056897163,0.0005195641249675086
39.5,0.23865993004504713,-0.04625382986140026,-0.24999999999859698,0.012086351553356668,0.08960286953968821,5.625389043473206e-12,-0.19143317639827728,0.303433092564306,1.676011334741076,1.0843627236244865e-16,0.7168805706893981,-1.7622295031931738,0.003835292227158652,0.0038260084181606304,0.00026669467911370873
39.75,0.2460917394938056,-0.027683551587282806,-0.24999999999971753,-0.0020956917608966064,0.09700480773554482,-4.482192395016682e-12,-0.11202186346054077,0.34449776121311076,1.6425440848892265,5.618633596873296e-17,0.7431470184178878,-1.6828181902554373,0.0030984695817150524,0.0030956400915033264,0.00013238645206640134
40.0,0.2496790366555101,-0.008005690362563869,-0.2499999999997807,-0.017466985131146695,0.10143525505037108,-2.5268676040468563e-13,-0.03205294534564018,0.36500523868163626,1.6256807919401246,9.056446847649772e-17,0.7561254893693445,-1.6028492721405367,0.002485322473941187,0.0024837159540023177,8.934684835794475e-05
40.25,0.24999679258792265,-0.000801418123287192,-0.2499999999997729,-0.030533407901336095,0.051534859342282004,3.11972669919669e-14,-0.0032057026401162148,0.3668471507073467,1.6241624601482454,8.414534715353142e-17,0.7572858948413388,-1.5740020294350128,0.002169322591111511,0.0021692006206803904,2.300372897094777e-05
40.5,0.24815592109835097,0.019115864873433395,-0.249999999999785,-0.03916913442255978,0.10239737206285492,-4.8405723873656825e-14,0.0768798440694809,0.3562354574787175,1.632902022104882,3.784227316085074e-17,0.7505882611708795,-1.4939164827254157,0.001988752937484193,0.0019871956529161528,7.868725044854328e-05
40.75,0.24269167813546688,0.037526696850219796,-0.24999999999940048,-0.05365726130472473,0.09636754638275657,1.5381029783156919e-12,0.1534120738506317,0.32549694254166445,1.658086287545824,1.1053134182041058e-16,0.7310349695555052,-1.4173842529442648,0.001950247948860245,0.0018958771196570395,0.0004572931326780673
41.0,0.23336891083854142,0.05522339473239003,-0.250000000000002,-0.0690864537981973,0.0935037923637346,-2.4060753389676393e-12,0.23236140608787537,0.2751150998513408,1.6987871541957418,7.05447538678073e-17,0.6985970919061741,-1.3384349207070212,0.001455356538710676,0.001423525686972509,0.00030271648996605
41.25,0.22071068200752944,0.07071067607317537,-0.25000000000000394,-0.08242333977025965,0.08466478411768467,-7.771561172376096e-15,0.3100450932979584,0.20948236159507544,1.7503533082253377,6.670427767174848e-17,0.6558687430788406,-1.2607512334969382,0.0011963579883685698,0.0011720331987472188,0.00024002211849671908
41.5,0.20522341093577126,0.08336891972081498,-0.24999999999545292,-0.09373544576881541,0.07334965620952269,1.8204104890173767e-11,0.38586974143981934,0.13145398569950498,1.8089537955589046,6.251784056351484e-17,0.6047625604898416,-1.1849265853550772,0.0006866761499421514,0.0006558296346167387,0.0002034984650012155
41.75,0.18752670887079706,0.09269167489539865,-0.2500000000000126,-0.10257036664118857,0.060011030235196744,-1.8238743848542072e-11,0.459065318107605,0.04289817343288647,1.8712625076256857,5.825843250551453e-17,0.5468004137995599,-1.1117310086872916,0.0006781344685833632,0.0006781338329447096,9.284915493514772e-07
42.0,0.16832861322559006,0.09830595788839795,-0.2499999999999768,-0.10857432575425378,0.04518182433822407,1.432187701766452e-13,0.5285807847976685,-0.05519022270746071,1.934439568761651,5.41291423311543e-17,0.4830747275337567,-1.0422155419972283,0.0003815369964579978,0.00038085829615764374,2.2747261683261585e-05
42.25,0.14839722021147442,0.09998715621919843,-0.25000000000000633,-0.1115073245107796,0.029455969282157574,-1.1812772982011666e-13,0.592911422252655,-0.16245481262213105,1.9959345428453816,5.029105289515494e-17,0.4142992355948285,-0.9778849045422415,0.0001404168071951755,0.00010373560729975125,9.4635107233198e-05
42.5,0.127747910455637,0.0974927911181368,-0.2500000000000183,-0.11437961543985616,0.012759378181799393,-4.796163466380676e-14,0.6518738865852356,-0.2837580902554448,2.0554096120686394,4.677262924329115e-17,0.33785323934177136,-0.918922440209661,0.00035849461279948797,6.380110119205263e-05,0.0003527716072658573
42.75,0.108790138587189,0.09111392418743168,-0.25000000000026756,-0.10761731594108367,-0.0027762229521689392,-9.969802761133906e-13,0.697204053401947,-0.4097782060778249,2.1054904194595156,2.2017517244191293e-17,0.25981665798513964,-0.8735922733929496,0.0006990771035866541,7.983080133811675e-06,0.0006990315208849188
43.0,0.09148112304273369,0.08108970931825493,-0.2500000000286758,-0.10102696371159085,-0.017357385660363468,-1.1363288088261925e-10,0.7252554297447205,-0.5443516034442509,2.1454636757667718,4.2203636757165756e-17,0.17748400121123895,-0.8455408970501761,0.0013790019876063935,6.000866625358631e-06,0.0013789889308555485
43.25,0.07651337412471301,0.06782120610936147,-0.2500000000000163,-0.09166775858351398,-0.030335057528969298,1.1463785476450994e-10,0.7252484560012817,-0.6850022736981549,2.1718536040032714,5.735796345951507e-17,0.09135908210371164,-0.8455478707936149,0.002028971358708844,6.179988755007497e-09,0.002028971358699432
43.5,0.0644857271189555,0.051839255105913654,-0.2500000000003473,-0.0799140000687614,-0.041190003178526106,-1.3238299345630367e-12,0.6771067380905151,-0.8253307731834658,2.1814953161411865,6.084143057770407e-17,0.0034126801319832095,-0.8936895887043814,0.0028087633776458657,4.3489395222482925e-06,0.002808760010810757
43.75,0.055879391226317264,0.0337832927194705,-0.2500000000009172,-0.06623618570138975,-0.049487807913994396,-2.2797319587652964e-12,0.54377681016922,-0.9517203976048502,2.1741000169471043,7.148497689431416e-17,-0.07999094509134291,-1.0270195166256766,0.00303246770039018,3.0313050065803174e-05,0.003032316189467288
44.0,0.051038697210428356,0.014375699670014029,-0.24999999999999872,-0.051181568571005344,-0.054896283924756886,3.673950033089568e-12,0.2745499014854431,-1.0395839243841059,2.1582753796256053,6.072333000801577e-17,-0.14211883429369937,-1.2962464253094534,0.0035470081880418836,7.574271438916108e-05,0.0035461993919199087
44.25,0.05015731666731264,-0.0056070445025702045,-0.2499999999999655,-0.03535257240022066,-0.05719921461262627,1.3289369604763124e-13,-0.11132695525884628,-1.0576133135576613,2.1537613918787395,6.282101615980077e-17,-0.15545683038736777,-1.6821232820537428,0.004599115457743144,3.7389146404396186e-06,0.004599113937941659
44.5,0.053270514036899155,-0.025365456310135145,-0.2500000000000356,-0.019382048023221132,-0.0563050139288367,-2.8033131371785203e-13,-0.4443969428539276,-0.9970126353677327,2.167161944092665,6.304047798637405e-17,-0.11147412747245994,-2.015193269648824,0.005675626108676574,0.0005829445544338526,0.005645609566020937
44.75,0.060253732004532,-0.04410903084691232,-0.25000000000018624,-0.003908524570501254,-0.05224966370308497,-6.02629057766535e-13,-0.631916880607605,-0.883827531786984,2.1801262712848395,6.442652514699713e-17,-0.03451122677389623,-2.2027132074025015,0.011410904878154713,0.0016491512097094499,0.011291104924931347
45.0,0.070827573556625,-0.06108786140774439,-0.24999999999961411,0.0104482657215677,-0.045197185220199464,2.288502720659835e-12,-0.7116988897323608,-0.7473803006041913,2.1782917957935912,6.314155187547043e-17,0.05266388406027696,-2.2824952165272574,0.02115677683878417,0.0004922336759629707,0.021151049908086413
45.25,0.08456900808155791,-0.0756226529718635,-0.24999999999993563,0.023112354664804644,-0.03543020588580628,-1.2860823517257813e-12,-0.7296082973480225,-0.6057461307691946,2.1589585952883943,6.268321854052667e-17,0.13999388978874056,-2.300404624142919,0.026690127423972098,8.825948228501761e-05,0.026689981494404495
45.5,0.10092824880853513,-0.08713187785208433,-0.250000000005206,0.0335774446066882,-0.023338335676290133,-2.1081469903094785e-11,-0.7121678590774536,-0.4680226018938441,2.1245235237331244,6.464506052238896e-17,0.22410549530737536,-2.28296418587235,0.02097915105403511,9.113767805977104e-05,0.020978953092841892
45.75,0.11925077428802268,-0.0951550614318495,-0.2500000000000824,0.04142584820434639,-0.009403282679425026,2.0494494989975465e-11,-0.6734840869903564,-0.3380870467487545,2.0784812854322916,2.2738251038681208e-17,0.3040573329383856,-2.244280413785253,0.011280589360947295,0.0015568607673142067,0.01117263983495016
46.0,0.138803558148992,-0.09937122675417023,-0.25000000000042366,0.04634526870646544,0.0058181566513425785,-1.3651302310790925e-12,-0.6213259696960449,-0.21719913340828023,2.0241236884550777,7.289455296879158e-17,0.3796229272723504,-2.1921222964909415,0.007946126786471872,0.006360836207372431,0.00476242518572898
46.25,0.15880427610558162,-0.09961166936311606,-0.2500000000000028,0.048138994927943816,0.021716646153092517,1.6835421945415874e-12,-0.5602232813835144,-0.10553647077802285,1.9643195379455716,1.0448266915817347e-16,0.4506612841124525,-2.131019608178411,0.008520933430368234,0.007724767243431498,0.0035964256644027423
46.5,0.17845276131698995,-0.0958667821570355,-0.25000000000005285,0.04673379245580113,0.0376541904718664,-2.0028423364237824e-13,-0.49297139048576355,-0.0030285481320567885,1.9016401504058924,5.624960695693389e-17,0.5168793804991717,-2.06376771728066,0.007187550544426608,0.006599590696733734,0.0028471539235300895
46.75,0.19696287533962561,-0.0882863986784691,-0.2500000000029629,0.042185007333943196,0.052993051534361145,-1.1640244323984916e-11,-0.42138832807540894,0.09018176266882409,1.8385836451591187,1.2093713800542343e-16,0.577719358691994,-1.9921846548703055,0.006014393638281996,0.005812434352679324,0.0015454894797442755
47.0,0.2135940853313261,-0.07717377875492812,-0.2500000000000029,0.03467513534806819,0.06712008307003368,1.1840084468417444e-11,-0.34671521186828613,0.1734377999191189,1.7778214165242539,1.2943853368273044e-16,0.6322793157004624,-1.9175115386631827,0.004557271670255376,0.004435009599862175,0.0010485298878155922
47.25,0.22768095907819055,-0.06297355264901396,-0.25000000000000333,0.024504094755415262,0.0794693527223511,-1.7763568394002505e-15,-0.26984086632728577,0.24531635884455757,1.722428622621984,1.3753008020365894e-16,0.6792464316561294,-1.8406371931221823,0.004934062627309819,0.00491819298595237,0.00039541340789657026
47.5,0.23865993004504713,-0.04625382986140026,-0.24999999999859698,0.012079842176940879,0.08954722139754957,5.625389043473206e-12,-0.19143317639827728,0.303433092564306,1.676011334741076,1.0843627236244865e-16,0.7168805706893981,-1.7622295031931738,0.0039511403886560515,0.003941460026495302,0.00027641134276427026
47.75,0.2460917394938056,-0.027683551587282806,-0.24999999999971753,-0.0021012635466088614,0.09694980541804626,-4.482192395016682e-12,-0.11202186346054077,0.34449776121311076,1.6425440848892265,5.618633596873296e-17,0.7431470184178878,-1.6828181902554373,0.00359612402560155,0.0035960100932269975,2.8625459267206762e-05
48.0,0.2496790366555101,-0.008005690362563869,-0.2499999999997807,-0.017471501324825056,0.10138153071030095,-2.5268676040468563e-13,-0.03205294534564018,0.36500523868163626,1.6256807919401246,9.056446847649772e-17,0.7561254893693445,-1.6028492721405367,0.002485741840093886,0.002485626598930244,2.3935460802040233e-05
48.25,0.24999679258792265,-0.000801418123287192,-0.2499999999997729,-0.03053725319277549,0.051482469283870846,3.11972669919669e-14,-0.0032057026401162148,0.3668471507073467,1.6241624601482454,8.414534715353142e-17,0.7572858948413388,-1.5740020294350128,0.002245518779819669,0.0022455183111591346,1.4507831829266559e-06
48.5,0.24815592109835097,0.019115864873433395,-0.249999999999785,-0.0391724180011211,0.10234652210561299,-4.8405723873656825e-14,0.0768798440694809,0.3562354574787175,1.632902022104882,3.784227316085074e-17,0.7505882611708795,-1.4939164827254157,0.0019903923591405325,0.0019903010536687703,1.9064603064285947e-05
48.75,0.24269167813546688,0.037526696850219796,-0.24999999999940048,-0.05366037346166357,0.09631711946139769,1.5381029783156919e-12,0.1534120738506317,0.32549694254166445,1.658086287545824,1.1053134182041058e-16,0.7310349695555052,-1.4173842529442648,0.001986155685971522,0.001895352636596639,0.0005936773465976084
49.0,0.23336891083854142,0.05522339473239003,-0.250000000000002,-0.06908942961515771,0.0934540633615333,-2.4060753389676393e-12,0.23236140608787537,0.2751150998513408,1.6987871541957418,7.05447538678073e-17,0.6985970919061741,-1.3384349207070212,0.0013907651720329092,0.0013899900103318092,4.6427738664555935e-05
49.25,0.22071068200752944,0.07071067607317537,-0.25000000000000394,-0.08242645235276122,0.08461555643706853,-7.771561172376096e-15,0.3100450932979584,0.20948236159507544,1.7503533082253377,6.670427767174848e-17,0.6558687430788406,-1.2607512334969382,0.0012244740366620522,0.0012209966354961269,9.221649834275279e-05
49.5,0.20522341093577126,0.08336891972081498,-0.24999999999545292,-0.09373874550342519,0.07330122978824703,1.8204104890173767e-11,0.38586974143981934,0.13145398569950498,1.8089537955589046,6.251784056351484e-17,0.6047625604898416,-1.1849265853550772,0.0008381553362755842,0.0008381065004775491,9.047739193501717e-06
49.75,0.18752670887079706,0.09269167489539865,-0.2500000000000126,-0.10257403096705436,0.05996284465811933,-1.8238743848542072e-11,0.459065318107605,0.04289817343288647,1.8712625076256857,5.825843250551453e-17,0.5468004137995599,-1.1117310086872916,0.0003367229874448976,0.000326385904521261,8.279258181537153e-05
50.0,0.16832861322559006,0.09830595788839795,-0.2499999999999768,-0.10857873586756979,0.04513524747344071,1.432187701766452e-13,0.5285807847976685,-0.05519022270746071,1.934439568761651,5.41291423311543e-17,0.4830747275337567,-1.0422155419972283,0.00022674044995327542,0.00022674025163614095,2.9988830133920594e-07
50.25,0.14839722021147442,0.09998715621919843,-0.25000000000000633,-0.11151254674740796,0.02941043895563753,-1.1812772982011666e-13,0.592911422252655,-0.16245481262213105,1.9959345428453816,5.029105289515494e-17,0.4142992355948285,-0.9778849045422415,0.000196212812903481,0.0001714414735065046,9.543211780849731e-05
50.5,0.127747910455637,0.0974927911181368,-0.2500000000000183,-0.11438552950190446,0.012714249413312242,-4.796163466380676e-14,0.6518738865852356,-0.2837580902554448,2.0554096120686394,4.677262924329115e-17,0.33785323934177136,-0.918922440209661,0.00029949427914034666,8.945422412704157e-06,0.0002993606564925561
50.75,0.108790138587189,0.09111392418743168,-0.25000000000026756,-0.10762438517506305,-0.002821086033015976,-9.969802761133906e-13,0.697204053401947,-0.4097782060778249,2.1054904194595156,2.2017517244191293e-17,0.25981665798513964,-0.8735922733929496,0.0007536948044392579,8.191727872467187e-07,0.0007536943592695091
51.0,0.09148112304273369,0.08108970931825493,-0.2500000000286758,-0.10103527892412081,-0.017402410116640264,-1.1363288088261925e-10,0.7252554297447205,-0.5443516034442509,2.1454636757667718,4.2203636757165756e-17,0.17748400121123895,-0.8455408970501761,0.0014205908573678538,1.0575816104658708e-05,0.0014205514901441815
51.25,0.07651337412471301,0.06782120610936147,-0.2500000000000163,-0.0916771975668168,-0.030380546821739483,1.1463785476450994e-10,0.7252484560012817,-0.6850022736981549,2.1718536040032714,5.735796345951507e-17,0.09135908210371164,-0.8455478707936149,0.002207895196117559,2.7599692925764742e-05,0.0022077226850284884
51.5,0.0644857271189555,0.051839255105913654,-0.2500000000003473,-0.07992477151401038,-0.041236280890839194,-1.3238299345630367e-12,0.6771067380905151,-0.8253307731834658,2.1814953161411865,6.084143057770407e-17,0.0034126801319832095,-0.8936895887043814,0.0031037542000072957,5.89775399587191e-05,0.0031031938037839896
51.75,0.055879391226317264,0.0337832927194705,-0.2500000000009172,-0.066248287711626,-0.0495351795622121,-2.2797319587652964e-12,0.54377681016922,-0.9517203976048502,2.1741000169471043,7.148497689431416e-17,-0.07999094509134291,-1.0270195166256766,0.0036080856379233943,0.00015016735410244592,0.003604959325200624
52.0,0.051038697210428356,0.014375699670014029,-0.24999999999999872,-0.05119504608899935,-0.05494507476181375,3.673950033089568e-12,0.2745499014854431,-1.0395839243841059,2.1582753796256053,6.072333000801577e-17,-0.14211883429369937,-1.2962464253094534,0.004104368842307899,0.00020222338914977343,0.004099384014042679
52.25,0.05015731666731264,-0.0056070445025702045,-0.2499999999999655,-0.03536728185357999,-0.05724955255874424,1.3289369604763124e-13,-0.11132695525884628,-1.0576133135576613,2.1537613918787395,6.282101615980077e-17,-0.15545683038736777,-1.6821232820537428,0.0047526900405612015,1.8617758776878068e-06,0.004752689675903553
52.5,0.053270514036899155,-0.025365456310135145,-0.2500000000000356,-0.01939760804829179,-0.05635681999261545,-2.8033131371785203e-13,-0.4443969428539276,-0.9970126353677327,2.167161944092665,6.304047798637405e-17,-0.11147412747245994,-2.015193269648824,0.006166503660173397,0.0004392716980576288,0.006150837972684492
52.75,0.060253732004532,-0.04410903084691232,-0.25000000000018624,-0.003924635094562617,-0.05230324510028418,-6.02629057766535e-13,-0.631916880607605,-0.883827531786984,2.1801262712848395,6.442652514699713e-17,-0.03451122677389623,-2.2027132074025015,0.011440483860557267,0.0016916296522715248,0.011314727574414995
53.0,0.070827573556625,-0.06108786140774439,-0.24999999999961411,0.010432097542650592,-0.045252685262253844,2.288502720659835e-12,-0.7116988897323608,-0.7473803006041913,2.1782917957935912,6.314155187547043e-17,0.05266388406027696,-2.2824952165272574,0.021141215478895015,0.0004929488026359472,0.021135467664640164
53.25,0.08456900808155791,-0.0756226529718635,-0.24999999999993563,0.023096019690403785,-0.03548800772182885,-1.2860823517257813e-12,-0.7296082973480225,-0.6057461307691946,2.1589585952883943,6.268321854052667e-17,0.13999388978874056,-2.300404624142919,0.026109993086870436,7.805204232076571e-05,0.026109876423972434
53.5,0.10092824880853513,-0.08713187785208433,-0.250000000005206,0.03356093868533997,-0.023398412305156532,-2.1081469903094785e-11,-0.7121678590774536,-0.4680226018938441,2.1245235237331244,6.464506052238896e-17,0.22410549530737536,-2.28296418587235,0.021190475204928703,0.00010343641349326355,0.02119022275293636
53.75,0.11925077428802268,-0.0951550614318495,-0.2500000000000824,0.04140935702672401,-0.009465536359872406,2.0494494989975465e-11,-0.6734840869903564,-0.3380870467487545,2.0784812854322916,2.2738251038681208e-17,0.3040573329383856,-2.244280413785253,0.012247880835452151,0.0016662396155515799,0.012134011311310148
54.0,0.138803558148992,-0.09937122675417023,-0.25000000000042366,0.04632922431616412,0.005753978102501816,-1.3651302310790925e-12,-0.6213259696960449,-0.21719913340828023,2.0241236884550777,7.289455296879158e-17,0.3796229272723504,-2.1921222964909415,0.007506692771316521,0.005949828797364945,0.004577114117539842
54.25,0.15880427610558162,-0.09961166936311606,-0.2500000000000028,0.04812380915447258,0.02165164691826117,1.6835421945415874e-12,-0.5602232813835144,-0.10553647077802285,1.9643195379455716,1.0448266915817347e-16,0.4506612841124525,-2.131019608178411,0.00786778538347314,0.007109051065626906,0.0033709701551189325
54.5,0.17845276131698995,-0.0958667821570355,-0.25000000000005285,0.046719583535813194,0.037588705510959435,-2.0028423364237824e-13,-0.49297139048576355,-0.0030285481320567885,1.9016401504058924,5.624960695693389e-17,0.5168793804991717,-2.06376771728066,0.006609016704789437,0.006079442071699592,0.0025921971184759093
54.75,0.19696287533962561,-0.0882863986784691,-0.2500000000029629,0.04217179450081892,0.05292738592272317,-1.1640244323984916e-11,-0.42138832807540894,0.09018176266882409,1.8385836451591187,1.2093713800542343e-16,0.577719358691994,-1.9921846548703055,0.005811999439145236,0.0055964324059433745,0.0015682097456435435
55.0,0.2135940853313261,-0.07717377875492812,-0.2500000000000029,0.034662963268040865,0.06705432974952413,1.1840084468417444e-11,-0.34671521186828613,0.1734377999191189,1.7778214165242539,1.2943853368273044e-16,0.6322793157004624,-1.9175115386631827,0.005037731191960353,0.004937463722267168,0.0010000937724763208
55.25,0.22768095907819055,-0.06297355264901396,-0.25000000000000333,0.024493169548528336,0.07940380252308929,-1.7763568394002505e-15,-0.26984086632728577,0.24531635884455757,1.722428622621984,1.3753008020365894e-16,0.6792464316561294,-1.8406371931221823,0.0044594111192690754,0.004423641450192994,0.0005636877245382342
55.5,0.23865993004504713,-0.04625382986140026,-0.24999999999859698,0.012069690793914449,0.0894818720971521,5.625389043473206e-12,-0.19143317639827728,0.303433092564306,1.676011334741076,1.0843627236244865e-16,0.7168805706893981,-1.7622295031931738,0.0045025832817584535,0.0044999354446740485,0.00015439301453402712
55.75,0.2460917394938056,-0.027683551587282806,-0.24999999999971753,-0.002110195614663142,0.09688544610451033,-4.482192395016682e-12,-0.11202186346054077,0.34449776121311076,1.6425440848892265,5.618633596873296e-17,0.7431470184178878,-1.6828181902554373,0.003203362059384821,0.003200478490071251,0.00013588935976522994
56.0,0.2496790366555101,-0.008005690362563869,-0.2499999999997807,-0.017479929606828294,0.10131759078608758,-2.5268676040468563e-13,-0.03205294534564018,0.36500523868163626,1.6256807919401246,9.056446847649772e-17,0.7561254893693445,-1.6028492721405367,0.002426016494058004,0.002425290955256435,5.932800175987635e-05
56.25,0.24999679258792265,-0.000801418123287192,-0.2499999999997729,-0.030545163645961416,0.05141932253293091,3.11972669919669e-14,-0.0032057026401162148,0.3668471507073467,1.6241624601482454,8.414534715353142e-17,0.7572858948413388,-1.5740020294350128,0.002188965438874972,0.00218894174532654,1.0184702052582441e-05
56.5,0.24815592109835097,0.019115864873433395,-0.249999999999785,-0.03918000069434359,0.1022841426160107,-4.8405723873656825e-14,0.0768798440694809,0.3562354574787175,1.632902022104882,3.784227316085074e-17,0.7505882611708795,-1.4939164827254157,0.001947532303909234,0.0019475312534489092,2.022772782464076e-06
56.75,0.24269167813546688,0.037526696850219796,-0.24999999999940048,-0.0536678044558598,0.09625519707862659,1.5381029783156919e-12,0.1534120738506317,0.32549694254166445,1.658086287545824,1.1053134182041058e-16,0.7310349695555052,-1.4173842529442648,0.001966123761098012,0.0018963169297686003,0.0005192540282243186
57.0,0.23336891083854142,0.05522339473239003,-0.250000000000002,-0.0690966582694162,0.09339315976386635,-2.4060753389676393e-12,0.23236140608787537,0.2751150998513408,1.6987871541957418,7.05447538678073e-17,0.6985970919061741,-1.3384349207070212,0.0014483748364048073,0.001433100743353995,0.00020979019550226567
57.25,0.22071068200752944,0.07071067607317537,-0.25000000000000394,-0.08243348713670368,0.08455649960754778,-7.771561172376096e-15,0.3100450932979584,0.20948236159507544,1.7503533082253377,6.670427767174848e-17,0.6558687430788406,-1.2607512334969382,0.0012526073180498284,0.001252533276191961,1.3619297478837798e-05
57.5,0.20522341093577126,0.08336891972081498,-0.24999999999545292,-0.0937459986324497,0.07324281545062171,1.8204104890173767e-11,0.38586974143981934,0.13145398569950498,1.8089537955589046,6.251784056351484e-17,0.6047625604898416,-1.1849265853550772,0.0007401250945262681,0.0007362697167887336,7.54457400212574e-05
57.75,0.18752670887079706,0.09269167489539865,-0.2500000000000126,-0.10258163024352572,0.05990596374677404,-1.8238743848542072e-11,0.459065318107605,0.04289817343288647,1.8712625076256857,5.825843250551453e-17,0.5468004137995599,-1.1117310086872916,0.000453755635595141,0.0004526590671833176,3.1526904876298134e-05
58.0,0.16832861322559006,0.09830595788839795,-0.2499999999999768,-0.10858676641739655,0.045078963422282695,1.432187701766452e-13,0.5285807847976685,-0.05519022270746071,1.934439568761651,5.41291423311543e-17,0.4830747275337567,-1.0422155419972283,0.0003663183753266577,0.00036558193020683037,2.3216468469822528e-05
58.25,0.14839722021147442,0.09998715621919843,-0.25000000000000633,-0.11152111955786388,0.029354408501521,-1.1812772982011666e-13,0.592911422252655,-0.16245481262213105,1.9959345428453816,5.029105289515494e-17,0.4142992355948285,-0.9778849045422415,0.00013927216868013715,0.00010398918006649967,9.264441374397965e-05
58.5,0.127747910455637,0.0974927911181368,-0.2500000000000183,-0.11439508592873379,0.012658681114140712,-4.796163466380676e-14,0.6518738865852356,-0.2837580902554448,2.0554096120686394,4.677262924329115e-17,0.33785323934177136,-0.918922440209661,0.00039699259774647323,7.394820146678595e-05,0.0003900445950982025
58.75,0.108790138587189,0.09111392418743168,-0.25000000000026756,-0.10763463437680945,-0.002876860844997768,-9.969802761133906e-13,0.697204053401947,-0.4097782060778249,2.1054904194595156,2.2017517244191293e-17,0.25981665798513964,-0.8735922733929496,0.0006940920713786807,1.8880128860588609e-06,0.0006940895035642663
59.0,0.09148112304273369,0.08108970931825493,-0.2500000000286758,-0.10104661859943503,-0.017458230171480106,-1.1363288088261925e-10,0.7252554297447205,-0.5443516034442509,2.1454636757667718,4.2203636757165756e-17,0.17748400121123895,-0.8455408970501761,0.0015208330564812386,4.662048926944243e-05,0.0015201183229164579
59.25,0.07651337412471301,0.06782120610936147,-0.2500000000000163,-0.0916898594182004,-0.030436891835921333,1.1463785476450994e-10,0.7252484560012817,-0.6850022736981549,2.1718536040032714,5.735796345951507e-17,0.09135908210371164,-0.8455478707936149,0.0022826399172401696,2.296487085222888e-05,0.0022825243934041423
59.5,0.0644857271189555,0.051839255105913654,-0.2500000000003473,-0.07993850322348423,-0.04129342819985317,-1.3238299345630367e-12,0.6771067380905151,-0.8253307731834658,2.1814953161411865,6.084143057770407e-17,0.0034126801319832095,-0.8936895887043814,0.0032395704906907547,6.151059888193086e-05,0.0032389864788818622
59.75,0.055879391226317264,0.0337832927194705,-0.2500000000009172,-0.06626310693416972,-0.0495934107550703,-2.2797319587652964e-12,0.54377681016922,-0.9517203976048502,2.1741000169471043,7.148497689431416e-17,-0.07999094509134291,-1.0270195166256766,0.0035162562324027482,0.00010749690331338769,0.0035146126824572295
60.0,0.051038697210428356,0.014375699670014029,-0.24999999999999872,-0.051210752450590216,-0.055004408703627036,3.673950033089568e-12,0.2745499014854431,-1.0395839243841059,2.1582753796256053,6.072333000801577e-17,-0.14211883429369937,-1.2962464253094534,0.003426627458615331,8.880817136419534e-05,0.00342547644114443
