Suke0811/REMS/test_robot.csv
timestamp,x,y,z,d_x,d_y,d_z,j.0,j.1,j.2,j.3,j.4,j.5,d_j.0,d_j.1,d_j.2,d_j.3,d_j.4,d_j.5,h2_norm,h2_norm_x,h2_norm_y
0.0,0.24999999999873052,-2.842170943040401e-17,-0.24999999999977285,12.498741330818675,0.0003166293603962914,-12.499999999988642,0.0,0.36686574988772785,1.624147125641893,8.426139125282777e-17,0.7572976076597144,-1.5707963267948966,0.0,0.0,0.0,0.0,0.0,0.0,0,0,0
0.02,0.24999679258792265,0.0008014181232871636,-0.2499999999997729,-0.0019596254968120164,0.03924526214166409,-2.7755575615628914e-15,0.0032057026401162148,0.3668471507073467,1.6241624601482454,8.414534715353142e-17,0.7572858948413388,-1.5675906241547803,0.0,0.0,0.0,0.0,0.0,0.0,0,0,0
0.04,0.24997110238302514,0.002404048506151554,-0.24999999999977365,-0.003051957487256788,0.07929849345172531,-3.7470027081099033e-14,0.009617009200155735,0.36669806960898255,1.6242853713896077,8.353772365759059e-17,0.7571920077535307,-1.5611793175947408,0.0,0.0,0.0,0.0,0.0,0.0,0,0,0
0.06,0.249919724023539,0.0040060610569659615,-0.24999999999977507,-0.004336910580818612,0.07926821549294032,-7.077671781985373e-14,0.016028018668293953,0.3663999879848509,1.6245311168911232,8.35160388164677e-17,0.7570042662636327,-1.5547683081266026,0.0,0.0,0.0,0.0,0.0,0.0,0,0,0
0.08,0.24984267614472191,0.005607044807735321,-0.24999999999977704,-0.0056209326150391875,0.0792173884071836,-9.853229343548264e-14,0.0224385354667902,0.36595320705233525,1.6248994271055235,8.586879048911148e-17,0.7567228241306172,-1.5483577913281064,0.0,0.0,0.0,0.0,0.0,0.0,0,0,0
0.1,0.2497399939797406,0.007206587913064709,-0.24999999999977945,-0.0069031929296797245,0.07914596741914082,-1.2073675392798577e-13,0.028848357498645782,0.36535824684440643,1.6253898412575905,7.6288268110139e-17,0.7563479554309106,-1.5419479692962508,0.0,0.0,0.0,0.0,0.0,0.0,0,0,0
0.12000000000000001,0.24961166980531949,0.008804278794111312,-0.249999999999782,-0.008185840571867017,0.07905396728782965,-1.27675647831893e-13,0.035257287323474884,0.36461527003475686,1.626002181945186,8.576878215572364e-17,0.7558796919811595,-1.5355390394714217,0.0,0.0,0.0,0.0,0.0,0.0,0,0,0
0.14,0.249457758049424,0.010399709293022853,-0.24999999999978456,-0.009465765505279274,0.07894155632474482,-1.27675647831893e-13,0.04166513308882713,0.3637250948955557,1.6267357197914798,1.0474726780175041e-16,0.755318462244573,-1.5291311937060694,0.0,0.0,0.0,0.0,0.0,0.0,0,0,0
0.16,0.24927829926434647,0.011992466411696085,-0.24999999999978678,-0.010743661977562513,0.07880849289481572,-1.1102230246251565e-13,0.04807168245315552,0.36268845552693185,1.6275897827639347,7.611108078338447e-17,0.754664626052595,-1.522724644341741,0.0,0.0,0.0,0.0,0.0,0.0,0,0,0
0.18,0.24907333591769498,0.013582144283455548,-0.24999999999978842,-0.012019433680828449,0.07865513317937621,-8.18789480661053e-14,0.054476749151945114,0.361506155786761,1.6285636287033292,7.603274729836105e-17,0.7539185724689141,-1.5163195776429514,0.0,0.0,0.0,0.0,0.0,0.0,0,0,0
0.19999999999999998,0.24896130796670674,0.014375698696995641,-0.24999999999978895,-0.007401880642042245,0.03885539449385304,-2.6367796834847468e-14,0.05767865478992462,0.3608606900367182,1.6290951889846956,8.548876838037035e-17,0.7535111170046025,-1.513117672004972,0.0,0.0,0.0,0.0,0.0,0.0,0,0,0
0.21999999999999997,0.24871818395317802,0.01595998927578408,-0.24999999999978917,-0.013928279204583392,0.07838666594678334,-1.1102230246251565e-14,0.064081110060215,0.35946165913983347,1.6302470808213885,7.589748426372848e-17,0.7526275961594951,-1.5067152167346816,0.0,0.0,0.0,0.0,0.0,0.0,0,0,0
0.23999999999999996,0.24844968522187197,0.017540179506764956,-0.249999999999788,-0.015197553935633377,0.07818224209609295,5.828670879282072e-14,0.07048157602548599,0.35791938874714396,1.6315165017230278,7.579561563784346e-17,0.7516530323486948,-1.5003147507694106,0.0,0.0,0.0,0.0,0.0,0.0,0,0,0
0.25999999999999995,0.24815592138277884,0.019115863035466446,-0.24999999999978503,-0.01646134406430085,0.0779574943503609,1.4849232954361469e-13,0.0768798366189003,0.35623545883201263,1.6329020209916183,7.568454642556433e-17,0.7505882620268732,-1.4939164901759963,0.0,0.0,0.0,0.0,0.0,0.0,0,0,0
0.27999999999999997,0.24783691306254035,0.02068663544969178,-0.24999999999977987,-0.01772360464680254,0.07771213071658763,2.581268532253489e-13,0.083275705575943,0.35441063362835357,1.6344028633020355,9.445547658879366e-17,0.7494335965503097,-1.4875206212189536,0.0,0.0,0.0,0.0,0.0,0.0,0,0,0
0.3,0.24749280343438204,0.022252095474816314,-0.24999999999977232,-0.018977978371277047,0.07744612483314875,3.774758283725532e-13,0.08966896682977676,0.35244686273037884,1.6360172616524897,9.429410377043862e-17,0.7481900891673021,-1.4811273599651198,0.0,0.0,0.0,0.0,0.0,0.0,0,0,0
0.32,0.24712361693238613,0.023811834895692954,-0.24999999999976155,-0.020231136350167243,0.07715971095294982,5.384581669432009e-13,0.0960594117641449,0.35034498582070217,1.6377443442699777,1.1294605498076142e-16,0.7468580840243592,-1.4747369150307517,0.0,0.0,0.0,0.0,0.0,0.0,0,0,0
0.34,0.24672948568776143,0.02536545792940447,-0.24999999999974729,-0.02147769898538296,0.0768535136087771,7.133182933216631e-13,0.10244683921337128,0.34810687861457107,1.6395823695230403,9.393851394714004e-17,0.745438576269868,-1.4683494875815253,0.0,0.0,0.0,0.0,0.0,0.0,0,0,0
0.36000000000000004,0.24631049705615998,0.026912564245374627,-0.24999999999972863,-0.022719902968548707,0.07652730427150208,9.325873406851315e-13,0.10883104056119919,0.3457339969053445,1.6415299220391162,9.37447016867153e-17,0.7439322914846423,-1.4619652862336974,0.0,0.0,0.0,0.0,0.0,0.0,0,0,0
0.38000000000000006,0.24586678719360106,0.028452758277321834,-0.2499999999997051,-0.02395531068645495,0.07618132247327226,1.176836406102666e-12,0.11521179974079132,0.343228253951138,1.6435851914599553,9.354049962748453e-17,0.7423402435767149,-1.4555845270541052,0.0,0.0,0.0,0.0,0.0,0.0,0,0,0
0.4000000000000001,0.24539843333223826,0.029985639422173607,-0.24999999999967554,-0.02518686547918442,0.07581531483279608,1.4779844015322396e-12,0.12158890068531036,0.34059100390553193,1.6457468059034965,9.332610599743973e-17,0.74066309064794,-1.4492074261095862,0.0,0.0,0.0,0.0,0.0,0.0,0,0,0
0.4200000000000001,0.24490557293311577,0.031510822811631374,-0.24999999999963934,-0.026411558570659324,0.07543006966019397,1.8096635301390052e-12,0.1279621571302414,0.3378241634644096,1.6480129112844766,7.448140319881506e-17,0.7389018489493268,-1.4428341696646552,0.0,0.0,0.0,0.0,0.0,0.0,0,0,0
0.4400000000000001,0.24438833465699264,0.03302790403244352,-0.24999999999959494,-0.02762982995133247,0.07502460948465874,2.220446049250313e-12,0.13433130085468292,0.33492952522500924,1.650381734150901,9.28676751798972e-17,0.7370574581344158,-1.4364650259402136,0.0,0.0,0.0,0.0,0.0,0.0,0,0,0
0.46000000000000013,0.24384684445581997,0.03453650600942672,-0.24999999999954134,-0.028842156359589685,0.07460048379204706,2.6798008256889716e-12,0.14069616794586182,0.33190886476353043,1.6528514932493046,1.1114892336835638e-16,0.7351308504414293,-1.4301001588490347,0.0,0.0,0.0,0.0,0.0,0.0,0,0,0
0.48000000000000015,0.2432812327569485,0.03603623169091608,-0.249999999999477,-0.030048008854786732,0.07415653056232571,3.216871213851391e-12,0.14705650508403778,0.32876394517658875,1.655420395296181,7.389701933443619e-17,0.7331229547177238,-1.4237398217108588,0.0,0.0,0.0,0.0,0.0,0.0,0,0,0
0.5000000000000001,0.24269167702365155,0.037526700381156956,-0.2499999999994005,-0.031244993479415135,0.07369354521387173,3.824718319833664e-12,0.1534120887517929,0.3254969374769793,1.6580862916764338,3.684378041490559e-17,0.7310349663169307,-1.4173842380431037,0.0,0.0,0.0,0.0,0.0,0.0,0,0,0
0.5200000000000001,0.24207829476660322,0.03900752824429679,-0.24999999999931008,-0.0324361066174158,0.07321137010606997,4.52138326778595e-12,0.15976271033287048,0.32210942800108455,1.6608474886294298,7.34710933753073e-17,0.7288677141494674,-1.411033616462026,0.0,0.0,0.0,0.0,0.0,0.0,0,0,0
0.5400000000000001,0.24144126922234005,0.040478332551565015,-0.24999999999920436,-0.03361806325483457,0.07271006122008462,5.2860493759965266e-12,0.1661081165075302,0.3186035470614147,1.663701826050973,3.662391456377495e-17,0.7266223829505121,-1.4046882102873663,0.0,0.0,0.0,0.0,0.0,0.0,0,0,0
0.5600000000000002,0.24078073451546242,0.041938739663630625,-0.24999999999908165,-0.034793317732852436,0.07219007252012234,6.135369989834771e-12,0.17244811356067657,0.314980950502392,1.6666475077053344,1.095269419768232e-16,0.7242998627418993,-1.39834821323422,0.0,0.0,0.0,0.0,0.0,0.0,0,0,0
0.5800000000000002,0.24009689274765084,0.04338837492496094,-0.2499999999989402,-0.03595847255106366,0.07165135382185321,7.072120666862247e-12,0.17878244817256927,0.3112438382078369,1.669682272261713,1.0917256199355345e-16,0.7219014021020872,-1.3920138786223273,0.0,0.0,0.0,0.0,0.0,0.0,0,0,0
0.6000000000000002,0.23938988646161202,0.04482685575386111,-0.24999999999877914,-0.03711650446175284,0.07109350816959167,8.05328026487473e-12,0.18511086702346802,0.3073938137479595,1.672804320542959,1.0880889555508958e-16,0.7194278777526225,-1.3856854597714285,0.0,0.0,0.0,0.0,0.0,0.0,0,0,0
0.6200000000000002,0.23865993004504713,0.046253829861400246,-0.24999999999859698,-0.0382638221010025,0.0705180509108916,9.107992138268628e-12,0.19143317639827728,0.3034330925643059,1.6760113347410759,1.0843627236244865e-16,0.7168805706893981,-1.3793631503966193,0.0,0.0,0.0,0.0,0.0,0.0,0,0,0
0.6400000000000002,0.2379071903862811,0.047668913023678455,-0.2499999999983933,-0.03940279989148922,0.069923384713871,1.0183520693374248e-11,0.1977490782737732,0.2993633571118705,1.679301407356669,7.20366616445363e-17,0.7142604314041548,-1.3730472485211234,0.0,0.0,0.0,0.0,0.0,0.0,0,0,0
0.6600000000000003,0.23713187089461366,0.04907175284428256,-0.24999999999816774,-0.04053161189962585,0.06931110131181441,1.1278478151410809e-11,0.20405836403369904,0.29518658729978825,1.6826723685192913,1.0766537284217229e-16,0.7115686141241538,-1.3667379627611975,0.0,0.0,0.0,0.0,0.0,0.0,0,0,0
0.6800000000000003,0.23633416799339996,0.05046198739302842,-0.2500000000000014,-0.041650607330739456,0.06868072386489785,-9.168221737354543e-11,0.21036078035831451,0.2909046127601616,1.6861221489131468,1.4302362998102781e-16,0.7088061892715826,-1.360435546436582,0.0,0.0,0.0,0.0,0.0,0.0,0,0,0
0.7000000000000003,0.23551428090679416,0.05183925447523019,-0.25000000000000155,-0.042759646094189835,0.0680322391072696,-8.326672684688674e-15,0.21665605902671814,0.2865192099112459,1.6896487013856833,1.0686234754816943e-16,0.7059742060972798,-1.3541402677681784,0.0,0.0,0.0,0.0,0.0,0.0,0,0,0
0.7200000000000003,0.23467241946328454,0.05320320816244083,-0.25000000000000183,-0.043858197806932994,0.06736646041833665,-1.3877787807814457e-14,0.222943976521492,0.2820321955617577,1.693249926065488,1.4193274020680471e-16,0.7030737533509381,-1.3478523502734046,0.0,0.0,0.0,0.0,0.0,0.0,0,0,0
0.7400000000000003,0.23380880297915246,0.05455348939984759,-0.25000000000000205,-0.04494578838194117,0.06668273146356857,-1.1102230246251565e-14,0.22922423481941223,0.27744535978122065,1.6969237251734033,7.068643457618291e-17,0.7001059162285416,-1.3415720919754843,0.0,0.0,0.0,0.0,0.0,0.0,0,0,0
0.7600000000000003,0.23292367957671353,0.05588976034726301,-0.25000000000000216,-0.04602097765294697,0.06598211320948973,-5.551115123125783e-15,0.23549658060073853,0.27276068527799824,1.7006678284630958,1.0560295314258063e-16,0.6970719186211352,-1.335299746194158,0.0,0.0,0.0,0.0,0.0,0.0,0,0,0
0.7800000000000004,0.23201722639385666,0.057211665968498734,-0.2500000000000024,-0.04708731350794555,0.06526374509229134,-1.1102230246251565e-14,0.2417607456445694,0.2679794521985156,1.7044805089041037,1.402263107945491e-16,0.6939725432425995,-1.3290355811503272,0.0,0.0,0.0,0.0,0.0,0.0,0,0,0
0.8000000000000004,0.23108970893116185,0.05851887566360003,-0.2500000000000026,-0.048140379153335806,0.06452884970546464,-1.1102230246251565e-14,0.24801646173000336,0.26310362878047333,1.7083594720635369,1.396404051218421e-16,0.6908090323285988,-1.3227798650648932,0.0,0.0,0.0,0.0,0.0,0.0,0,0,0
0.8200000000000004,0.23014135424396454,0.05981105320802578,-0.2500000000000029,-0.04918209601318523,0.06377714537630909,-1.3877787807814457e-14,0.2542634606361389,0.25813476885514913,1.7123027374237376,1.3904660259415465e-16,0.6875823733870775,-1.3165328661587576,0.0,0.0,0.0,0.0,0.0,0.0,0,0,0
0.8400000000000004,0.22917241790287177,0.061087865969415504,-0.25000000000000305,-0.050211038750035596,0.06300881189261795,-8.326672684688674e-15,0.2605014443397522,0.2530745748923828,1.7163081902150594,1.0383397108943858e-16,0.684293664087405,-1.3102948824551444,0.0,0.0,0.0,0.0,0.0,0.0,0,0,0
0.8600000000000004,0.228183148690228,0.06234897986541907,-0.2500000000000033,-0.05122754653900914,0.062223776604062385,-1.1102230246251565e-14,0.26673009991645813,0.24792460007390313,1.720373818850521,6.89184298456373e-17,0.6809439187156282,-1.3040662268784384,0.0,0.0,0.0,0.0,0.0,0.0,0,0,0
0.8800000000000004,0.22717377614353676,0.06359407753937873,-0.2500000000000035,-0.052232580822251684,0.06142287558928293,-1.1102230246251565e-14,0.2729491889476776,0.24268619232330807,1.724497758387627,1.0291624087244876e-16,0.6775340312147984,-1.297847137847219,0.0,0.0,0.0,0.0,0.0,0.0,0,0,0
0.9000000000000005,0.22614459347656043,0.06482284124788687,-0.2500000000000037,-0.05322295903640134,0.06060608997252164,-1.1102230246251565e-14,0.2791583836078644,0.2373611109238757,1.7286778058975243,1.3660006599933748e-16,0.6740651763602354,-1.2916379431870322,0.0,0.0,0.0,0.0,0.0,0.0,0,0,0
0.9200000000000005,0.2250958408250375,0.0660349499720523,-0.25000000000000383,-0.054201338840607745,0.059773207313081646,-5.551115123125783e-15,0.28535738587379456,0.23195059899172824,1.7329121511166983,3.399310974804961e-17,0.6705382056782794,-1.285438940921102,0.0,0.0,0.0,0.0,0.0,0.0,0,0,0
0.9400000000000005,0.2240277998708121,0.06723009141324711,-0.25000000000000383,-0.05516566949054242,0.058924411805534316,0.0,0.2915458679199219,0.22645615260545882,1.737198772257339,1.0150435030986019e-16,0.6669541479315672,-1.2792504588749747,0.0,0.0,0.0,0.0,0.0,0.0,0,0,0
0.9600000000000005,0.2229407327063866,0.06840795918974084,-0.25000000000000405,-0.056116898139832436,0.05806030726908404,-1.1102230246251565e-14,0.29772353172302246,0.22087903882485185,1.7415358143694017,1.347004892101153e-16,0.6633138947163616,-1.273072795071874,0.0,0.0,0.0,0.0,0.0,0.0,0,0,0
0.9800000000000005,0.22183492403725807,0.06956825082872622,-0.25000000000000394,-0.0570538943926258,0.05718108990292173,5.551115123125783e-15,0.30389004945755005,0.21522061732300513,1.7459213386228494,6.702842393429236e-17,0.6596184098442425,-1.2669062773373465,0.0,0.0,0.0,0.0,0.0,0.0,0,0,0
1.0000000000000004,0.22071068200752944,0.0707106760731753,-0.25000000000000394,-0.05797548647337197,0.05628737119975659,0.0,0.3100450932979584,0.20948236159507544,1.7503533082253377,6.670427767174848e-17,0.6558687430788406,-1.2607512334969382,0.0,0.0,0.0,0.0,0.0,0.0,0,0,0
1.0200000000000005,0.21956825357585763,0.07183493722353858,-0.25000000000000383,-0.05888473266090407,0.05537877551495022,5.551115123125783e-15,0.31618836522102356,0.2036651774465454,1.7548301146486294,1.327559131910031e-16,0.652065584312499,-1.254607961573873,0.0,0.0,0.0,0.0,0.0,0.0,0,0,0
1.0400000000000005,0.2184079599569377,0.07294072882816792,-0.25000000000000366,-0.05977792147044848,0.05445491880500328,8.326672684688674e-15,0.3223194181919098,0.19777042002043185,1.7593497923239374,1.3209925533958616e-16,0.6482099277127326,-1.2484769086029868,0.0,0.0,0.0,0.0,0.0,0.0,0,0,0
1.0600000000000005,0.2172300843369378,0.07402780332639898,-0.25000000000000366,-0.06065695278003958,0.053518692713130735,0.0,0.32843807339668274,0.19179921356592514,1.7639105446447747,1.3143888386546848e-16,0.6443026268398062,-1.2423582533982138,0.0,0.0,0.0,0.0,0.0,0.0,0,0,0
1.0800000000000005,0.21603494730084605,0.07509584400934713,-0.25000000000000333,-0.061519958249291885,0.05256664203483637,1.6653345369377348e-14,0.33454379439353943,0.1857526998320816,1.7685105530026737,6.538755656122033e-17,0.6403445565914178,-1.2362525324013571,0.0,0.0,0.0,0.0,0.0,0.0,0,0,0
1.1000000000000005,0.214822846763897,0.07614459691467357,-0.2500000000000031,-0.06236807001587888,0.051601901976393916,1.1102230246251565e-14,0.34063631296157837,0.17963192210610862,1.7731480657223029,6.505411724803926e-17,0.6363365369038281,-1.2301600138333182,0.0,0.0,0.0,0.0,0.0,0.0,0,0,0
1.1200000000000006,0.21359408533132615,0.07717377875492809,-0.25000000000000294,-0.06320105404358332,0.05062300643645089,8.326672684688674e-15,0.34671521186828613,0.1734377999191189,1.7778214165242536,9.707890026204783e-17,0.6322793157004624,-1.2240811149266104,0.0,0.0,0.0,0.0,0.0,0.0,0,0,0
1.1400000000000006,0.21234897891199625,0.07818315236821516,-0.25000000000000266,-0.06401824467473016,0.04963226162327006,1.3877787807814457e-14,0.35278022289276123,0.16717138367672638,1.7825288325542605,1.2876629299836822e-16,0.6281737352623769,-1.2180161039021353,0.0,0.0,0.0,0.0,0.0,0.0,0,0,0
1.1600000000000006,0.2110878585163948,0.07917241996465291,-0.2500000000000023,-0.06481888793798823,0.04862663709069533,1.942890293094024e-14,0.3588307797908783,0.16083358903420056,1.7872686356447667,1.2809179561741086e-16,0.6240205578615369,-1.2119655470040183,0.0,0.0,0.0,0.0,0.0,0.0,0,0,0
1.1800000000000006,0.2098110445346477,0.0801413648337272,-0.2500000000000022,-0.06560351346632096,0.047610185234124906,2.7755575615628914e-15,0.3648666441440582,0.15442538470418102,1.7920391014482815,6.370765383417664e-17,0.6198205883839154,-1.2059296826508383,0.0,0.0,0.0,0.0,0.0,0.0,0,0,0
1.2000000000000006,0.20851887903980612,0.08108970557990934,-0.24999999999492925,-0.06637103840730811,0.04657967312848015,2.5364849109976717e-10,0.37088724970817566,0.14794763853212212,1.7968385750359368,6.336855006099105e-17,0.6155745730684108,-1.199909077086721,0.0,0.0,0.0,0.0,0.0,0.0,0,0,0
1.2200000000000006,0.2072116708259797,0.0820172257489088,-0.2499999999951592,-0.06712312516538123,0.045538345294316725,-1.1497747198774277e-11,0.3768923282623291,0.14140107882395753,1.8016654982695812,6.302870831784512e-17,0.61128317367987,-1.1939039985325675,0.0,0.0,0.0,0.0,0.0,0.0,0,0,0
1.2400000000000007,0.20588975150945368,0.08292366637101688,-0.24999999999536607,-0.06785863363115519,0.04448407717042696,-1.0343115253164115e-11,0.38288137316703796,0.1347864012224999,1.806518330021747,1.2537650631658067e-16,0.6069470372416702,-1.1879149536278586,0.0,0.0,0.0,0.0,0.0,0.0,0,0,0
1.2600000000000007,0.20455349817002882,0.08380880771531951,-0.24999999999552272,-0.06857529087061112,0.04341883237316348,-7.83262343873048e-12,0.38885393738746643,0.12810464105198954,1.811395275062244,1.246946301837311e-16,0.6025670396994796,-1.1819423894074301,0.0,0.0,0.0,0.0,0.0,0.0,0,0,0
1.2800000000000007,0.2032032071698984,0.08467241821957373,-0.24999999999557923,-0.06927713148788094,0.042342015086828555,-2.8255175976710234e-12,0.39480963349342346,0.12135617099248996,1.8162950171547356,6.200600197657367e-17,0.5981436285029368,-1.175986693301473,0.0,0.0,0.0,0.0,0.0,0.0,0,0,0
1.3000000000000007,0.20183926875224603,0.08551427590269202,-0.24999999999541575,-0.0699594629834977,0.04125410874115069,8.174017018802715e-12,0.4007479250431061,0.11454195467855038,1.8212158041181357,1.2332887985037099e-16,0.5936776439720715,-1.1700484017517905,0.0,0.0,0.0,0.0,0.0,0.0,0,0,0
1.3200000000000007,0.2004619892568794,0.0863341591757868,-0.249999999994628,-0.07062647901477004,0.04015512847606178,3.938793735613899e-11,0.40666839480400085,0.1076623139504442,1.8261563429726235,1.2264546410834252e-16,0.5891695109288274,-1.164127931990896,0.0,0.0,0.0,0.0,0.0,0.0,0,0,0
1.3400000000000007,0.19907176004699295,0.08713186815720922,-0.24999999999034328,-0.07127392965560102,0.03904616349579337,2.1423557372557411e-10,0.4125705361366272,0.10071813145430311,1.8311149313894064,1.2196199397205522e-16,0.5846200265071674,-1.1582257906582694,0.0,0.0,0.0,0.0,0.0,0.0,0,0,0
1.3600000000000008,0.19766892005678602,0.08790719500146461,-0.2500000000076518,-0.07190443553712995,0.03792681281218386,-8.654271743679942e-10,0.4184538722038269,0.093709843438722,1.836090182539711,6.063933834961497e-17,0.580029699683851,-1.1523424545910697,0.0,0.0,0.0,0.0,0.0,0.0,0,0,0
1.3800000000000008,0.1962538299786678,0.08865992739946889,-0.25000000000146777,-0.07251690923189043,0.036796854137535064,3.092026634732292e-10,0.4243178367614746,0.08663794719987489,1.8410806600400755,6.029786189304395e-17,0.5753990837253232,-1.146478490033422,0.0,0.0,0.0,0.0,0.0,0.0,0,0,0
1.4000000000000008,0.19482685518143522,0.08938989098003566,-0.2500000000004304,-0.07311111649617012,0.0356581841108502,5.1869619710487314e-11,0.4301619827747345,0.07950301247005305,1.846084870826004,1.1991333997891003e-16,0.570728782910682,-1.140634344020162,0.0,0.0,0.0,0.0,0.0,0.0,0,0,0
1.4200000000000008,0.19338836639221882,0.09009688645776977,-0.25000000000010736,-0.07368678990505083,0.03450955726639734,1.6150969450734465e-11,0.4359857141971588,0.07230550182323324,1.8511013927712372,1.1923172863369498e-16,0.5660193348317134,-1.1348106125977377,0.0,0.0,0.0,0.0,0.0,0.0,0,0,0
1.4400000000000008,0.1919387369301632,0.09078073794706179,-0.2500000000000015,-0.07424379961627187,0.03335214336474928,5.292988269900434e-12,0.4417884945869446,0.06504589630308513,1.8561287858876836,5.9275543469372e-17,0.5612712922297486,-1.129007832207952,0.0,0.0,0.0,0.0,0.0,0.0,0,0,0
1.4600000000000009,0.19047833177823156,0.09144125981013629,-0.2499999999999791,-0.07478256246885777,0.032185454277827256,1.1199374760906267e-12,0.44756972789764404,0.05772452807698249,1.861165708011939,5.893580218966373e-17,0.5564851132432265,-1.1232265988972525,0.0,0.0,0.0,0.0,0.0,0.0,0,0,0
1.4800000000000009,0.18900752453339295,0.09207829970772866,-0.2499999999999904,-0.07530264750326136,0.03101115496500119,-5.648259637780484e-13,0.4533289074897766,0.05034182204284655,1.8662107473073242,5.859673317332843e-17,0.5516613191194618,-1.11746741930512,0.0,0.0,0.0,0.0,0.0,0.0,0,0,0
1.5000000000000009,0.18752670887079706,0.09269167489539865,-0.2500000000000126,-0.07580305168609491,0.029827726213262382,-1.1102230246251565e-12,0.459065318107605,0.04289817343288647,1.8712625076256857,5.825843250551453e-17,0.5468004137995599,-1.1117310086872916,0.0,0.0,0.0,0.0,0.0,0.0,0,0,0
1.520000000000001,0.1860362271042729,0.0932812487801776,-0.2500000000000352,-0.07628634151127049,0.028637472619746154,-1.1296519275560968e-12,0.46477851271629333,0.03539373449368019,1.876319751498941,5.792098127113726e-17,0.5419027444345456,-1.1060178140786032,0.0,0.0,0.0,0.0,0.0,0.0,0,0,0
1.540000000000001,0.18453650104667263,0.09384683582274857,-0.25000000000005274,-0.07674854431850453,0.027437950978624007,-8.770761894538737e-13,0.47046762704849243,0.027828943760966344,1.8813810418256165,5.758447760752045e-17,0.5369688466315733,-1.1003286997464041,0.0,0.0,0.0,0.0,0.0,0.0,0,0,0
1.560000000000001,0.18302790506954267,0.09438834042532267,-0.25000000000006306,-0.0771920300684909,0.02623365532905177,-5.162537064506978e-13,0.47613224387168884,0.020204164151663328,1.8864449886774677,5.724900316975627e-17,0.5319992076929055,-1.0946640829232077,0.0,0.0,0.0,0.0,0.0,0.0,0,0,0
1.580000000000001,0.1815108185979347,0.09490556802094693,-0.250000000000066,-0.07761654767011611,0.025019638011424136,-1.4710455076283324e-13,0.48177146911621094,0.012519420218234987,1.8915104203946562,1.1382928914590015e-16,0.5269940953452379,-1.0890248576786858,0.0,0.0,0.0,0.0,0.0,0.0,0,0,0
1.600000000000001,0.17998564744123008,0.09539843730621357,-0.2500000000000621,-0.07802077691018329,0.023801562680254656,1.942890293094024e-13,0.4873847961425781,0.0047752021837283234,1.8965758515078164,1.131629714314012e-16,0.5219540812909247,-1.0834115306523184,0.0,0.0,0.0,0.0,0.0,0.0,0,0,0
1.620000000000001,0.17845275594307192,0.09586678612325443,-0.2500000000000529,-0.07840679150556491,0.02257538503029075,4.6074255521944e-13,0.49297142028808594,-0.0030285678016131433,1.9016401631196782,1.1249921129513078e-16,0.5168793677135227,-1.0778249065068106,0.0,0.0,0.0,0.0,0.0,0.0,0,0,0
1.640000000000001,0.17691256555924065,0.09631051351799227,-0.25000000000003997,-0.07877173621794892,0.021344167604146893,6.467049118441537e-13,0.49853062629699707,-0.01089147662465518,1.9067019095361375,5.591908981781701e-17,0.5117704762441906,-1.0722657004978995,0.0,0.0,0.0,0.0,0.0,0.0,0,0,0
1.660000000000001,0.1753654623945075,0.09672948295860506,-0.250000000000025,-0.0791173785188139,0.020106129964645177,7.494005416219807e-13,0.5040615797042847,-0.018813496188324688,1.9117598883583933,5.559001788950483e-17,0.5066276778351257,-1.066734747090612,0.0,0.0,0.0,0.0,0.0,0.0,0,0,0
1.680000000000001,0.1738118273363148,0.09712360641148457,-0.2500000000000101,-0.07944397859794447,0.018863696440193485,7.438494264988549e-13,0.5095636248588562,-0.0267945209968234,1.9168128390362096,1.1052492896693298e-16,0.5014512932788285,-1.0612327019360404,0.0,0.0,0.0,0.0,0.0,0.0,0,0,0
1.700000000000001,0.1722520906486629,0.09749279330949213,-0.24999999999999656,-0.07974906879376321,0.01761674277883315,6.772360450213455e-13,0.5150359272956848,-0.03483420810269202,1.9218593451156545,-0.0,0.49624179628902354,-1.0557603994992117,0.0,0.0,0.0,0.0,0.0,0.0,0,0,0
1.720000000000001,0.17068662867681872,0.0978369209044699,-0.2499999999999859,-0.08003534454526,0.016363657489535447,5.329070518200751e-13,0.5204775929450989,-0.04293269400654154,1.9268982850970147,5.461223828734536e-17,0.49099934852567134,-1.0503187338497977,0.0,0.0,0.0,0.0,0.0,0.0,0,0,0
1.740000000000001,0.16832861322559006,0.0983059578883979,-0.2499999999999768,-0.1196445403107344,0.022569568414820693,4.551914400963142e-13,0.5285807847976685,-0.05519022270746071,1.934439568761651,5.41291423311543e-17,0.4830747275337567,-1.0422155419972283,0.0,0.0,0.0,0.0,0.0,0.0,0,0,0
1.7600000000000011,0.16675062389671108,0.09858710468397447,-0.24999999999997566,-0.08066175450692054,0.01321434821516211,5.689893001203927e-14,0.5339421629905701,-0.0634351014203071,1.9394538828122463,-0.0,0.47775137751447216,-1.0368541638043265,0.0,0.0,0.0,0.0,0.0,0.0,0,0,0
1.7800000000000011,0.16595999108604786,0.09871818103961973,-0.24999999999997652,-0.04132077831541858,0.005726357761591081,-4.3021142204224816e-14,0.5366102457046509,-0.06757948001940349,1.9419566033480042,1.0730049444732282e-16,0.4750777252147939,-1.034186081090246,0.0,0.0,0.0,0.0,0.0,0.0,0,0,0
1.8000000000000012,0.16437569943620764,0.09896130856423954,-0.24999999999998038,-0.08097690555415409,0.011313244129709672,-1.9290125052862095e-13,0.5419206619262695,-0.0759120788886549,1.9469523732496579,1.066668906542364e-16,0.46970664058231526,-1.028875664868627,0.0,0.0,0.0,0.0,0.0,0.0,0,0,0
1.8200000000000012,0.1619924611386352,0.09927829557668265,-0.24999999999998987,-0.12090582263857233,0.014966507174333508,-4.746203430272544e-13,0.5498199462890625,-0.08852063805960736,1.9544195402102464,5.286212387778959e-17,0.46159097372764996,-1.020976380505834,0.0,0.0,0.0,0.0,0.0,0.0,0,0,0
1.8400000000000012,0.16039971018609298,0.09945775796164223,-0.24999999999999686,-0.08139994644919249,0.008129789423823378,-3.497202527569243e-13,0.5550404787063599,-0.09699929916643454,1.9593780685856999,1.0510121534180569e-16,0.4561416094924149,-1.015755848088537,0.0,0.0,0.0,0.0,0.0,0.0,0,0,0
1.8600000000000012,0.15880427610558162,0.09961166936311605,-0.2500000000000028,-0.08153413922709497,0.006852173424873584,-2.9559688030644793e-13,0.5602232813835144,-0.10553647077802285,1.9643195379455716,5.2241334579086734e-17,0.4506612841124525,-1.010573045411382,0.0,0.0,0.0,0.0,0.0,0.0,0,0,0
1.8800000000000012,0.15720658316105768,0.09973999094906807,-0.2500000000000003,-0.08164712298053846,0.005572624169743432,1.249000902703301e-13,0.5653672218322754,-0.11413208838420504,1.9692426336119193,5.1934382718733146e-17,0.44515026458450985,-1.0054291049626212,0.0,0.0,0.0,0.0,0.0,0.0,0,0,0
1.9000000000000012,0.155607036595593,0.09984268672879708,-0.24999999999999423,-0.08173984853364508,0.004291282945413237,3.0253577421035516e-13,0.5704711675643921,-0.122786222417396,1.9741461104276932,5.1629827244325485e-17,0.43960872649470917,-1.0003251592305045,0.0,0.0,0.0,0.0,0.0,0.0,0,0,0
1.9200000000000013,0.1540060551940387,0.09991971818037151,-0.24999999999998473,-0.08181163937627381,0.003008024064668703,4.746203430272544e-13,0.5755338668823242,-0.13149891158610152,1.9790286958302619,1.0265549416010196e-16,0.43403686061143765,-0.9952624599125725,0.0,0.0,0.0,0.0,0.0,0.0,0,0,0
1.9400000000000013,0.15240405497269477,0.09997109978312073,-0.2499999999999807,-0.081862633375511,0.0017254973689482993,2.0122792321330962e-13,0.5805542469024658,-0.1402700516381174,1.9838890296303326,5.1028216647241516e-17,0.4284349432695565,-0.9902420798924307,0.0,0.0,0.0,0.0,0.0,0.0,0,0,0
1.9600000000000013,0.15080141820453302,0.09999678731244521,-0.24999999999998204,-0.08189451804631506,0.00044076655819593055,-6.661338147750939e-14,0.5855309963226318,-0.1490999712698716,1.988725982289887,7.609696670357262e-17,0.42280296817492335,-0.9852653304722647,0.0,0.0,0.0,0.0,0.0,0.0,0,0,0
1.9800000000000013,0.14919857748683632,0.0999967858613152,-0.249999999999994,-0.08190477787734717,-0.0008437000196204642,-5.981326545168031e-13,0.5904628038406372,-0.157988568499219,1.9935381763825601,2.521855581719171e-17,0.4171411974734696,-0.9803335229542595,0.0,0.0,0.0,0.0,0.0,0.0,0,0,0
2.0000000000000013,0.14759594825543457,0.09997110623762052,-0.2500000000000241,-0.08189427077417971,-0.002127617215519366,-1.5043521983670871e-12,0.5953483581542969,-0.16693584410556067,1.99832428408159,2.5072848506721905e-17,0.41144982027672056,-0.9754479686405997,0.0,0.0,0.0,0.0,0.0,0.0,0,0,0
2.0200000000000014,0.14599393780810477,0.0999197197319852,-0.2500000000000788,-0.08186340433528885,-0.0034129607680381284,-2.736699755701011e-12,0.6001861095428467,-0.17594201829925593,2.0030830851995787,4.9857150640204246e-17,0.405728878489665,-0.9706102172520499,0.0,0.0,0.0,0.0,0.0,0.0,0,0,0
2.0400000000000014,0.1443929548010762,0.09984268033808186,-0.25000000000015854,-0.08181210979836818,-0.0046955955933982605,-3.985700658404312e-12,0.6049748063087463,-0.18500701928251276,2.0078131948155953,2.478577465625904e-17,0.3999785914114194,-0.9658215204861503,0.0,0.0,0.0,0.0,0.0,0.0,0,0,0
2.0600000000000014,0.14279340326141113,0.09973999290319713,-0.2500000000002528,-0.08174061956235722,-0.005977978608999234,-4.7128967395337895e-12,0.6097128987312317,-0.19413100667932517,2.012513340849172,4.9288976301189457e-17,0.39419902252012007,-0.961083428063665,0.0,0.0,0.0,0.0,0.0,0.0,0,0,0
2.0800000000000014,0.14119571940695522,0.09961167853753895,-0.250000000000342,-0.08164732497607334,-0.007259294758746654,-4.460321001431566e-12,0.614398717880249,-0.20331392525527475,2.0171821309464617,7.351428210637356e-17,0.38839036199237686,-0.9563976089146475,0.0,0.0,0.0,0.0,0.0,0.0,0,0,0
2.1000000000000014,0.13960029357940384,0.09945775871956931,-0.2500000000004058,-0.08153451913627062,-0.008539527517573095,-3.189115638235762e-12,0.6190306544303894,-0.21255598847390858,2.021818300651861,7.309990276658465e-17,0.38255261988888783,-0.9517656723645072,0.0,0.0,0.0,0.0,0.0,0.0,0,0,0
2.1200000000000014,0.13800753506815966,0.09927830041247179,-0.25000000000043093,-0.0814012548329027,-0.009816401515670361,-1.2573275753879898e-12,0.6236071586608887,-0.2218571479637851,2.0264204435372104,7.269045354674795e-17,0.3766859611086084,-0.947189168134008,0.0,0.0,0.0,0.0,0.0,0.0,0,0,0
2.1400000000000015,0.13641786405275172,0.09907333641291771,-0.2500000000004148,-0.08124698874037484,-0.011091623856316249,8.076872504148014e-13,0.6281263828277588,-0.23121744260961566,2.0309871892512468,4.819071653028369e-17,0.3707904838196484,-0.9426699439671378,0.0,0.0,0.0,0.0,0.0,0.0,0,0,0
2.1600000000000015,0.13483166563747767,0.09884290812388388,-0.25000000000036304,-0.08107347407359845,-0.012364765542793598,2.5868196473766147e-12,0.6325865387916565,-0.24063708040919518,2.0355172395481325,4.7924600220564105e-17,0.3648661677139478,-0.9382097880032402,0.0,0.0,0.0,0.0,0.0,0.0,0,0,0
2.1800000000000015,0.13324937637707665,0.09858710388857778,-0.25000000000028705,-0.0808781393405382,-0.013633476677896553,3.799738301779598e-12,0.6369857788085938,-0.25011581879036276,2.040009070773319,4.7662049644442383e-17,0.35891326295280224,-0.9338105479863028,0.0,0.0,0.0,0.0,0.0,0.0,0,0,0
2.2000000000000015,0.13167138523656588,0.0983059630805314,-0.2500000000001995,-0.08066336405642935,-0.014900207304311104,4.37705427458468e-12,0.6413220763206482,-0.2596538706826734,2.0444613694274807,7.110474256588874e-17,0.3529317195785278,-0.9294742504742484,0.0,0.0,0.0,0.0,0.0,0.0,0,0,0
2.2200000000000015,0.13009810773799232,0.09799956824926334,-0.25000000000011335,-0.08042782089582563,-0.016162796902112128,4.307665335545607e-12,0.6455934047698975,-0.2692511419427374,2.0488726680827694,2.3574018277645002e-17,0.34692166600403385,-0.9252029220249991,0.0,0.0,0.0,0.0,0.0,0.0,0,0,0
2.2400000000000015,0.12852995637560405,0.0976679877147752,-0.2500000000000424,-0.08017166192140321,-0.017421956356884188,3.547162563677375e-12,0.6497975587844849,-0.2789076141253279,2.0532415280329874,7.034516925359339e-17,0.3408831676571836,-0.9209987680104117,0.0,0.0,0.0,0.0,0.0,0.0,0,0,0
2.2600000000000016,0.12696729310994403,0.09731132464649729,-0.25000000000000433,-0.07989741254918319,-0.01867594532195928,1.9040324872321435e-12,0.6539325714111328,-0.28862339616714006,2.0575665592412977,4.6649485825494704e-17,0.3348161942562293,-0.9168637553837637,0.0,0.0,0.0,0.0,0.0,0.0,0,0,0
2.2800000000000016,0.1254105623613558,0.09692966199395371,-0.25000000000000006,-0.0796009527946908,-0.019925769672293037,2.1371793224034263e-13,0.6579959392547607,-0.298398237535938,2.0618462041024577,6.960941004554912e-17,0.32872092290040866,-0.9128003875401359,0.0,0.0,0.0,0.0,0.0,0.0,0,0,0
2.3000000000000016,0.12386014500245159,0.09652309750001402,-0.25000000000000144,-0.0792854587966355,-0.021170692331489032,-6.938893903907228e-14,0.6619853377342224,-0.3082321584723579,2.0660790194177285,4.6167250558019665e-17,0.32259734346150876,-0.9088109890606743,0.0,0.0,0.0,0.0,0.0,0.0,0,0,0
2.3200000000000016,0.12231645538302245,0.0960917347252879,-0.2500000000000175,-0.07894925812662175,-0.022410419873134163,-8.021361352916756e-13,0.6658982038497925,-0.3181249691812332,2.0702634645654197,6.889880436393433e-17,0.31644555765331056,-0.9048981229451042,0.0,0.0,0.0,0.0,0.0,0.0,0,0,0
2.3400000000000016,0.12077985883351199,0.09563567934235134,-0.2500000000000488,-0.07859480109006195,-0.02364484840093538,-1.5654144647214707e-12,0.6697320342063904,-0.32807671621594714,2.074398092862456,2.2851122322693428e-17,0.31026550021039073,-0.9010642925885062,0.0,0.0,0.0,0.0,0.0,0.0,0,0,0
2.3600000000000017,0.11925077428802268,0.09515506143184949,-0.2500000000000824,-0.07821940926733274,-0.02487275391802747,-1.6792123247455493e-12,0.6734840869903564,-0.3380870467487545,2.0784812854322916,6.821475311604363e-17,0.3040573329383857,-0.89731223980454,0.0,0.0,0.0,0.0,0.0,0.0,0,0,0
2.3800000000000017,0.1177295954608789,0.09464999892458027,-0.2500000000001013,-0.07782434390998019,-0.02609474417138124,-9.46465128492946e-13,0.6771515011787415,-0.3481557705480767,2.082511488841702,-0.0,0.2978210942804616,-0.8936448256161553,0.0,0.0,0.0,0.0,0.0,0.0,0,0,0
2.4000000000000017,0.11621671143640105,0.09412061481571934,-0.2500000000000911,-0.07740983709810509,-0.027310565171085655,5.10702591327572e-13,0.6807312965393066,-0.35828267693736077,2.0864871374104434,6.755877546195123e-17,0.2915568121604838,-0.8900650302555899,0.0,0.0,0.0,0.0,0.0,0.0,0,0,0
2.4200000000000017,0.11471249882003838,0.0935670433428349,-0.2500000000000511,-0.07697651307329938,-0.02851965443331703,1.9984014443252818e-12,0.6842204332351685,-0.36846754524119285,2.0904066575673896,8.965575209461312e-17,0.28526449645377655,-0.8865758935597282,0.0,0.0,0.0,0.0,0.0,0.0,0,0,0
2.4400000000000017,0.11321735626258891,0.09298944760591142,-0.2500000000000156,-0.0765232705906476,-0.029720566680722593,1.7763568394002505e-12,0.6876157522201538,-0.3787098845803026,2.094268370687586,8.924331199794178e-17,0.2789442983933249,-0.883180574574743,0.0,0.0,0.0,0.0,0.0,0.0,0,0,0
2.4600000000000017,0.1117316615715818,0.09238795243172694,-0.25000000000006845,-0.07605115274406983,-0.030915215193225265,-2.6423307986078726e-12,0.6909137964248657,-0.3890094386122275,2.09807068756999,8.884134716511555e-17,0.27259619764478243,-0.8798825303700308,0.0,0.0,0.0,0.0,0.0,0.0,0,0,0
2.4800000000000018,0.11025579170807796,0.09176272986909555,-0.25000000000023875,-0.0755602020345041,-0.03210123793483907,-8.51541059887495e-12,0.694111168384552,-0.399365712336353,2.101811929615775,6.633761740436514e-17,0.2662202932603043,-0.8766851584103447,0.0,0.0,0.0,0.0,0.0,0.0,0,0,0
2.5000000000000018,0.10879013858718886,0.09111392418743151,-0.2500000000002676,-0.0750496726434985,-0.033280021476039576,-1.4432899320127035e-12,0.697204053401947,-0.4097782060778253,2.1054904194595156,8.807006897676516e-17,0.2598166579851387,-0.8735922733929499,0.0,0.0,0.0,0.0,0.0,0.0,0,0,0
2.520000000000002,0.10733507859593223,0.0904417177737904,-0.2500000000000146,-0.07452034097746965,-0.03444965958563918,1.2650991365603659e-11,0.7001886963844299,-0.42024628480491577,2.109104435976966,4.3850705025320915e-17,0.25338541743612275,-0.8706076304104667,0.0,0.0,0.0,0.0,0.0,0.0,0,0,0
2.540000000000002,0.1058909661527552,0.08974627106144065,-0.24999999999999994,-0.07397330627841826,-0.03561124946622442,7.327471962526033e-13,0.7030611038208008,-0.4307694655893964,2.112652314860751,4.3672259899274926e-17,0.2469265722809527,-0.8677352229740958,0.0,0.0,0.0,0.0,0.0,0.0,0,0,0
2.560000000000002,0.10445819017893666,0.08902777247260804,-0.2500000000000161,-0.07340684514061459,-0.03676338833483757,-8.076872504148014e-13,0.7058170437812805,-0.441346902289853,2.1161322743088546,6.52498198879912e-17,0.24044031346705683,-0.8649792830136162,0.0,0.0,0.0,0.0,0.0,0.0,0,0,0
2.580000000000002,0.10303711156744873,0.08828639868293038,-0.25000000000074507,-0.07282235957467748,-0.037906663256555395,-3.644862189844389e-11,0.7084521055221558,-0.4519778771883564,2.1195425848086087,6.500062652138947e-17,0.23392671907732782,-0.8623442212727408,0.0,0.0,0.0,0.0,0.0,0.0,0,0,0
2.600000000000002,0.10162811150525837,0.08752233639027542,-0.25000000000315153,-0.07221883663753932,-0.03904057022443237,-1.203231958513129e-10,0.7109615802764893,-0.4626614495251922,2.1228814547014725,8.634814175140571e-17,0.22738596871680816,-0.8598347465184073,0.0,0.0,0.0,0.0,0.0,0.0,0,0,0
2.620000000000002,0.10023153134573945,0.08673580676919412,-0.25000000000000483,-0.07159826756709294,-0.04016338601354055,1.5733525593475406e-10,0.7133408784866333,-0.47339665013525795,2.1261470970653242,8.604206420175488e-17,0.22081822297711196,-0.8574554483082634,0.0,0.0,0.0,0.0,0.0,0.0,0,0,0
2.640000000000002,0.09884773256117728,0.08592698161054693,-0.2500000000000189,-0.07095964931217927,-0.0412775762284873,-7.022160630754115e-13,0.7155847549438477,-0.48418253853333276,2.1293377464818244,4.287485057720079e-17,0.21422358740999853,-0.8552115718510491,0.0,0.0,0.0,0.0,0.0,0.0,0,0,0
2.660000000000002,0.09747708374364959,0.08509608080464359,-0.2500000000000346,-0.0703026268145927,-0.042380733729385014,-7.854827899222983e-13,0.7176879048347473,-0.49501782855554843,2.132451551107038,6.410361807031339e-17,0.2076023403998871,-0.8531084219601491,0.0,0.0,0.0,0.0,0.0,0.0,0,0,0
2.680000000000002,0.09611991781070191,0.08424332565313955,-0.25000000000002476,-0.06962898423524023,-0.043472787755655794,4.912736883966318e-13,0.7196449041366577,-0.5059013097702094,2.1354867019344215,8.520787662094564e-17,0.20095467430911826,-0.851151422658239,0.0,0.0,0.0,0.0,0.0,0.0,0,0,0
2.700000000000002,0.0947766029345565,0.08336892176999404,-0.2500000000018369,-0.06893696193271426,-0.04455451810449517,-9.060807659722059e-11,0.7214497327804565,-0.5168315511823355,2.138441349753717,6.371950979136334e-17,0.19428087560849114,-0.8493465940144402,0.0,0.0,0.0,0.0,0.0,0.0,0,0,0
2.720000000000002,0.09344747783482654,0.08247309737001098,-0.250000000001133,-0.06822807647945746,-0.0456252172082338,3.5196845438179025e-11,0.7230963110923767,-0.527807054917261,2.1413136531819577,6.354479218058378e-17,0.18758123008609626,-0.84770001570252,0.0,0.0,0.0,0.0,0.0,0.0,0,0,0
2.740000000000002,0.09213287353346405,0.08155608356780128,-0.2500000000160023,-0.06750270556599713,-0.046684652845982874,-7.434663995553592e-10,0.7245782613754272,-0.5388262242637348,2.1441017722711777,4.2254757610728e-17,0.1808560414676711,-0.8462180654194694,0.0,0.0,0.0,0.0,0.0,0.0,0,0,0
2.760000000000002,0.09083313460963234,0.08061812631655141,-0.25000000004326023,-0.06676022141687742,-0.04773184128897356,-1.3628959072420344e-09,0.7258888483047485,-0.5498871901250324,2.1468038304130563,6.32319430613401e-17,0.1741057368221487,-0.844907478490148,0.0,0.0,0.0,0.0,0.0,0.0,0,0,0
2.780000000000002,0.08954859933051919,0.07965945314131549,-0.2500000000012476,-0.06600153476725602,-0.04876810134679197,2.100630780432766e-09,0.7270208597183228,-0.5609880581321226,2.1494179827573916,4.2063090570631846e-17,0.16733071547174524,-0.8437754670765739,0.0,0.0,0.0,0.0,0.0,0.0,0,0,0
2.800000000000002,0.08827959869672279,0.07868031449388847,-0.2500000000007885,-0.06522636920779085,-0.04979185647206991,2.2956636591686674e-11,0.727966845035553,-0.5721267136238668,2.1519423704314855,5.247554094178437e-17,0.16053146650254355,-0.8428294817593436,0.0,0.0,0.0,0.0,0.0,0.0,0,0,0
2.820000000000002,0.08702644884557566,0.0776809603445679,-0.25000000000039957,-0.06443547113129579,-0.05080313154874252,1.9445556276309617e-11,0.7287189960479736,-0.5833009601147827,2.1543751617390376,4.190695528806045e-17,0.1537084855729401,-0.842077330746923,0.0,0.0,0.0,0.0,0.0,0.0,0,0,0
2.840000000000002,0.08578948216454085,0.07666165267937085,-0.25000000000010664,-0.0636280329697754,-0.05180132683963495,1.4646617252367378e-11,0.7292690277099609,-0.5945082888040585,2.1567145058466095,8.368594716796688e-17,0.1468624148953027,-0.8415272990849357,0.0,0.0,0.0,0.0,0.0,0.0,0,0,0
2.860000000000002,0.08456900808155791,0.07562265297186345,-0.24999999999993555,-0.06280520584983668,-0.0527864687758642,8.554268404736831e-12,0.7296082973480225,-0.6057461307691951,2.158958595288395,5.2236015450438876e-17,0.13999388978874056,-0.8411880294468742,0.0,0.0,0.0,0.0,0.0,0.0,0,0,0
2.880000000000002,0.08336533885632307,0.07456421235712198,-0.24999999999986247,-0.06196685364686649,-0.053759075634080736,3.6540215297975465e-12,0.729727566242218,-0.6170117583289143,2.16110564922827,6.261722152678283e-17,0.1331035994599015,-0.8410687605526784,0.0,0.0,0.0,0.0,0.0,0.0,0,0,0
2.900000000000002,0.08217879244324468,0.07348662365354473,-0.24999999999985237,-0.06111312782605606,-0.05471767041384778,5.051514762044462e-13,0.7296172976493835,-0.628302014728206,2.1631538717949472,5.21391616559548e-17,0.12619245340231272,-0.8411790291455132,0.0,0.0,0.0,0.0,0.0,0.0,0,0,0
2.920000000000002,0.08100967544156569,0.07239016468190072,-0.24999999999988554,-0.060244324478103545,-0.05566261598259984,-1.6583956430338276e-12,0.7292673587799072,-0.6396136570270889,2.1651015282724035,6.253308467501209e-17,0.11926137320975409,-0.8415289680149894,0.0,0.0,0.0,0.0,0.0,0.0,0,0,0
2.940000000000002,0.07985828440850545,0.07127509594319918,-0.24999999999997188,-0.05936081211265824,-0.05659458439346864,-4.3173797870110775e-12,0.7286669611930847,-0.6509433496121556,2.1669469471824017,6.251606848888551e-17,0.11231129801118295,-0.842129365601812,0.0,0.0,0.0,0.0,0.0,0.0,0,0,0
2.960000000000002,0.07872490986634241,0.07014172029303045,-0.2500000000000063,-0.0584628960492319,-0.05751145840033617,-1.7194579093882112e-12,0.7278050184249878,-0.6622873500170333,2.1686884769936223,6.251652628764251e-17,0.10534337931073619,-0.8429913083699088,0.0,0.0,0.0,0.0,0.0,0.0,0,0,0
2.980000000000002,0.0776098396113793,0.06899032924950445,-0.25000000000000194,-0.05755071971912071,-0.058413807383703845,2.1649348980190553e-13,0.7266697287559509,-0.6736417315407365,2.170324535541628,7.295757612969448e-17,0.09835884742076667,-0.8441265980389457,0.0,0.0,0.0,0.0,0.0,0.0,0,0,0
3.000000000000002,0.07651337412471301,0.06782120610936147,-0.2500000000000163,-0.0566236573701325,-0.05930204521923414,-7.188694084447889e-13,0.7252484560012817,-0.6850022736981549,2.1718536040032714,5.735796345951507e-17,0.09135908210371164,-0.8455478707936149,0.0,0.0,0.0,0.0,0.0,0.0,0,0,0
3.0200000000000022,0.07543578192132873,0.06663465717268452,-0.25000000000001077,-0.055683659513302605,-0.060174836421798175,2.7755575615628914e-13,0.7235282063484192,-0.696364538652222,2.173274249744868,5.740986365906044e-17,0.08434556953499867,-0.8472681204464773,0.0,0.0,0.0,0.0,0.0,0.0,0,0,0
3.0400000000000023,0.07437734869780052,0.06543099346763374,-0.2500000000000179,-0.05473001853284376,-0.06103187081202532,-3.552713678800501e-13,0.7214951515197754,-0.7077236824029097,2.1745851157485356,5.748012149902316e-17,0.07732002356941212,-0.8493011752751214,0.0,0.0,0.0,0.0,0.0,0.0,0,0,0
3.0600000000000023,0.07333834670220801,0.0642105174300885,-0.25000000000013634,-0.05376235647149596,-0.0618739481915182,-5.92303983637521e-12,0.7191346883773804,-0.7190746667035376,2.1757849617589233,5.756936550324206e-17,0.07028426049844377,-0.8516616384175162,0.0,0.0,0.0,0.0,0.0,0.0,0,0,0
3.0800000000000023,0.0723190358937651,0.06297355185771214,-0.24999999999997743,-0.05278048062244539,-0.06270022364989344,7.945033519973776e-12,0.7164316177368164,-0.7304121025015929,2.1768726599382893,5.767822979495323e-17,0.06324030202861104,-0.8543647090580803,0.0,0.0,0.0,0.0,0.0,0.0,0,0,0
3.1000000000000023,0.07131968851983836,0.06172040430349412,-0.24999999999999228,-0.05178509884099627,-0.06351118378579101,-7.424616477180734e-13,0.7133696675300598,-0.74173027053564,2.1778472144687977,6.306259011543282e-17,0.05619036989013409,-0.8574266592648367,0.0,0.0,0.0,0.0,0.0,0.0,0,0,0
3.1200000000000023,0.07034054295183946,0.060451400153678836,-0.24999999999851713,-0.05077790722502275,-0.06430593821066449,7.375766664097227e-11,0.7099320292472839,-0.7530232002208852,2.1787077846252627,6.322631259955844e-17,0.049136844694764696,-0.8608642975476127,0.0,0.0,0.0,0.0,0.0,0.0,0,0,0
3.1400000000000023,0.06938187470387934,0.0591668660003248,-0.2499999999942855,-0.049757055127570296,-0.06508442988371434,2.1158214069672e-10,0.7061007022857666,-0.7642843469030811,2.1794536789762082,5.812914389734099e-17,0.04208247674319938,-0.86469562450913,0.0,0.0,0.0,0.0,0.0,0.0,0,0,0
3.1600000000000024,0.06844391668017082,0.057867131586860895,-0.2500000000000518,-0.048724675524805125,-0.0658465031033247,-2.883152050436877e-10,0.7018570303916931,-0.7755070010713571,2.1800844068632603,6.097416408779724e-17,0.035030140756275044,-0.8689392964032036,0.0,0.0,0.0,0.0,0.0,0.0,0,0,0
3.1800000000000024,0.06752690189668874,0.05655252632164836,-0.2500000000001002,-0.04768076765360742,-0.06659217738317164,-2.4202861936828413e-12,0.6971813440322876,-0.7866840571536897,2.180599680091588,5.854003115563706e-17,0.027982991516673005,-0.8736149827626091,0.0,0.0,0.0,0.0,0.0,0.0,0,0,0
3.2000000000000024,0.06663107925377958,0.055223396278917904,-0.25000000000016287,-0.04662454231626756,-0.0673206215953714,-3.1336044870045043e-12,0.692052960395813,-0.7978078299487705,2.180999429683898,5.744463938498834e-17,0.020944592615268102,-0.8787433663990835,0.0,0.0,0.0,0.0,0.0,0.0,0,0,0
3.2200000000000024,0.0657566773145215,0.053880076753594464,-0.2500000000002356,-0.04555702058128695,-0.0680323775995894,-3.6359804056473877e-12,0.686450183391571,-0.8088703657490786,2.181283845523987,6.172923448694799e-17,0.013918734624156109,-0.8843461434033255,0.0,0.0,0.0,0.0,0.0,0.0,0,0,0
3.2400000000000024,0.06490391644323838,0.052522917740056616,-0.25000000000031125,-0.04447861617024249,-0.0687267121474197,-3.783084956410221e-12,0.6803504228591919,-0.8198632419802923,2.1814533919359804,6.068355850690972e-17,0.006909576545653781,-0.8904459039357048,0.0,0.0,0.0,0.0,0.0,0.0,0,0,0
3.2600000000000025,0.06407302256176771,0.05115226344079343,-0.2500000000003798,-0.04338905641998014,-0.06940391774944729,-3.427813588530171e-12,0.6737298965454102,-0.8307775679610858,2.181508836238892,6.1238897056264e-17,-7.833766744352304e-05,-0.8970664302494864,0.0,0.0,0.0,0.0,0.0,0.0,0,0,0
3.2800000000000025,0.06326419798503272,0.04976846753877069,-0.25000000000042877,-0.04228952459171084,-0.0700635218201528,-2.44804176929847e-12,0.6665639877319336,-0.8416040631360328,2.181451277033409,6.13548452429276e-17,-0.007040111331053584,-0.9042323390629631,0.0,0.0,0.0,0.0,0.0,0.0,0,0,0
3.3000000000000025,0.06247765624401325,0.04837188796249538,-0.25000000000044464,-0.04117946454411117,-0.07070531416901146,-7.938094626069869e-13,0.6588269472122192,-0.8523328691283932,2.1812821736837145,6.310273730680701e-17,-0.013970355160566267,-0.9119693795826773,0.0,0.0,0.0,0.0,0.0,0.0,0,0,0
3.3200000000000025,0.06171360671420129,0.04696287890275832,-0.25000000000041483,-0.040059087972533304,-0.07132948366088185,1.4904744105592727e-12,0.6504919528961182,-0.862953655481112,2.1810033787546232,6.075384108556517e-17,-0.020863234032987007,-0.9203043738987784,0.0,0.0,0.0,0.0,0.0,0.0,0,0,0
3.3400000000000025,0.06097222791502037,0.04554180717234314,-0.2500000000003296,-0.03892993713206208,-0.07193539461654529,4.260480856999038e-12,0.6415315270423889,-0.8734556870673622,2.18061716570074,6.117583767235235e-17,-0.027712489558620875,-0.9292647997525076,0.0,0.0,0.0,0.0,0.0,0.0,0,0,0
3.3600000000000025,0.060253732004532,0.044109030846912305,-0.25000000000018624,-0.03779027417699566,-0.07252332972102503,7.169265181516948e-12,0.631916880607605,-0.883827531786984,2.1801262712848395,5.60230653452149e-17,-0.03451122677389623,-0.9388794461872918,0.0,0.0,0.0,0.0,0.0,0.0,0,0,0
3.3800000000000026,0.059558282291132685,0.04266493081068173,-0.24999999999999273,-0.0366425999530574,-0.07309229995766081,9.67559365960824e-12,0.6216189861297607,-0.8940573896514609,2.1795339170976193,6.210253039442575e-17,-0.0412521047047773,-0.9491773406651358,0.0,0.0,0.0,0.0,0.0,0.0,0,0,0
3.4000000000000026,0.05888607310081804,0.041209863591247384,-0.2499999999997733,-0.03548536766875914,-0.07364352448982855,1.097177904085811e-11,0.6106075644493103,-0.9041328188767007,2.178843854240739,6.260727023421584e-17,-0.047927132640707734,-0.9601887623455863,0.0,0.0,0.0,0.0,0.0,0.0,0,0,0
3.4200000000000026,0.0582372734452521,0.03974420474772515,-0.2499999999995737,-0.034319840919318396,-0.07417604883605812,9.979517212599376e-12,0.5988521575927734,-0.9140408697914213,2.178060390142046,6.600931950420881e-17,-0.054527732727388256,-0.9719441692021232,0.0,0.0,0.0,0.0,0.0,0.0,0,0,0
3.4400000000000026,0.05761204550519505,0.038268346909608494,-0.2499999999994673,-0.03314635869136282,-0.07468901584258196,5.320743845516063e-12,0.5863221883773804,-0.9237679848941169,2.1771884277665174,6.369830075692562e-17,-0.061044648391950174,-0.9844741384175162,0.0,0.0,0.0,0.0,0.0,0.0,0,0,0
3.4600000000000026,0.057010557154446646,0.03678264694908019,-0.24999999999955902,-0.031964635990881875,-0.07518421203977575,-4.586608870482678e-12,0.5729864835739136,-0.9333001335440628,2.1762334845396163,6.42834319155047e-17,-0.06746800947663217,-0.997809843220983,0.0,0.0,0.0,0.0,0.0,0.0,0,0,0
3.4800000000000026,0.056432953676791985,0.035287501428850905,-0.2499999999999864,-0.03077579418962602,-0.07565964497684452,-2.13690176664727e-11,0.5588147044181824,-0.9426226784795906,2.1752017313333023,6.489373668352174e-17,-0.07378721912049041,-1.0119816223767142,0.0,0.0,0.0,0.0,0.0,0.0,0,0,0
3.5000000000000027,0.055879391226317264,0.03378329271947047,-0.2500000000009172,-0.029579284329271545,-0.0761160185292484,-4.654054919228656e-11,0.54377681016922,-0.9517203976048502,2.1741000169471043,7.148497689431416e-17,-0.07999094509134291,-1.0270195166256766,0.0,0.0,0.0,0.0,0.0,0.0,0,0,0
3.5200000000000027,0.055350008062715776,0.032270398938100076,-0.25000000000254796,-0.02837599124229709,-0.07655353676463593,-8.153755448603306e-11,0.5278438329696655,-0.960577628122805,2.1729358703100754,7.821771432626332e-17,-0.08606719784274734,-1.042952493825231,0.0,0.0,0.0,0.0,0.0,0.0,0,0,0
3.5400000000000027,0.05484494094722712,0.030749218727964774,-0.25000000000511013,-0.02716597613548462,-0.07697116110313576,-1.2810863481149681e-10,0.5109885931015015,-0.9691780959978258,2.171717534863228,6.078236558969253e-17,-0.0920031970782959,-1.0598077336933953,0.0,0.0,0.0,0.0,0.0,0.0,0,0,0
3.5600000000000027,0.05436431754289103,0.029220137544446318,-0.2500000000089178,-0.025949678878364146,-0.07736953842519535,-1.903838198202834e-10,0.4931859076023102,-0.9775051172377055,2.1704539488838672,5.5271855935663816e-17,-0.09778549655031238,-1.0776104191925864,0.0,0.0,0.0,0.0,0.0,0.0,0,0,0
3.5800000000000027,0.05390826599299734,0.02768355170121798,-0.2500000000145415,-0.024727055514425774,-0.07774810902684746,-2.8118340988925183e-10,0.47441351413726807,-0.9855414897333562,2.1691547579180406,5.585141444738598e-17,-0.10339990143948169,-1.0963828126576287,0.0,0.0,0.0,0.0,0.0,0.0,0,0,0
3.6000000000000028,0.053476902695349,0.026139850349526653,-0.2500000000000341,-0.023498670131537877,-0.07810721243867767,7.253697642539692e-10,0.45465266704559326,-0.9932696845908946,2.1678302726756864,6.898208399356428e-17,-0.10883159916646515,-1.1161436597493033,0.0,0.0,0.0,0.0,0.0,0.0,0,0,0
3.6200000000000028,0.05307033636334913,0.02458943638188528,-0.2500000000000361,-0.022264878014617698,-0.07844613835885901,-9.992007221626409e-14,0.433889240026474,-1.000671817691154,2.1664914457609092,5.703389997313028e-17,-0.11406514602968884,-1.1369070867684228,0.0,0.0,0.0,0.0,0.0,0.0,0,0,0
3.640000000000003,0.05268866947451366,0.023032703077286144,-0.25000000000003325,-0.021025959331258615,-0.07876534263945605,1.4155343563970746e-13,0.4121142625808716,-1.00772979774235,2.1651498074300264,6.403291361993254e-17,-0.11908458447541152,-1.158682064214025,0.0,0.0,0.0,0.0,0.0,0.0,0,0,0
3.660000000000003,0.052332009434215364,0.021470055315162186,-0.25000000000002665,-0.01978163002323102,-0.07906421547681833,3.3029134982598407e-13,0.3893251121044159,-1.0144252848186246,2.163817418209652,6.46919505033689e-17,-0.12387343696860892,-1.1814712146904807,0.0,0.0,0.0,0.0,0.0,0.0,0,0,0
3.680000000000003,0.05200043378360277,0.01990188777343819,-0.2500000000000171,-0.018533341361613227,-0.0793432353196296,4.773959005888173e-13,0.36552637815475464,-1.0207400985280373,2.1625067172356767,5.880855210327739e-17,-0.1284150307119089,-1.205269948640142,0.0,0.0,0.0,0.0,0.0,0.0,0,0,0
3.700000000000003,0.05169403836071498,0.018328610039070155,-0.2500000000000078,-0.0172812887246015,-0.07960188518798349,4.635181127810029e-13,0.3407309055328369,-1.0266559675012694,2.1612304823936426,5.938184290667069e-17,-0.13269236296615175,-1.2300654212620596,0.0,0.0,0.0,0.0,0.0,0.0,0,0,0
3.720000000000003,0.05141289928649985,0.0167506221607714,-0.2500000000000015,-0.016026057713159438,-0.0798405241899537,3.164135620181696e-13,0.3149605691432953,-1.0321549992683203,2.1600016268358124,5.993709305630069e-17,-0.13668849394073798,-1.2558357576516013,0.0,0.0,0.0,0.0,0.0,0.0,0,0,0
3.740000000000003,0.051157086669262185,0.015168331487880066,-0.24999999999999892,-0.014767087698981558,-0.08005856133638102,1.2906342661267445e-13,0.288247287273407,-1.0372197196745738,2.1588330635497677,6.046847151898652e-17,-0.14038664294820208,-1.2825490395214896,0.0,0.0,0.0,0.0,0.0,0.0,0,0,0
3.760000000000003,0.0509266657209123,0.013582142643001362,-0.24999999999999892,-0.013504551835374263,-0.08025608750715417,0.0,0.26063352823257446,-1.0418332781611161,2.1577375192425925,6.774439143479889e-17,-0.14377041427014253,-1.310162798562322,0.0,0.0,0.0,0.0,0.0,0.0,0,0,0
3.780000000000003,0.05072169752043521,0.011992467103199416,-0.2499999999999998,-0.012238581265304778,-0.0804327127630311,-4.440892098500626e-14,0.23217296600341797,-1.045979625857618,2.1567273397914777,5.460927272601478e-17,-0.14682401261464623,-1.3386233607914786,0.0,0.0,0.0,0.0,0.0,0.0,0,0,0
3.800000000000003,0.05054223900657644,0.010399708003673354,-0.24999999999999784,-0.010969308312933536,-0.08058880863046326,9.853229343548264e-14,0.20293043553829193,-1.0496437551202678,2.155814270019953,6.529547948266696e-17,-0.14953251097825807,-1.3678658912566046,0.0,0.0,0.0,0.0,0.0,0.0,0,0,0
3.820000000000003,0.05038833287916532,0.008804279054914843,-0.2499999999999925,-0.009697368670857829,-0.08072380090006033,2.6645352591003757e-13,0.17298224568367004,-1.0528119535902443,2.1550092223416284,6.914941110320141e-17,-0.15188213435283907,-1.3978140811112265,0.0,0.0,0.0,0.0,0.0,0.0,0,0,0
3.840000000000003,0.050260014669786586,0.007206588009924331,-0.24999999999997796,-0.008423050341773446,-0.08083794681144159,7.271960811294775e-13,0.14241540431976318,-1.055471997119787,2.1543220595970087,6.603217773184729e-17,-0.15386049957032627,-1.4283809224751334,0.0,0.0,0.0,0.0,0.0,0.0,0,0,0
3.860000000000003,0.050157316667312615,0.005607044502570176,-0.24999999999996558,-0.007146450156978901,-0.0809311158674991,6.189493362285248e-13,0.11132695525884628,-1.057613313557661,2.1537613918787386,6.282101615980077e-17,-0.15545683038736813,-1.4594693715360503,0.0,0.0,0.0,0.0,0.0,0.0,0,0,0
3.880000000000003,0.05008027596470561,0.004006061091455621,-0.24999999999995412,-0.005867270990091884,-0.08100313160518852,5.731526364627371e-13,0.07982282340526581,-1.0592271134191231,2.153334395233829,6.302300192177356e-17,-0.15666214068704934,-1.4909735033896307,0.0,0.0,0.0,0.0,0.0,0.0,0,0,0
3.900000000000003,0.050028900945100506,0.002404048438570214,-0.24999999999994543,-0.004586901943764793,-0.08105406755129706,4.343747583845925e-13,0.048016257584095,-1.0603067899528453,2.153046577701841,6.403673976385021e-17,-0.15746960825053946,-1.5227800692108016,0.0,0.0,0.0,0.0,0.0,0.0,0,0,0
3.920000000000003,0.05000321074752025,0.000801418088536451,-0.24999999999994074,-0.0033047722217412505,-0.08108386655011052,2.345346139520643e-13,0.016025960445404053,-1.0608477686274942,2.15290171632485,6.235018217632488e-17,-0.1578745226473436,-1.5547703663494925,0.0,0.0,0.0,0.0,0.0,0.0,0,0,0
3.940000000000003,0.05000321074752025,-0.0008014180885364794,-0.24999999999994074,-0.002021550727680077,-0.08109250972891109,0.0,-0.016025960445404053,-1.0608477686274942,2.15290171632485,6.191109638635075e-17,-0.1578745226473436,-1.5868222872403006,0.0,0.0,0.0,0.0,0.0,0.0,0,0,0
3.960000000000003,0.050028900945100506,-0.002404048438570243,-0.24999999999994543,-0.0007375023987901625,-0.08108001558046755,-2.345346139520643e-13,-0.048016257584095,-1.0603067899528453,2.153046577701841,6.05278773110365e-17,-0.1574696082505395,-1.6188125843789916,0.0,0.0,0.0,0.0,0.0,0.0,0,0,0
3.980000000000003,0.05008027596470561,-0.004006061091455621,-0.24999999999995412,0.0005470925326248387,-0.08104639125408811,-4.343747583845925e-13,-0.07982282340526581,-1.0592271134191231,2.153334395233829,5.952172403723058e-17,-0.15666214068704934,-1.6506191502001624,0.0,0.0,0.0,0.0,0.0,0.0,0,0,0
4.000000000000003,0.050157316667312615,-0.005607044502570176,-0.24999999999996558,0.0018315194775576924,-0.08099168107049476,-5.731526364627371e-13,-0.11132695525884628,-1.057613313557661,2.1537613918787386,6.282101615980077e-17,-0.15545683038736816,-1.6821232820537428,0.0,0.0,0.0,0.0,0.0,0.0,0,0,0
4.020000000000002,0.050260014669786586,-0.00720658800992436,-0.24999999999997796,0.0031162760557329593,-0.08091596522253608,-6.189493362285248e-13,-0.14241540431976318,-1.055471997119787,2.1543220595970087,6.950755550720767e-17,-0.1538604995703263,-1.7132117311146597,0.0,0.0,0.0,0.0,0.0,0.0,0,0,0
4.040000000000002,0.05038833287916532,-0.008804279054914871,-0.2499999999999925,0.004399874896013581,-0.08081919349204936,-7.271960811294775e-13,-0.17298224568367004,-1.0528119535902443,2.1550092223416284,6.569194054804135e-17,-0.1518821343528391,-1.7437785724785666,0.0,0.0,0.0,0.0,0.0,0.0,0,0,0
4.060000000000001,0.05054223900657644,-0.010399708003673368,-0.24999999999999784,0.005682493962997818,-0.08070156182068865,-2.6645352591003757e-13,-0.20293043553829193,-1.0496437551202678,2.155814270019953,6.18588752993687e-17,-0.1495325109782581,-1.7737267623331885,0.0,0.0,0.0,0.0,0.0,0.0,0,0,0
4.080000000000001,0.05072169752043521,-0.011992467103199459,-0.2499999999999998,0.006963901768572464,-0.08056321812308435,-9.853229343548264e-14,-0.23217296600341797,-1.045979625857618,2.1567273397914777,6.143543181676664e-17,-0.14682401261464623,-1.8029692927983145,0.0,0.0,0.0,0.0,0.0,0.0,0,0,0
4.1000000000000005,0.0509266657209123,-0.01358214264300139,-0.24999999999999892,0.008243666756080414,-0.08040392018268974,4.440892098500626e-14,-0.26063352823257446,-1.0418332781611161,2.1577375192425925,6.0969952291319e-17,-0.1437704142701425,-1.831429855027471,0.0,0.0,0.0,0.0,0.0,0.0,0,0,0
4.12,0.05115708666926216,-0.015168331487880096,-0.24999999999999886,0.009520999282295946,-0.08022425458620266,2.7755575615628914e-15,-0.288247287273407,-1.0372197196745743,2.158833063549768,5.374975246132135e-17,-0.14038664294820205,-1.8590436140683035,0.0,0.0,0.0,0.0,0.0,0.0,0,0,0
4.14,0.05141289928649985,-0.0167506221607714,-0.2500000000000015,0.010795617271090584,-0.08002385912402775,-1.3183898417423734e-13,-0.3149605691432953,-1.0321549992683203,2.1600016268358124,6.659677006255631e-17,-0.13668849394073795,-1.885756895938192,0.0,0.0,0.0,0.0,0.0,0.0,0,0,0
4.159999999999999,0.051694038360714956,-0.018328610039070183,-0.2500000000000078,0.012067239227706208,-0.07980313015561903,-3.164135620181696e-13,-0.3407309055328369,-1.0266559675012694,2.1612304823936426,5.278386036148505e-17,-0.13269236296615172,-1.9115272323277335,0.0,0.0,0.0,0.0,0.0,0.0,0,0,0
4.179999999999999,0.05200043378360277,-0.019901887773438234,-0.2500000000000171,0.013335550444244962,-0.07956198083939894,-4.635181127810029e-13,-0.36552637815475464,-1.0207400985280373,2.1625067172356767,5.880855210327739e-17,-0.12841503071190885,-1.9363227049496514,0.0,0.0,0.0,0.0,0.0,0.0,0,0,0
4.199999999999998,0.052332009434215336,-0.0214700553151622,-0.25000000000002665,0.014600184226184169,-0.07930082219706412,-4.773959005888173e-13,-0.3893251121044159,-1.0144252848186246,2.163817418209652,5.175356040269512e-17,-0.12387343696860892,-1.9601214388993125,0.0,0.0,0.0,0.0,0.0,0.0,0,0,0
4.219999999999998,0.05268866947451363,-0.023032703077286158,-0.25000000000003325,0.015860096113505844,-0.07901921814261394,-3.3029134982598407e-13,-0.4121142625808716,-1.00772979774235,2.1651498074300264,6.403291361993254e-17,-0.11908458447541151,-1.9829105893757681,0.0,0.0,0.0,0.0,0.0,0.0,0,0,0
4.2399999999999975,0.0530703363633491,-0.024589436381885293,-0.2500000000000361,0.01711614723317991,-0.0787179495064574,-1.4155343563970746e-13,-0.433889240026474,-1.000671817691154,2.1664914457609092,6.337099997014476e-17,-0.11406514602968883,-2.0046855668213706,0.0,0.0,0.0,0.0,0.0,0.0,0,0,0
4.259999999999997,0.053476902695349,-0.02613985034952668,-0.2500000000000341,0.018366798678737403,-0.07839653740477703,9.992007221626409e-14,-0.45465266704559326,-0.9932696845908946,2.1678302726756864,5.643988690382533e-17,-0.10883159916646515,-2.02544899384049,0.0,0.0,0.0,0.0,0.0,0.0,0,0,0
4.279999999999997,0.05390826599299734,-0.027683551701217994,-0.2500000000145415,0.019612256531231918,-0.07805558756171538,-7.253697642539692e-10,-0.47441351413726807,-0.9855414897333562,2.1691547579180406,5.585141444738598e-17,-0.10339990143948169,-2.0452098409321646,0.0,0.0,0.0,0.0,0.0,0.0,0,0,0
4.299999999999996,0.05436431754289103,-0.029220137544446346,-0.2500000000089178,0.020852177088079057,-0.07769463958766827,2.8118340988925183e-10,-0.4931859076023102,-0.9775051172377055,2.1704539488838672,7.369580791421843e-17,-0.09778549655031238,-2.0639822343972067,0.0,0.0,0.0,0.0,0.0,0.0,0,0,0
4.319999999999996,0.05484494094722709,-0.0307492187279648,-0.25000000000511013,0.02208614772338074,-0.07731439781965702,1.903838198202834e-10,-0.5109885931015015,-0.9691780959978258,2.171717534863228,6.078236558969253e-17,-0.0920031970782959,-2.081784919896398,0.0,0.0,0.0,0.0,0.0,0.0,0,0,0
4.339999999999995,0.055350008062715776,-0.0322703989381001,-0.25000000000254796,0.02331449143985947,-0.07691736306784386,1.2810863481149681e-10,-0.5278438329696655,-0.960577628122805,2.1729358703100754,6.618421981453051e-17,-0.08606719784274734,-2.0986401597645625,0.0,0.0,0.0,0.0,0.0,0.0,0,0,0
4.359999999999995,0.055879391226317264,-0.033783292719470524,-0.2500000000009172,0.024537414009412693,-0.07650307571660868,8.153755448603306e-11,-0.54377681016922,-0.9517203976048502,2.1741000169471043,7.148497689431416e-17,-0.0799909450913429,-2.1145731369641165,0.0,0.0,0.0,0.0,0.0,0.0,0,0,0
4.379999999999995,0.05643295367679196,-0.03528750142885093,-0.2499999999999864,0.025753301075333076,-0.0760688554368955,4.654054919228656e-11,-0.5588147044181824,-0.9426226784795906,2.1752017313333023,5.899430607592887e-17,-0.07378721912049041,-2.129611031213079,0.0,0.0,0.0,0.0,0.0,0.0,0,0,0
4.399999999999994,0.05701055715444662,-0.03678264694908023,-0.24999999999955902,0.026962063157624956,-0.07561573017890519,2.13690176664727e-11,-0.5729864835739136,-0.9333001335440628,2.1762334845396163,6.428343191550468e-17,-0.06746800947663217,-2.14378281036881,0.0,0.0,0.0,0.0,0.0,0.0,0,0,0
4.419999999999994,0.05761204550519505,-0.03826834690960851,-0.2499999999994673,0.02816279635601507,-0.07514348783393808,4.586608870482678e-12,-0.5863221883773804,-0.9237679848941169,2.1771884277665174,5.790754614265965e-17,-0.061044648391950174,-2.157118515172277,0.0,0.0,0.0,0.0,0.0,0.0,0,0,0
4.439999999999993,0.0582372734452521,-0.03974420474772518,-0.2499999999995737,0.02935604089942646,-0.07465141905591226,-5.320743845516063e-12,-0.5988521575927734,-0.9140408697914213,2.178060390142046,6.313934909098232e-17,-0.054527732727388256,-2.16964848438767,0.0,0.0,0.0,0.0,0.0,0.0,0,0,0
4.459999999999993,0.05888607310081804,-0.041209863591247425,-0.2499999999997733,0.030540660039688517,-0.07414150925997527,-9.979517212599376e-12,-0.6106075644493103,-0.9041328188767007,2.178843854240739,6.545305524486202e-17,-0.047927132640707734,-2.181403891244207,0.0,0.0,0.0,0.0,0.0,0.0,0,0,0
4.479999999999992,0.05955828229113266,-0.04266493081068177,-0.24999999999999273,0.03171694195275648,-0.07361196983402174,-1.097177904085811e-11,-0.6216189861297607,-0.8940573896514609,2.1795339170976193,6.210253039442575e-17,-0.0412521047047773,-2.1924153129246573,0.0,0.0,0.0,0.0,0.0,0.0,0,0,0
4.499999999999992,0.060253732004532,-0.044109030846912305,-0.25000000000018624,0.032884545138726885,-0.07306365443962623,-9.67559365960824e-12,-0.631916880607605,-0.883827531786984,2.1801262712848395,6.442652514699713e-17,-0.03451122677389623,-2.2027132074025015,0.0,0.0,0.0,0.0,0.0,0.0,0,0,0
4.519999999999992,0.06097222791502037,-0.04554180717234317,-0.2500000000003296,0.03404220441737293,-0.07249751454370382,-7.169265181516948e-12,-0.6415315270423889,-0.8734556870673622,2.18061716570074,6.117583767235235e-17,-0.027712489558620868,-2.2123278538372855,0.0,0.0,0.0,0.0,0.0,0.0,0,0,0
4.539999999999991,0.061713606714201265,-0.04696287890275835,-0.25000000000041483,0.035191479374262764,-0.07191233166254912,-4.260480856999038e-12,-0.6504919528961182,-0.862953655481112,2.1810033787546232,6.351537931672724e-17,-0.020863234032987003,-2.2212882796910147,0.0,0.0,0.0,0.0,0.0,0.0,0,0,0
4.559999999999991,0.06247765624401322,-0.048371887962495405,-0.25000000000044464,0.03632992860729313,-0.0713092458258458,-1.4904744105592727e-12,-0.6588269472122192,-0.8523328691283932,2.1812821736837145,6.0359140032598e-17,-0.013970355160566267,-2.229623274007116,0.0,0.0,0.0,0.0,0.0,0.0,0,0,0
4.57999999999999,0.06326419798503272,-0.04976846753877072,-0.25000000000042877,0.037459243364099316,-0.07068781979800744,7.938094626069869e-13,-0.6665639877319336,-0.8416040631360328,2.181451277033409,6.06731247402284e-17,-0.007040111331053584,-2.23736031452683,0.0,0.0,0.0,0.0,0.0,0.0,0,0,0
4.59999999999999,0.06407302256176768,-0.05115226344079346,-0.2500000000003798,0.03857788520515836,-0.0700486841591054,2.44804176929847e-12,-0.6737298965454102,-0.8307775679610858,2.181508836238892,6.1238897056264e-17,-7.833766744352304e-05,-2.2445262233403067,0.0,0.0,0.0,0.0,0.0,0.0,0,0,0
4.6199999999999894,0.06490391644323838,-0.05252291774005667,-0.25000000000031125,0.03968565393834734,-0.06939165138124441,3.427813588530171e-12,-0.6803504228591919,-0.8198632419802923,2.1814533919359804,6.135782026809761e-17,0.00690957654565378,-2.2511467496540885,0.0,0.0,0.0,0.0,0.0,0.0,0,0,0
4.639999999999989,0.06575667731452148,-0.05388007675359449,-0.2500000000002356,0.040783118502847805,-0.06871693343770911,3.783084956410221e-12,-0.686450183391571,-0.8088703657490786,2.181283845523987,6.172923448694799e-17,0.01391873462415611,-2.2572465101864676,0.0,0.0,0.0,0.0,0.0,0.0,0,0,0
4.659999999999989,0.06663107925377958,-0.05522339627891793,-0.25000000000016287,0.04186910443914806,-0.068025003848032,3.6359804056473877e-12,-0.692052960395813,-0.7978078299487705,2.180999429683898,6.14524049234759e-17,0.020944592615268102,-2.2628492871907095,0.0,0.0,0.0,0.0,0.0,0.0,0,0,0
4.679999999999988,0.06752690189668874,-0.0565525263216484,-0.2500000000001002,0.042943898281395707,-0.06731557248106596,3.1336044870045043e-12,-0.6971813440322876,-0.7866840571536897,2.180599680091588,6.386185216978588e-17,0.027982991516673012,-2.267977670827184,0.0,0.0,0.0,0.0,0.0,0.0,0,0,0
4.699999999999988,0.06844391668017079,-0.05786713158686095,-0.2500000000000518,0.04400709656890304,-0.06658937412704684,2.4202861936828413e-12,-0.7018570303916931,-0.7755070010713571,2.1800844068632603,6.362521470031016e-17,0.035030140756275044,-2.2726533571865897,0.0,0.0,0.0,0.0,0.0,0.0,0,0,0
4.719999999999987,0.06938187470387934,-0.05916686600032483,-0.2499999999942855,0.045057689768279556,-0.06584586897427891,2.883152050436877e-10,-0.7061007022857666,-0.7642843469030811,2.1794536789762082,5.812914389734099e-17,0.04208247674319937,-2.276897029080663,0.0,0.0,0.0,0.0,0.0,0.0,0,0,0
4.739999999999987,0.07034054295183946,-0.06045140015367889,-0.24999999999851713,0.0460964796183565,-0.06508589049038634,-2.1158214069672e-10,-0.7099320292472839,-0.7530232002208852,2.1787077846252627,6.849517198285498e-17,0.049136844694764696,-2.2807283560421805,0.0,0.0,0.0,0.0,0.0,0.0,0,0,0
4.7599999999999865,0.07131968851983828,-0.06172040430349406,-0.24999999999999228,0.04712347919085469,-0.06430942159710362,-7.375766664097227e-11,-0.7133696675300598,-0.7417302705356403,2.1778472144687977,5.2552158429527345e-17,0.05619036989013365,-2.2841659943249564,0.0,0.0,0.0,0.0,0.0,0.0,0,0,0
4.779999999999986,0.07231903589376507,-0.06297355185771215,-0.24999999999997743,0.04813603008391396,-0.06351674120474125,7.424616477180734e-13,-0.7164316177368164,-0.7304121025015929,2.1768726599382893,6.292170523085806e-17,0.06324030202861103,-2.287227944531713,0.0,0.0,0.0,0.0,0.0,0.0,0,0,0
4.799999999999986,0.07333834670220796,-0.06421051743008852,-0.2500000000001363,0.04913649709922749,-0.06270779554049472,-7.942257962412214e-12,-0.7191346883773804,-0.7190746667035377,2.1757849617589238,6.803652286746789e-17,0.07028426049844376,-2.289931015172277,0.0,0.0,0.0,0.0,0.0,0.0,0,0,0
4.819999999999985,0.07437734869780052,-0.06543099346763379,-0.2500000000000179,0.05012323855254687,-0.06188346504757562,5.920264278813647e-12,-0.7214951515197754,-0.7077236824029097,2.1745851157485356,5.225465590820286e-17,0.0773200235694121,-2.292291478314672,0.0,0.0,0.0,0.0,0.0,0.0,0,0,0
4.839999999999985,0.0754357819213287,-0.06663465717268455,-0.25000000000001077,0.051096876125806975,-0.061042987273353604,3.552713678800501e-13,-0.7235282063484192,-0.696364538652222,2.173274249744868,6.262894217352048e-17,0.08434556953499867,-2.2943245331433157,0.0,0.0,0.0,0.0,0.0,0.0,0,0,0
4.859999999999984,0.07651337412471301,-0.0678212061093615,-0.2500000000000163,0.0520567997412986,-0.060187380502261266,-2.7755575615628914e-13,-0.7252484560012817,-0.6850022736981549,2.1718536040032714,5.735796345951507e-17,0.09135908210371164,-2.2960447827961783,0.0,0.0,0.0,0.0,0.0,0.0,0,0,0
4.879999999999984,0.0776098396113793,-0.06899032924950448,-0.25000000000000194,0.05300234215146827,-0.059316214780981535,7.188694084447889e-13,-0.7266697287559509,-0.6736417315407365,2.170324535541628,5.211255437835319e-17,0.09835884742076664,-2.2974660555508475,0.0,0.0,0.0,0.0,0.0,0.0,0,0,0
4.8999999999999835,0.07872490986634238,-0.07014172029303047,-0.2500000000000063,0.0539343684023992,-0.058429726807215046,-2.1649348980190553e-13,-0.7278050184249878,-0.6622873500170333,2.1686884769936223,6.251652628764251e-17,0.10534337931073619,-2.2986013452198844,0.0,0.0,0.0,0.0,0.0,0.0,0,0,0
4.919999999999983,0.07985828440850543,-0.07127509594319921,-0.24999999999997188,0.054851282835603914,-0.0575290668234717,1.7194579093882112e-12,-0.7286669611930847,-0.6509433496121556,2.1669469471824017,6.251606848888551e-17,0.11231129801118295,-2.2994632879879813,0.0,0.0,0.0,0.0,0.0,0.0,0,0,0
4.939999999999983,0.0810096754415656,-0.0723901646819007,-0.24999999999988554,0.05575372544982735,-0.05661382379808689,4.3173797870110775e-12,-0.7292673587799072,-0.6396136570270893,2.1651015282724035,6.253308467501207e-17,0.11926137320975368,-2.300063685574804,0.0,0.0,0.0,0.0,0.0,0.0,0,0,0
4.959999999999982,0.08217879244324468,-0.07348662365354477,-0.24999999999985237,0.056641564756178105,-0.05568343066702565,1.6583956430338276e-12,-0.7296172976493835,-0.628302014728206,2.1631538717949472,6.256699398714577e-17,0.12619245340231272,-2.30041362444428,0.0,0.0,0.0,0.0,0.0,0.0,0,0,0
4.979999999999982,0.08336533885632304,-0.07456421235712202,-0.24999999999986247,0.05751450166986912,-0.05474000595900103,-5.051514762044462e-13,-0.729727566242218,-0.6170117583289143,2.16110564922827,5.218101793898569e-17,0.1331035994599015,-2.3005238930371146,0.0,0.0,0.0,0.0,0.0,0.0,0,0,0
4.999999999999981,0.08456900808155791,-0.07562265297186355,-0.2499999999999356,0.05837203835816133,-0.05378268331358464,-3.656797087359109e-12,-0.7296082973480225,-0.6057461307691946,2.1589585952883943,6.268321854052667e-17,0.13999388978874056,-2.300404624142919,0.0,0.0,0.0,0.0,0.0,0.0,0,0,0
5.019999999999981,0.08578948216454085,-0.07666165267937089,-0.25000000000010664,0.059213610950479674,-0.052810712503893284,-8.551492847175268e-12,-0.7292690277099609,-0.5945082888040585,2.1567145058466095,8.36859471679669e-17,0.1468624148953027,-2.3000653545048575,0.0,0.0,0.0,0.0,0.0,0.0,0,0,0
5.0399999999999805,0.08702644884557563,-0.07768096034456795,-0.25000000000039957,0.0600395068977673,-0.05182617865605389,-1.4646617252367378e-11,-0.7287189960479736,-0.5833009601147827,2.1543751617390376,5.238369411007556e-17,0.15370848557294006,-2.29951532284287,0.0,0.0,0.0,0.0,0.0,0.0,0,0,0
5.05999999999998,0.08827959869672279,-0.07868031449388854,-0.2500000000007885,0.06084987182338527,-0.050828564790384306,-1.9445556276309617e-11,-0.727966845035553,-0.5721267136238668,2.1519423704314855,6.297064913014123e-17,0.16053146650254352,-2.2987631718304495,0.0,0.0,0.0,0.0,0.0,0.0,0,0,0
5.07999999999998,0.08954859933051919,-0.07965945314131553,-0.2500000000012476,0.06164356011494003,-0.04981784507544702,-2.2956636591686674e-11,-0.7270208597183228,-0.5609880581321226,2.1494179827573916,3.154731792797388e-17,0.16733071547174524,-2.2978171865132193,0.0,0.0,0.0,0.0,0.0,0.0,0,0,0
5.099999999999979,0.09083313460963231,-0.08061812631655149,-0.25000000004326023,0.06242138788013667,-0.04879462085200141,-2.100630780432766e-09,-0.7258888483047485,-0.5498871901250324,2.1468038304130563,7.377060023823012e-17,0.1741057368221486,-2.296685175099645,0.0,0.0,0.0,0.0,0.0,0.0,0,0,0
5.119999999999979,0.09213287353346405,-0.08155608356780135,-0.2500000000160023,0.06318261436379287,-0.047758867940649645,1.3628959072420344e-09,-0.7245782613754272,-0.5388262242637348,2.1441017722711777,5.2818447013410006e-17,0.18085604146767106,-2.295374588170324,0.0,0.0,0.0,0.0,0.0,0.0,0,0,0
5.139999999999978,0.09344747783482651,-0.08247309737001103,-0.250000000001133,0.06392687818048776,-0.04671173313112825,7.434663995553592e-10,-0.7230963110923767,-0.527807054917261,2.1413136531819577,4.236319478705586e-17,0.18758123008609623,-2.2938926378872733,0.0,0.0,0.0,0.0,0.0,0.0,0,0,0
5.159999999999978,0.09477660293455648,-0.08336892176999411,-0.2500000000018369,0.06465386676865188,-0.045652294676032386,-3.5196845438179025e-11,-0.7214497327804565,-0.5168315511823355,2.138441349753717,6.371950979136337e-17,0.1942808756084911,-2.2922460595753535,0.0,0.0,0.0,0.0,0.0,0.0,0,0,0
5.1799999999999775,0.09611991781070188,-0.08424332565313963,-0.25000000000002476,0.06536426077511122,-0.044581295083483685,9.060807659722059e-11,-0.7196449041366577,-0.5059013097702094,2.1354867019344215,6.390590746570924e-17,0.2009546743091182,-2.2904412309315543,0.0,0.0,0.0,0.0,0.0,0.0,0,0,0
5.199999999999977,0.09747708374364959,-0.08509608080464366,-0.2500000000000346,0.06605767739128908,-0.04349887939798298,-4.912736883966318e-13,-0.7176879048347473,-0.49501782855554843,2.132451551107038,4.273574538020892e-17,0.20760234039988706,-2.288484231629644,0.0,0.0,0.0,0.0,0.0,0.0,0,0,0
5.219999999999977,0.09884773256117725,-0.08592698161054699,-0.2500000000000189,0.06673264451887576,-0.042406177766180955,7.854827899222983e-13,-0.7155847549438477,-0.48418253853333276,2.1293377464818244,6.431227586580118e-17,0.2142235874099985,-2.286381081738744,0.0,0.0,0.0,0.0,0.0,0.0,0,0,0
5.239999999999976,0.10023153134573942,-0.08673580676919417,-0.25000000000000483,0.06739092905506304,-0.04130240610714583,7.022160630754115e-13,-0.7133408784866333,-0.47339665013525795,2.1261470970653242,6.453154815131618e-17,0.2208182229771119,-2.28413720528153,0.0,0.0,0.0,0.0,0.0,0.0,0,0,0
5.259999999999976,0.10162811150525837,-0.08752233639027546,-0.25000000000315153,0.06803074789234317,-0.04018763458104171,-1.5733525593475406e-10,-0.7109615802764893,-0.4626614495251922,2.1228814547014725,4.3174070875702856e-17,0.22738596871680816,-2.281757907071386,0.0,0.0,0.0,0.0,0.0,0.0,0,0,0
5.279999999999975,0.10303711156744873,-0.08828639868293046,-0.25000000000074507,0.06865245810368908,-0.039064269268322606,1.203231958513129e-10,-0.7084521055221558,-0.4519778771883564,2.1195425848086087,6.500062652138947e-17,0.23392671907732782,-2.2792484323170523,0.0,0.0,0.0,0.0,0.0,0.0,0,0,0
5.299999999999975,0.10445819017893666,-0.0890277724726081,-0.2500000000000161,0.06925706967349426,-0.037929840421187036,3.644862189844389e-11,-0.7058170437812805,-0.441346902289853,2.1161322743088546,4.3499879925327463e-17,0.2404403134670568,-2.276613370576177,0.0,0.0,0.0,0.0,0.0,0.0,0,0,0
5.3199999999999745,0.10589096615275517,-0.08974627106144072,-0.24999999999999994,0.06984259026694899,-0.036786072002520494,8.076872504148014e-13,-0.7030611038208008,-0.4307694655893964,2.112652314860751,6.550838984891239e-17,0.24692657228095266,-2.2738574306156973,0.0,0.0,0.0,0.0,0.0,0.0,0,0,0
5.339999999999974,0.1073350785959322,-0.09044171777379045,-0.2500000000000146,0.07041003690198105,-0.03563346569028858,-7.327471962526033e-13,-0.7001886963844299,-0.42024628480491577,2.109104435976966,4.385070502532091e-17,0.25338541743612275,-2.2709850231793265,0.0,0.0,0.0,0.0,0.0,0.0,0,0,0
5.359999999999974,0.10879013858718883,-0.09111392418743157,-0.2500000000002676,0.07095808015722362,-0.03447144862156287,-1.2650991365603659e-11,-0.697204053401947,-0.4097782060778253,2.1054904194595156,8.807006897676516e-17,0.2598166579851387,-2.2680003801968436,0.0,0.0,0.0,0.0,0.0,0.0,0,0,0
5.379999999999973,0.11025579170807794,-0.0917627298690956,-0.25000000000023875,0.07148931259906931,-0.03330160479165744,1.4432899320127035e-12,-0.694111168384552,-0.399365712336353,2.101811929615775,8.845015653915352e-17,0.2662202932603042,-2.2649074951794486,0.0,0.0,0.0,0.0,0.0,0.0,0,0,0
5.399999999999973,0.1117316615715818,-0.092387952431727,-0.25000000000006845,0.07200167318767747,-0.03212263147008588,8.51541059887495e-12,-0.6909137964248657,-0.3890094386122275,2.09807068756999,6.663101037383666e-17,0.2725961976447824,-2.2617101232197623,0.0,0.0,0.0,0.0,0.0,0.0,0,0,0
5.419999999999972,0.11321735626258891,-0.09298944760591149,-0.2500000000000156,0.07249438482588534,-0.03093643492164621,2.6423307986078726e-12,-0.6876157522201538,-0.3787098845803026,2.094268370687586,4.462165599897089e-17,0.2789442983933249,-2.2584120790150504,0.0,0.0,0.0,0.0,0.0,0.0,0,0,0
5.439999999999972,0.11471249882003838,-0.09356704334283497,-0.2500000000000511,0.07296820055169584,-0.029741626488797777,-1.7763568394002505e-12,-0.6842204332351685,-0.36846754524119285,2.0904066575673896,2.241393802365328e-17,0.28526449645377655,-2.255016760030065,0.0,0.0,0.0,0.0,0.0,0.0,0,0,0
5.4599999999999715,0.11621671143640105,-0.09412061481571941,-0.2500000000000911,0.07342307744968252,-0.028540568038170813,-1.9984014443252818e-12,-0.6807312965393066,-0.35828267693736077,2.0864871374104434,6.755877546195123e-17,0.29155681216048374,-2.251527623334203,0.0,0.0,0.0,0.0,0.0,0.0,0,0,0
5.479999999999971,0.1177295954608789,-0.09464999892458033,-0.2500000000001013,0.0738579769803928,-0.02733134531084017,-5.10702591327572e-13,-0.6771515011787415,-0.3481557705480767,2.082511488841702,6.788315605378981e-17,0.29782109428046155,-2.247947827973638,0.0,0.0,0.0,0.0,0.0,0.0,0,0,0
5.499999999999971,0.11925077428802268,-0.09515506143184956,-0.2500000000000824,0.07427400314981945,-0.026115402453240344,9.46465128492946e-13,-0.6734840869903564,-0.3380870467487545,2.0784812854322916,2.2738251038681208e-17,0.3040573329383856,-2.244280413785253,0.0,0.0,0.0,0.0,0.0,0.0,0,0,0
5.51999999999997,0.12077985883351199,-0.09563567934235141,-0.2500000000000488,0.07467053278640036,-0.02489330166844554,1.6792123247455493e-12,-0.6697320342063904,-0.32807671621594714,2.074398092862456,6.85533669680803e-17,0.3102655002103906,-2.240528361001287,0.0,0.0,0.0,0.0,0.0,0.0,0,0,0
5.53999999999997,0.12231645538302245,-0.09609173472528793,-0.2500000000000175,0.07504733593662777,-0.023665296342673427,1.5654144647214707e-12,-0.6658982038497925,-0.3181249691812332,2.0702634645654197,6.889880436393433e-17,0.31644555765331056,-2.236694530644689,0.0,0.0,0.0,0.0,0.0,0.0,0,0,0
5.559999999999969,0.12386014500245159,-0.09652309750001407,-0.25000000000000144,0.07540315299116507,-0.022430778487331084,8.021361352916756e-13,-0.6619853377342224,-0.3082321584723579,2.0660790194177285,9.233450111603934e-17,0.3225973434615086,-2.232781664529119,0.0,0.0,0.0,0.0,0.0,0.0,0,0,0
5.579999999999969,0.12541056236135575,-0.0969296619939538,-0.25000000000000006,0.07574066755484293,-0.021190970137239546,6.938893903907228e-14,-0.6579959392547607,-0.298398237535938,2.0618462041024577,4.640627336369942e-17,0.32872092290040866,-2.2287922660496573,0.0,0.0,0.0,0.0,0.0,0.0,0,0,0
5.599999999999969,0.12696729310994398,-0.09731132464649736,-0.25000000000000433,0.0760574276863904,-0.01994597600047066,-2.1371793224034263e-13,-0.6539325714111328,-0.28862339616714006,2.0575665592412977,4.6649485825494704e-17,0.33481619425622927,-2.2247288982060294,0.0,0.0,0.0,0.0,0.0,0.0,0,0,0
5.619999999999968,0.12852995637560405,-0.09766798771477525,-0.2500000000000424,0.07635511050938479,-0.01869608792925508,-1.9040324872321435e-12,-0.6497975587844849,-0.2789076141253279,2.0532415280329874,2.3448389751197798e-17,0.3408831676571835,-2.2205938855793814,0.0,0.0,0.0,0.0,0.0,0.0,0,0,0
5.639999999999968,0.13009810773799232,-0.09799956824926341,-0.25000000000011335,0.07663053608711975,-0.017442044464246118,-3.547162563677375e-12,-0.6455934047698975,-0.2692511419427374,2.0488726680827694,2.3574018277645002e-17,0.3469216660040338,-2.216389731564794,0.0,0.0,0.0,0.0,0.0,0.0,0,0,0
5.659999999999967,0.13167138523656588,-0.09830596308053148,-0.2500000000001995,0.07688783465443111,-0.016182836371054554,-4.307665335545607e-12,-0.6413220763206482,-0.2596538706826734,2.0444613694274807,2.3701580855296242e-17,0.35293171957852776,-2.2121184031155448,0.0,0.0,0.0,0.0,0.0,0.0,0,0,0
5.679999999999967,0.13324937637707665,-0.09858710388857785,-0.25000000000028705,0.0771244763565005,-0.014920205487068754,-4.37705427458468e-12,-0.6369857788085938,-0.25011581879036276,2.040009070773319,-0.0,0.3589132629528021,-2.2077821056034903,0.0,0.0,0.0,0.0,0.0,0.0,0,0,0
5.699999999999966,0.13483166563747767,-0.09884290812388398,-0.25000000000036304,0.07734031202998164,-0.013653440203623815,-3.799738301779598e-12,-0.6325865387916565,-0.24063708040919518,2.0355172395481325,-0.0,0.36486616771394775,-2.203382865586553,0.0,0.0,0.0,0.0,0.0,0.0,0,0,0
5.719999999999966,0.13641786405275172,-0.09907333641291774,-0.2500000000004148,0.077536669864288,-0.01238470051066986,-2.5868196473766147e-12,-0.6281263828277588,-0.23121744260961566,2.0309871892512468,-0.0,0.37079048381964835,-2.1989227096226553,0.0,0.0,0.0,0.0,0.0,0.0,0,0,0
5.739999999999966,0.13800753506815966,-0.09927830041247185,-0.25000000000043093,0.07771117219783548,-0.011111536342586537,-8.076872504148014e-13,-0.6236071586608887,-0.2218571479637851,2.0264204435372104,4.846030236449863e-17,0.37668596110860836,-2.1944034854557852,0.0,0.0,0.0,0.0,0.0,0.0,0,0,0
5.759999999999965,0.13960029357940384,-0.09945775871956934,-0.2500000000004058,0.07786639281639268,-0.009836296506195295,1.2573275753879898e-12,-0.6190306544303894,-0.21255598847390858,2.021818300651861,7.309990276658465e-17,0.38255261988888783,-2.189826981225286,0.0,0.0,0.0,0.0,0.0,0.0,0,0,0
5.779999999999965,0.14119571940695522,-0.09961167853753901,-0.250000000000342,0.07800057703141887,-0.0085594106501344,3.189115638235762e-12,-0.614398717880249,-0.20331392525527475,2.0171821309464617,4.9009521404249036e-17,0.38839036199237686,-2.1851950446751456,0.0,0.0,0.0,0.0,0.0,0.0,0,0,0
5.799999999999964,0.14279340326141118,-0.09973999290319722,-0.2500000000002528,0.07811427309006236,-0.007279170358623827,4.460321001431566e-12,-0.6097128987312317,-0.19413100667932517,2.012513340849172,2.4644488150594725e-17,0.39419902252011996,-2.1805092255261282,0.0,0.0,0.0,0.0,0.0,0.0,0,0,0
5.819999999999964,0.1443929548010762,-0.09984268033808191,-0.25000000000015854,0.07820842793086004,-0.005997850875977889,4.7128967395337895e-12,-0.6049748063087463,-0.18500701928251276,2.0078131948155953,4.957154931251808e-17,0.39997859141141934,-2.175771133103643,0.0,0.0,0.0,0.0,0.0,0.0,0,0,0
5.839999999999963,0.14599393780810477,-0.09991971973198525,-0.2500000000000788,0.07828074669228155,-0.0047154695398160815,3.985700658404312e-12,-0.6001861095428467,-0.17594201829925593,2.0030830851995787,4.9857150640204246e-17,0.40572887848966493,-2.1709824363377432,0.0,0.0,0.0,0.0,0.0,0.0,0,0,0
5.859999999999963,0.14759594825543457,-0.09997110623762061,-0.2500000000000241,0.07833285054000368,-0.0034328479395086793,2.736699755701011e-12,-0.5953483581542969,-0.16693584410556067,1.99832428408159,5.0145697013443804e-17,0.4114498202767205,-2.1661446849491934,0.0,0.0,0.0,0.0,0.0,0.0,0,0,0
5.879999999999963,0.14919857748683632,-0.09999678586131526,-0.249999999999994,0.07836461199425902,-0.0021476044626628833,1.5043521983670871e-12,-0.5904628038406372,-0.157988568499219,1.9935381763825601,7.565566745157513e-17,0.4171411974734696,-2.1612591306355338,0.0,0.0,0.0,0.0,0.0,0.0,0,0,0
5.899999999999962,0.15080141820453302,-0.0999967873124453,-0.24999999999998204,0.07837598035189994,-0.0008637876284211486,5.981326545168031e-13,-0.5855309963226318,-0.1490999712698716,1.988725982289887,2.5365655567857535e-17,0.42280296817492324,-2.1563273231175284,0.0,0.0,0.0,0.0,0.0,0.0,0,0,0
5.919999999999962,0.1524040549726947,-0.0999710997831208,-0.2499999999999807,0.07836655165821915,0.0004205789938208595,6.661338147750939e-14,-0.5805542469024658,-0.1402700516381174,1.9838890296303326,1.0205643329448303e-16,0.42843494326955645,-2.1513505736973624,0.0,0.0,0.0,0.0,0.0,0.0,0,0,0
5.939999999999961,0.1540060551940387,-0.09991971818037157,-0.24999999999998473,0.07833546759963413,0.0017052101523036254,-2.0122792321330962e-13,-0.5755338668823242,-0.13149891158610152,1.9790286958302619,1.0265549416010196e-16,0.4340368606114376,-2.1463301936772208,0.0,0.0,0.0,0.0,0.0,0.0,0,0,0
5.959999999999961,0.155607036595593,-0.09984268672879713,-0.24999999999999423,0.07828524553803332,0.0029876377382604866,-4.746203430272544e-13,-0.5704711675643921,-0.122786222417396,1.9741461104276932,5.162982724432547e-17,0.43960872649470906,-2.1412674943592886,0.0,0.0,0.0,0.0,0.0,0.0,0,0,0
5.9799999999999605,0.1572065831610576,-0.09973999094906813,-0.2500000000000003,0.07821420068334259,0.004270798624053739,-3.0253577421035516e-13,-0.5653672218322754,-0.11413208838420504,1.9692426336119193,5.1934382718733146e-17,0.4451502645845098,-2.136163548627172,0.0,0.0,0.0,0.0,0.0,0.0,0,0,0
5.99999999999996,0.15880427610558162,-0.0996116693631161,-0.2500000000000028,0.07812219241357996,0.005552042349444675,-1.249000902703301e-13,-0.5602232813835144,-0.10553647077802285,1.9643195379455716,1.0448266915817347e-16,0.4506612841124525,-2.131019608178411,0.0,0.0,0.0,0.0,0.0,0.0,0,0,0
6.01999999999996,0.16039971018609298,-0.0994577579616423,-0.24999999999999686,0.07800989966803805,0.006831495027430103,2.9559688030644793e-13,-0.5550404787063599,-0.09699929916643454,1.9593780685856999,5.255060767090286e-17,0.4561416094924149,-2.1258368055012564,0.0,0.0,0.0,0.0,0.0,0.0,0,0,0
6.039999999999959,0.1619924611386352,-0.09927829557668269,-0.24999999999998987,0.07787637107155473,0.008109015257340266,3.497202527569243e-13,-0.5498199462890625,-0.08852063805960736,1.9544195402102464,5.286212387778959e-17,0.4615909737276499,-2.120616273083959,0.0,0.0,0.0,0.0,0.0,0.0,0,0,0
6.059999999999959,0.16358213536208802,-0.09907334106369516,-0.2499999999999833,0.0777231412299428,0.009383600620927994,3.289035710452026e-13,-0.5445627570152283,-0.08010034453694263,1.9494451376534483,5.317580971762387e-17,0.4670092387879353,-2.115359083810125,0.0,0.0,0.0,0.0,0.0,0.0,0,0,0
6.079999999999958,0.16516833460083938,-0.09884291046771423,-0.24999999999997813,0.07754998032946367,0.010657392234908945,2.581268532253489e-13,-0.539269745349884,-0.07173848955615683,1.9444561622754528,5.349159495532716e-17,0.47239612525742475,-2.1100660721447806,0.0,0.0,0.0,0.0,0.0,0.0,0,0,0
6.099999999999958,0.16675062389671108,-0.09858710468397455,-0.24999999999997566,0.07735504733369727,0.011926148185141499,1.2351231148954867e-13,-0.5339421629905701,-0.0634351014203071,1.9394538828122463,1.0761879148661633e-16,0.47775137751447216,-2.1047384897854666,0.0,0.0,0.0,0.0,0.0,0.0,0,0,0
6.1199999999999575,0.16832861322559012,-0.09830595788839801,-0.24999999999997674,0.07714059585733826,0.013193203502500325,-5.412337245047638e-14,-0.5285807847976685,-0.05519022270746037,1.934439568761651,5.41291423311543e-17,0.4830747275337571,-2.099377111592565,0.0,0.0,0.0,0.0,0.0,0.0,0,0,0
6.139999999999957,0.16990188280208765,-0.09799956637574152,-0.24999999999998188,0.07690513353641588,0.014455452833036642,-2.5673907444456745e-13,-0.5231866836547852,-0.04700389850536159,1.929414483373278,5.445075444535849e-17,0.48836590285573955,-2.0939830104496817,0.0,0.0,0.0,0.0,0.0,0.0,0,0,0
6.159999999999957,0.1714700481680079,-0.09766799215512335,-0.24999999999999084,0.07665043121796573,0.01571460956995204,-4.4825254619240695e-13,-0.5177606344223022,-0.03887612924423858,1.9243798542014603,5.4774161085884425e-17,0.4936246575115076,-2.088556961217199,0.0,0.0,0.0,0.0,0.0,0.0,0,0,0
6.179999999999956,0.1730326981790727,-0.09731133419362692,-0.2500000000000031,0.07637515181656819,0.016968826558085424,-6.13398221105399e-13,-0.5123035907745361,-0.030806992262183676,1.9193369480141376,5.50992831602881e-17,0.49885069378218233,-2.0830999175694327,0.0,0.0,0.0,0.0,0.0,0.0,0,0,0
6.199999999999956,0.17458943047293338,-0.09692966777872797,-0.25000000000001743,0.07607973683199129,0.018219287792441623,-7.16093850883226e-13,-0.5068163275718689,-0.02279664067318603,1.9142870720189245,-0.0,0.5040436630643114,-2.0776126543667655,0.0,0.0,0.0,0.0,0.0,0.0,0,0,0
6.219999999999955,0.1761398463028184,-0.0965230952094742,-0.25000000000003253,0.07576436639337152,0.01946464243703563,-7.549516567451064e-13,-0.5012996792793274,-0.014845163954691504,1.909231486681696,5.57543673491041e-17,0.5092032565223428,-2.072096006074224,0.0,0.0,0.0,0.0,0.0,0.0,0,0,0
6.239999999999955,0.17768354444150133,-0.09609173553517951,-0.25000000000004674,0.07542891604804766,0.020704053060057268,-7.105427357601002e-13,-0.49575451016426086,-0.006952661939456381,1.9041714514279082,1.121683426985117e-16,0.5143291575732767,-2.0665508369591574,0.0,0.0,0.0,0.0,0.0,0.0,0,0,0
6.2599999999999545,0.17922013212032725,-0.09563568235940165,-0.2500000000000581,0.07507381109892573,0.021938792014765156,-5.689893001203927e-13,-0.49018150568008423,0.0008806813821449534,1.899108272600033,1.1283075774137673e-16,0.5194209942208409,-2.060977832474981,0.0,0.0,0.0,0.0,0.0,0.0,0,0,0
6.279999999999954,0.1807492268889681,-0.0951550588484407,-0.2500000000000648,0.07469956695449746,0.023167380651436312,-3.3306690738754696e-13,-0.4845814108848572,0.008654790158029762,1.8940431796229353,-0.0,0.5244784643330136,-2.0553777376797537,0.0,0.0,0.0,0.0,0.0,0.0,0,0,0
6.299999999999954,0.1822703995237789,-0.09464999463554434,-0.2500000000000654,0.07430384270812573,0.024389497559049955,-3.0531133177191805e-14,-0.47895506024360657,0.01636926880037469,1.8889776040282067,5.70816794095159e-17,0.5295010575919391,-2.049751387038503,0.0,0.0,0.0,0.0,0.0,0.0,0,0,0
6.319999999999953,0.18378329580354835,-0.09412061391015877,-0.25000000000005873,0.07389039314798754,0.025605412249056422,3.3306690738754696e-13,-0.47330304980278015,0.024024107913191043,1.8839127183907902,1.1483321533879367e-16,0.5344885151731216,-2.0440993765976767,0.0,0.0,0.0,0.0,0.0,0.0,0,0,0
6.339999999999953,0.18528751078619343,-0.09356704466201993,-0.2500000000000447,0.07345667987650671,0.02681493684522053,7.022160630754115e-13,-0.46762606501579285,0.03161894379424763,1.8788499218462194,-0.0,0.5394403480315431,-2.0384223918106894,0.0,0.0,0.0,0.0,0.0,0.0,0,0,0
6.359999999999952,0.18678265122654283,-0.09298944474008834,-0.25000000000002426,0.0730032872291915,0.028016577878325507,1.021405182655144e-12,-0.46192485094070435,0.03915352007003357,1.8737905374197348,-0.0,0.5443561377311004,-2.032721177735601,0.0,0.0,0.0,0.0,0.0,0.0,0,0,0
6.379999999999952,0.1882683384626112,-0.09238795414367527,-0.25000000000000094,0.0725309464791078,0.029211227635515306,1.1657341758564144e-12,-0.4562000036239624,0.046627555642226245,1.8687358986780631,1.1685496006748654e-16,0.5492354507936317,-2.026996330418859,0.0,0.0,0.0,0.0,0.0,0.0,0,0,0
6.3999999999999515,0.18974419878953028,-0.09176272421717485,-0.24999999999998226,0.0720399055366154,0.030398318785800762,9.33975119465913e-13,-0.45045211911201477,0.054040777331309756,1.8636873276695163,5.876617664765076e-17,0.5540778603214936,-2.0212484459069113,0.0,0.0,0.0,0.0,0.0,0.0,0,0,0
6.419999999999951,0.19120985264451304,-0.09111392619537387,-0.24999999999998387,0.07152987055542233,0.03157685710811248,-8.049116928532385e-14,-0.444681853055954,0.06139287536466894,1.858646165013089,1.182111866662444e-16,0.5588829172501604,-2.0154781798508505,0.0,0.0,0.0,0.0,0.0,0.0,0,0,0
6.439999999999951,0.19266493059798653,-0.09044171691663812,-0.2500000000000387,0.07100134982136222,0.03274756238985591,-2.7408630920433552e-12,-0.438889741897583,0.06868349792684472,1.8536137741572831,1.188912785372992e-16,0.5636501470562241,-2.0096860686924796,0.0,0.0,0.0,0.0,0.0,0.0,0,0,0
6.45999999999995,0.19410904162391013,-0.08974627254860593,-0.2500000000002263,0.07045326177663064,0.033909469152838614,-9.381384558082573e-12,-0.433076411485672,0.07591214957959791,1.8485916127440796,5.978621579513713e-17,0.56837898356493,-2.0038727382805686,0.0,0.0,0.0,0.0,0.0,0.0,0,0,0
6.47999999999995,0.1955418050132262,-0.08902777585909907,-0.2500000000007892,0.06988612278307295,0.035062247198639186,-2.8144153674247718e-11,-0.4272424578666687,0.08307835326391078,1.8435811217279787,1.2025444725628494e-16,0.5730688751478886,-1.9980387846615653,0.0,0.0,0.0,0.0,0.0,0.0,0,0,0
6.499999999999949,0.19696287533962561,-0.08828639867846914,-0.2500000000029629,0.06930169959480123,0.036206442305453036,-1.086852829956797e-10,-0.42138832807540894,0.09018176266882409,1.8385836451591187,6.046856900271171e-17,0.577719358691994,-1.9921846548703053,0.0,0.0,0.0,0.0,0.0,0.0,0,0,0
6.519999999999949,0.19837189066090535,-0.0875223409436789,-0.24999999999432515,0.06869916442770867,0.037340649873534484,4.3188785880943215e-10,-0.41551458835601807,0.09722194188214259,1.833600583438858,-0.0,0.5823299157943485,-1.9863109151509146,0.0,0.0,0.0,0.0,0.0,0.0,0,0,0
6.5399999999999485,0.19976846734082113,-0.08673580092287866,-0.24999999999348427,0.06807743188656987,0.03846495459518281,4.204414594255468e-11,-0.40962180495262146,0.10419823650655244,1.8286334865076526,1.2230372038832095e-16,0.5868998884652682,-1.980418131747518,0.0,0.0,0.0,0.0,0.0,0.0,0,0,0
6.559999999999948,0.20115227354382717,-0.08592697893887055,-0.2499999999951548,0.06743909468554606,0.039579251829730634,-8.352624147889287e-11,-0.40371042490005493,0.11111027052415702,1.8236837013711462,6.149359695704223e-17,0.5914288050293727,-1.9745067516949515,0.0,0.0,0.0,0.0,0.0,0.0,0,0,0
6.579999999999948,0.20252291382481064,-0.08509608354791814,-0.2499999999955382,0.06678096907147649,0.04068313290272983,-1.917077607771489e-11,-0.39778101444244385,0.11795719582638706,1.8187529076646087,6.183524292113425e-17,0.5959158887560987,-1.9685773412373404,0.0,0.0,0.0,0.0,0.0,0.0,0,0,0
6.599999999999947,0.20388008242825503,-0.08424332615933779,-0.24999999999556838,0.06610754394518602,0.041776451590583394,-1.5085155347094314e-12,-0.39183396100997925,0.12473870112381151,1.8138423939212232,1.2435339414815979e-16,0.6003607192870568,-1.9626302878048758,0.0,0.0,0.0,0.0,0.0,0.0,0,0,0
6.619999999999947,0.2052234109357712,-0.083368919720815,-0.24999999999545283,0.06541568325533799,0.04285913402318446,5.777323064393158e-12,-0.38586974143981934,0.13145398569950453,1.8089537955589055,6.251784056351485e-17,0.6047625604898417,-1.956666068234716,0.0,0.0,0.0,0.0,0.0,0.0,0,0,0
6.639999999999946,0.20655252407313315,-0.08247310331705814,-0.24999999999526687,0.06470504275046848,0.04392987383245262,9.298117831235686e-12,-0.3798889219760895,0.13810219505821064,1.8040887840792759,6.285854835623489e-17,0.6091206462690529,-1.950685248770986,0.0,0.0,0.0,0.0,0.0,0.0,0,0,0
6.659999999999946,0.20786712570619148,-0.08155608333638156,-0.24999999999504585,0.06397958507139603,0.044990302948256546,1.1050882431362652e-11,-0.37389177083969116,0.14468285069513287,1.799248750407427,6.319871144139281e-17,0.6134344627011606,-1.9446880976345877,0.0,0.0,0.0,0.0,0.0,0.0,0,0,0
6.6799999999999455,0.2091668640480856,-0.08061812851833974,-0.24999999999481104,0.06323652188557455,0.04603730615575975,1.174060848541103e-11,-0.36787888407707214,0.15119518695315934,1.7944352886602526,1.2707640453273902e-16,0.6177033136957291,-1.9386752108719687,0.0,0.0,0.0,0.0,0.0,0.0,0,0,0
6.699999999999945,0.21045139894396578,-0.07965945451535518,-0.2500000000000022,0.06247643821796601,0.04707353810384526,-2.5955904092711535e-10,-0.3618505895137787,0.15763829293326045,1.7896500950070706,6.387689335210237e-17,0.6219264143927316,-1.9326469163086752,0.0,0.0,0.0,0.0,0.0,0.0,0,0,0
6.719999999999945,0.21172039594708325,-0.07868030693686973,-0.25000000000000244,0.06169961834747775,0.048097500847306005,-1.1102230246251565e-14,-0.3558073043823242,0.16401129856768704,1.7848948304089096,6.421465375534495e-17,0.6261030135906824,-1.9266036311772208,0.0,0.0,0.0,0.0,0.0,0.0,0,0,0
6.739999999999944,0.2129735614719625,-0.07768096691698716,-0.2500000000000028,0.060908105566045354,0.0491074164007856,-1.6653345369377348e-14,-0.34974950551986694,0.17031363612118403,1.780170922427355,1.6137839529590874e-16,0.6302325653837393,-1.9205458323147635,0.0,0.0,0.0,0.0,0.0,0.0,0,0,0
6.759999999999944,0.21421052954992398,-0.07666165164626401,-0.250000000000003,0.060098280682339224,0.050106486173346856,-1.1102230246251565e-14,-0.34367749094963074,0.1765439727944565,1.7754803649448863,9.733028943668754e-17,0.6343140301888378,-1.9144738177445273,0.0,0.0,0.0,0.0,0.0,0.0,0,0,0
6.779999999999943,0.21543099808631996,-0.075622650901234,-0.2500000000000032,0.05927333679268017,0.0510910777978201,-1.1102230246251565e-14,-0.3375917375087738,0.18270153556581603,1.7708247259570764,6.522102196940137e-17,0.6383467432780688,-1.9083880643036704,0.0,0.0,0.0,0.0,0.0,0.0,0,0,0
6.799999999999943,0.21663465225925113,-0.0745642193370029,-0.25000000000000344,0.05843263881037215,0.05206294861239878,-1.1102230246251565e-14,-0.3314925730228424,0.18878528529345373,1.7662057660244928,1.3110740356516057e-16,0.6423298740214354,-1.902288899817739,0.0,0.0,0.0,0.0,0.0,0.0,0,0,0
