Suke0811/REMS/test_robot.csv
timestamp,x,y,z,d_x,d_y,d_z,j.0,j.1,j.2,j.3,j.4,j.5,d_j.0,d_j.1,d_j.2,d_j.3,d_j.4,d_j.5,h2_norm,h2_norm_x,h2_norm_y
0.25,0.19239774612493807,-5.639555275820385e-07,-0.29459200831160365,1.4169054773382972,-0.42061249329367795,-1.1783680332464146,-2.9311961233413564e-06,0.025703475605590328,1.5750766119705097,0.0009730368706664615,0.07596128904236606,-0.15716094957519258,0.0,0.0,0.0,0.0,0.0,0.0,0.0,0.0,0.0
0.5,0.1800793057416944,-4.75062986595276e-07,-0.30033121697927856,0.5978031801277699,-0.42049933797197675,-0.022956834670699644,-2.6380765110089966e-06,-0.04273712860475837,1.5704491193360723,0.01010929404201893,0.14552608686142193,-0.29939089788215834,0.0,0.0,0.0,0.0,0.0,0.0,5.128477199013455,5.125424812612656,0.17691486951472427
0.75,0.11862592467087199,0.0009117304725230611,-0.3171201905161862,0.4011774219898461,-0.41683567166205926,-0.06715589414763046,0.007685609393030119,-0.3709140506792356,1.5448280929284264,0.041843820293849136,0.21121551282196163,-0.4233533538864381,0.0,0.0,0.0,0.0,0.0,0.0,5.136604638553503,5.128775033757065,0.28350284993201685
1.0,0.11940497503614529,0.002658185656862969,-0.31626467279804177,0.650213781675393,-0.4135032709091071,0.0034220708725776205,0.022258257328906395,-0.369431149984267,1.5518603977032084,0.04204180891262877,0.26405392137207867,-0.5218928519440154,0.0,0.0,0.0,0.0,0.0,0.0,5.141789039850453,5.131114921840706,0.33114073924825865
1.25,0.1432437973044023,0.006201825358795247,-0.3109305344345553,0.742497258036322,-0.40631261274013836,0.021336553453945806,0.04326857220480329,-0.24598570150905114,1.5702209835154652,0.03328972428496602,0.3060402790920339,-0.5974886896555646,0.0,0.0,0.0,0.0,0.0,0.0,5.158811462884951,5.14559386478846,0.3690521484079579
1.5,0.14697467853457363,0.010297122114807336,-0.30833836813755966,0.6620333368201549,-0.4040996575874639,0.010368665187982629,0.0699462243141188,-0.2303952249724836,1.5860026869408912,0.03230848451345812,0.34127698162353837,-0.6627510585743225,0.0,0.0,0.0,0.0,0.0,0.0,5.183003345559263,5.167082676647596,0.4059313892357004
1.75,0.13740217720164646,0.013999767437124064,-0.308339982454511,0.6087974663289233,-0.40566769739780784,-6.457267805348721e-06,0.10153857602668886,-0.2868919768642157,1.601507972782313,0.03687605263354009,0.3685293012797885,-0.7143962062942087,0.0,0.0,0.0,0.0,0.0,0.0,5.197056227559414,5.177954591693685,0.44517376244829965
2.0,0.13326428278593808,0.018411846561396827,-0.30631741606792795,0.6305506532978233,-0.4028307583076903,0.008090265546332187,0.13729125023478048,-0.315167491541356,1.6243511118177796,0.03788864426560219,0.3867741954214095,-0.75149367391364,0.0,0.0,0.0,0.0,0.0,0.0,5.207125636768052,5.183715139909967,0.49320862254758585
2.25,0.13396928825918475,0.02388318557385071,-0.302760020015945,0.6499384133221758,-0.3985954832998552,0.014229584207931856,0.17642020369106928,-0.3172608467570774,1.6534501544307127,0.03618676267078272,0.39648225396384557,-0.7775259958235397,0.0,0.0,0.0,0.0,0.0,0.0,5.218723964995786,5.1900747771560685,0.5460802416767497
2.5,0.13225675372850276,0.029307180718196803,-0.2991771275577477,0.6402695254709948,-0.39878828927345683,0.014331569832789048,0.21806932554722785,-0.33205595330165155,1.685679386621121,0.03489799057289851,0.39840894098714263,-0.7951466005256274,0.0,0.0,0.0,0.0,0.0,0.0,5.23346354713014,5.1993984654256025,0.5961512365749846
2.75,0.12724349283635109,0.034047116617248886,-0.29578935271299156,0.627064847164472,-0.4015296965994806,0.013551099379024656,0.2614497816510286,-0.3647773713413182,1.7202870563025303,0.034239053510245906,0.39257821737466336,-0.8055163839361124,0.0,0.0,0.0,0.0,0.0,0.0,5.253681434102576,5.215348067800003,0.6334928118999374
3.0,0.12163534422404688,0.03829700174858334,-0.2921835687101072,0.6246893841749739,-0.4034963450652199,0.01442313601153744,0.30502520882612044,-0.40060482012742943,1.7569066816238832,0.03311873601076264,0.3794928823770335,-0.8107205623344422,0.0,0.0,0.0,0.0,0.0,0.0,5.27662059531694,5.234787864741469,0.6631145587893155
3.25,0.11629375065081347,0.042061938441971904,-0.28837563333784605,0.6257614884850221,-0.4054435351362519,0.015231741489044603,0.3470482309179804,-0.4348213818291526,1.794560684509667,0.0312778925661669,0.35941642673753404,-0.8131127148921594,0.0,0.0,0.0,0.0,0.0,0.0,5.3011750857076825,5.256624312628321,0.6858265999599965
3.5,0.11067982069145492,0.044832925793573564,-0.2846548606002901,0.6246753973606718,-0.40942778670521607,0.014883090950223776,0.3848682534263106,-0.4711982561441645,1.8315854611245646,0.02902312146176718,0.3326893640452737,-0.8157274691687527,0.0,0.0,0.0,0.0,0.0,0.0,5.325961592807121,5.279155614412062,0.7045444534436169
3.75,0.10479528497139191,0.04605805356791316,-0.2812279411659134,0.6235940919374792,-0.41562058708183486,0.013707677737506918,0.41409210189273105,-0.511156746596076,1.8662631659824445,0.02651853409382045,0.2997987149762551,-0.8232279206790318,0.0,0.0,0.0,0.0,0.0,0.0,5.349400952872992,5.300714215387197,0.72008288508378
4.0,0.09943278134276708,0.04524868850558841,-0.2781924853957315,0.6256824935958725,-0.42376858379145493,0.012141823080727532,0.42706057272037995,-0.5520881535282836,1.897156336970366,0.02376010036611948,0.2617994814945874,-0.843508567963414,0.0,0.0,0.0,0.0,0.0,0.0,5.37056899510411,5.320239187778992,0.7335300375542257
4.25,0.09563319923688178,0.0417710732136492,-0.2755501498725255,0.6319332858503243,-0.43445218837933175,0.010569342092823897,0.4118095055968863,-0.5902558210336364,1.9237970152358794,0.0207965245139838,0.22132380884770542,-0.8887366929753163,0.0,0.0,0.0,0.0,0.0,0.0,5.391304257451483,5.339518681233234,0.7454541227840875
4.5,0.09415120879886524,0.03538460345699713,-0.27313233800916686,0.6412022207548909,-0.4460979839858709,0.009671247453434617,0.359495859511313,-0.621339022060243,1.9476316479424909,0.01779848476133081,0.18351849113538665,-0.9679428485625088,0.0,0.0,0.0,0.0,0.0,0.0,5.412381269178465,5.3590580135873465,0.7578708398923569
4.75,0.09473854648533779,0.027150861899151325,-0.27076463197595757,0.6494801051410912,-0.4534952372055675,0.009470824132837175,0.2791065762945567,-0.6417108451976061,1.9705296731212119,0.015013072579886513,0.15389127973123418,-1.0723820786884162,0.0,0.0,0.0,0.0,0.0,0.0,5.434523674849223,5.379532899317567,0.7711506711769351
5.0,0.09630057493811066,0.018321284737556055,-0.26850390655737794,0.6533805116416473,-0.4558839397286959,0.009042901674318538,0.18800423060434052,-0.6524332481214323,1.9922426888109432,0.012729067574980598,0.13496695600789144,-1.1850911203345553,0.0,0.0,0.0,0.0,0.0,0.0,5.45723367174761,5.40023395682581,0.786684536266833
5.25,0.0978243123887794,0.009620941605355711,-0.2665313315119023,0.6532283289230326,-0.4553700211799453,0.00789030018190262,0.09803391857067036,-0.657192389880531,2.0111367131155875,0.011155358679781482,0.12671224595864605,-1.2946986953545427,0.0,0.0,0.0,0.0,0.0,0.0,5.476523881417142,5.416937627350458,0.8056677759021202
5.5,0.09894480839588805,0.0015109746784444838,-0.26500640314267115,0.6516158658769655,-0.4530094890008911,0.0060997134769245065,0.015269696978801067,-0.6579209059584239,2.0256478117768335,0.010302334812302635,0.1280613218888702,-1.3954821816715683,0.0,0.0,0.0,0.0,0.0,0.0,1.9660151417006968,1.7935870589950176,0.8051465700119531
5.75,0.09980009780941364,-0.005742240784231939,-0.26402450777666586,0.6505552921354956,-0.44958165864658634,0.003927581464021168,-0.057474058626824406,-0.6545435096435972,2.0347534330806383,0.0100446532721629,0.13771140808970284,-1.4848117042315199,0.0,0.0,0.0,0.0,0.0,0.0,1.9860871454592919,1.8220691007639822,0.7903204042663783
6.0,0.10063431558821173,-0.012039995688431901,-0.26363099480957014,0.652587494684385,-0.4469020975579748,0.0015740518683828864,-0.1190750614631776,-0.6467329970794802,2.0379190167290178,0.010242375939341863,0.15440400755373873,-1.561674720269637,0.0,0.0,0.0,0.0,0.0,0.0,2.011036789015248,1.852329948544923,0.7830343086329761
6.25,0.10160662820931879,-0.017368275217425365,-0.2638413174231163,0.6531387593140567,-0.4430203184745961,-0.0008412904541845734,-0.16930015228646433,-0.6347477906746313,2.034975283664994,0.010791713546564618,0.17699102198992223,-1.625928901895065,0.0,0.0,0.0,0.0,0.0,0.0,2.0094778117229652,1.8532853431795353,0.7767461055987525
6.5,0.10280903834727104,-0.021740251534780826,-0.26464910281304294,0.6540571731733859,-0.439189902408681,-0.0032311415597066073,-0.20839246519616933,-0.6191693585905023,2.0260415153700864,0.01161712730725135,0.20442789478032797,-1.6778977467234684,0.0,0.0,0.0,0.0,0.0,0.0,1.9888592835117307,1.8344258772710573,0.7684028568460072
6.75,0.10430727562221241,-0.025177794842452045,-0.2660277402289526,0.6552377946529633,-0.4354458114497573,-0.005514549663638624,-0.236850360705361,-0.6005799382193351,2.01147639673845,0.012657587721010537,0.23574557479983604,-1.7181528105235861,0.0,0.0,0.0,0.0,0.0,0.0,1.9912299251753567,1.8395631891103876,0.7622361105221109
7.0,0.106138228364242,-0.02770203756346946,-0.26793127091064467,0.656565466922429,-0.4317853004337769,-0.007614122726768313,-0.2553041574423658,-0.5795577025669483,1.9918453287943627,0.013865246307302927,0.27001558861380826,-1.7473967318579757,0.0,0.0,0.0,0.0,0.0,0.0,1.9996659802934273,1.8522201777094076,0.7536208901224829
7.25,0.1082946473407105,-0.02932478823061774,-0.270293715031739,0.6578638708952401,-0.42817130614749377,-0.009449776484377281,-0.26444526288495784,-0.5567769217838634,1.9679131107329508,0.015207350847518796,0.3063114399995879,-1.7663964090668205,0.0,0.0,0.0,0.0,0.0,0.0,2.004820164215103,1.8633983977986162,0.7396284891247914
7.5,0.11072171944429061,-0.03004613890405402,-0.27302503623474267,0.6589454427718208,-0.42455739102673007,-0.010925284812014713,-0.26498482322919065,-0.5330454139238519,1.9406652684408108,0.016663244146330334,0.343667515887659,-1.7759401871592069,0.0,0.0,0.0,0.0,0.0,0.0,2.003059864819369,1.866913944739954,0.7258657899265485
7.75,0.11332315659923876,-0.029858957796905897,-0.2760050790543726,0.6596414656502166,-0.42091473016767234,-0.011920171278519742,-0.2576296585460993,-0.5092917838114819,1.9113443782031971,0.01821672478863321,0.38104064060842746,-1.776808424602364,0.0,0.0,0.0,0.0,0.0,0.0,1.9884753357783165,1.8522392210985694,0.723356087154075
8.0,0.1159696238549829,-0.028757198725163066,-0.2790798391460412,0.6598193350109323,-0.4172479225989254,-0.012299040366674285,-0.24306887903754346,-0.48654506939240716,1.881468243918359,0.019846567354590748,0.41728894104956327,-1.7697531920933027,0.0,0.0,0.0,0.0,0.0,0.0,1.9688095170089532,1.8288630268699986,0.7290205368938069
8.25,0.11851155390457586,-0.026746397888077807,-0.2820661078687833,0.6594009105408932,-0.4136079791675307,-0.01194507489096841,-0.2219672856683531,-0.46588226276283407,1.8527774819909,0.02151716768034429,0.4511939060468104,-1.7554840406814345,0.0,0.0,0.0,0.0,0.0,0.0,1.9482661372435215,1.8015975580871826,0.7416112055680475
8.5,0.12073383496286351,-0.02448541443390333,-0.28480177099674375,0.6581178647075034,-0.41260013124754824,-0.0109426525118419,-0.20009112736552942,-0.44785556812353344,1.8267197832415387,0.02319640728312905,0.4818078940821544,-1.739818916439249,0.0,0.0,0.0,0.0,0.0,0.0,1.9307846436423077,1.7749773178238146,0.7598584482230424
8.75,0.12275991983389775,-0.021375253554210247,-0.28718838327258756,0.6573297001569491,-0.40919648368889844,-0.00954644910337521,-0.17239403096708644,-0.4325296781829726,1.8041060442695291,0.024800042287591695,0.508676264457099,-1.7176839818170717,0.0,0.0,0.0,0.0,0.0,0.0,1.9224811926149936,1.7562712827727553,0.781949561842775
9.0,0.12441625217007271,-0.017509299936685322,-0.2890826523695789,0.6558486799222061,-0.4061673159990759,-0.0075770763879654535,-0.1398134189951985,-0.42087427307848535,1.7862742519801278,0.026278557451789412,0.5308915310318316,-1.690000357676726,0.0,0.0,0.0,0.0,0.0,0.0,1.9237954244673974,1.7490507536279742,0.8011306363104012
9.25,0.1255855732457195,-0.012929967992937962,-0.29036038810050185,0.6539011111060169,-0.40330918945485555,-0.005110942923691741,-0.10259593648689111,-0.4135428948454929,1.7743537926129178,0.027562100219477602,0.547636236449979,-1.656956397930092,0.0,0.0,0.0,0.0,0.0,0.0,1.9247573976300116,1.7432492957047343,0.8159490993661324
9.5,0.12621918701941012,-0.007750975275411605,-0.2909533495074156,0.6517597051229507,-0.40090745930125293,-0.0023718456276549116,-0.06133183350840615,-0.41058079899104283,1.7689048480169178,0.02858172570152632,0.5584351271610315,-1.6190640400812748,0.0,0.0,0.0,0.0,0.0,0.0,1.9303251102911638,1.7405394189113899,0.8346721288243639
9.75,0.12627611010883755,-0.0020978507986904446,-0.2908446082397497,0.6494552736987864,-0.3990094780042315,0.00043496507066342893,-0.0166116760135836,-0.41187900816806544,1.7700393193114123,0.029295311304640963,0.5630506893105025,-1.5768598316931146,0.0,0.0,0.0,0.0,0.0,0.0,1.935317223949449,1.7379688894744243,0.8514205168625184
10.0,0.12569074171780892,0.0038921288647893277,-0.29006316606896154,0.6468891969035622,-0.3976622772380052,0.00312576868315273,0.03095602339853526,-0.4174023826064224,1.7775081175033038,0.029694407761323934,0.5614185120906431,-1.5309840133542243,0.0,0.0,0.0,0.0,0.0,0.0,1.9413953350727993,1.7384219852033416,0.8642365696984246
10.25,0.1243819004947211,0.010061782309784065,-0.2886727445038568,0.6439989363772397,-0.39694546819806914,0.005561686260418863,0.08071849953844858,-0.4272025273861326,1.7907930121309146,0.02978349610648904,0.553586817613737,-1.4822416723265834,0.0,0.0,0.0,0.0,0.0,0.0,1.958795613209239,1.754052596004095,0.8718828733144459
10.5,0.12227297006353023,0.01622669092975292,-0.2867621495351608,0.6408027276922947,-0.39696811643661384,0.007642379874784,0.13193779180986923,-0.44137937379374126,1.8091714759028272,0.02955689416100047,0.5396688590636225,-1.4316133359513692,0.0,0.0,0.0,0.0,0.0,0.0,1.9876758179296006,1.7835356142435754,0.8774143091532632
10.75,0.11926614345327573,0.022187562398557504,-0.284418906765713,0.6372150758348926,-0.3977892876895904,0.009372971077791226,0.18393140128740587,-0.46035831470930266,1.8319688958775673,0.02898394085570602,0.5195046474930372,-1.3800233001486892,0.0,0.0,0.0,0.0,0.0,0.0,2.0198375664880177,1.8161413768761234,0.8839537851011979
11.0,0.11545766796955866,0.027674881448443586,-0.28178761441776295,0.6360545409484895,-0.3962996179086925,0.01052516939180026,0.23525866649886001,-0.4835589472889983,1.8578393385653749,0.028032895948907732,0.4935585557436828,-1.3290882171780825,0.0,0.0,0.0,0.0,0.0,0.0,2.054824741937428,1.8510730267225344,0.8920949331873215
11.25,0.11095854149832501,0.03241880818019334,-0.27900650292702334,0.6332952728183545,-0.3992807557421426,0.011124445962958474,0.2842583428234461,-0.510660655031363,1.885499941641833,0.026681114219793686,0.4619767225011828,-1.2805417284098626,0.0,0.0,0.0,0.0,0.0,0.0,2.081824385613191,1.8783905558566096,0.8975754520943825
11.5,0.10597417011805288,0.03610439634248792,-0.2762312250222496,0.6313569338736993,-0.4035226319558025,0.011101111619094883,0.3283573541412297,-0.5411432959523683,1.9134412706950668,0.024930165368982397,0.42493810431383605,-1.2369476021229424,0.0,0.0,0.0,0.0,0.0,0.0,2.106201385620026,1.9032919361678753,0.9019778725146522
11.75,0.1008716366270815,0.038341067046432274,-0.27362394057863304,0.630885966783043,-0.40932760138466545,0.010429137774466302,0.36323229253615824,-0.5739974515091979,1.9399836011505565,0.0228018103557221,0.3827969993568314,-1.2025684875544003,0.0,0.0,0.0,0.0,0.0,0.0,2.12921323137914,1.9294151768470806,0.9005032259976352
12.0,0.09624781527227626,0.03858627934998114,-0.27132247913422614,0.6328011397740754,-0.4173034295600841,0.00920584577762762,0.3812867442994644,-0.6074898425819137,1.963569248399432,0.02034806208765098,0.33650661959421524,-1.184918758711338,0.0,0.0,0.0,0.0,0.0,0.0,2.152029938991305,1.9581276965325278,0.8927310806660282
12.25,0.09296680206058343,0.03612398169689535,-0.2693576710606764,0.6381709541609181,-0.4281441105490107,0.007859232294199048,0.37061306001806227,-0.6387544964275276,1.9836146819719402,0.01767214689043804,0.28860204615932594,-1.1958317231812585,0.0,0.0,0.0,0.0,0.0,0.0,2.1722382265799585,1.9845455021090819,0.8832882106503255
12.5,0.09180080102926147,0.03066847023050866,-0.26757047660783523,0.6466289318769483,-0.4401274347137224,0.007148777811364582,0.3224190584903714,-0.6634549727920924,2.001499688163447,0.014948525954373137,0.2441293588765059,-1.2440661895308058,0.0,0.0,0.0,0.0,0.0,0.0,2.191495207753145,2.0104507119055106,0.8722036348259654
12.75,0.09258091771243758,0.02321988389216753,-0.2657873331511852,0.6544132713110626,-0.4481080697251032,0.007132573826600153,0.24573745537570924,-0.6780859416788734,2.019036926297039,0.012420849437590763,0.20849943914794045,-1.3206498475042856,0.0,0.0,0.0,0.0,0.0,0.0,2.212813797427143,2.0394317090882956,0.8586403240292925
13.0,0.09426479540448349,0.015016320175993116,-0.2640572979411615,0.6580293045724357,-0.4511335262240838,0.006920140840094735,0.15797202177737782,-0.6839427986265258,2.0359166037507768,0.010382526058914415,0.18415135047116893,-1.4083777686786745,0.0,0.0,0.0,0.0,0.0,0.0,2.2332274301117296,2.0674222920140273,0.8444346162296437
13.25,0.09586350764746149,0.006818244077437015,-0.2625578143893847,0.6576891342932307,-0.45111473706835625,0.005997934207107258,0.07100493062640395,-0.6847719633954901,2.0504479234970043,0.009044612445984267,0.17098794543194273,-1.4955942541708993,0.0,0.0,0.0,0.0,0.0,0.0,2.2409508276919445,2.0806976906991146,0.8322005359602834
13.5,0.09702587405125579,-0.0008787283901957323,-0.26145146439892636,0.6559439098200812,-0.4491113944949954,0.004425399961833332,-0.009056392171038707,-0.6824124286990356,2.0610205554743732,0.008413061010070205,0.16789974451666279,-1.5762614796253265,0.0,0.0,0.0,0.0,0.0,0.0,2.2371855641716345,2.0826763866006086,0.8169812220817484
13.75,0.097920161437189,-0.007788041917027357,-0.26083804981521663,0.6548716294433174,-0.4459600084996125,0.002453658334838904,-0.0793675388616802,-0.6764981177183804,2.0665771112292424,0.008354911199118086,0.17354781923762852,-1.6474583504330504,0.0,0.0,0.0,0.0,0.0,0.0,2.2243669193611777,2.076917873691486,0.796379518752945
14.0,0.0988260450413438,-0.01380373124940249,-0.2607667202280957,0.6549175894576098,-0.4423831650368237,0.0002853183484836652,-0.13877919367454783,-0.666367317625093,2.06655328149765,0.00872503198779893,0.1866382558938917,-1.707951016448521,0.0,0.0,0.0,0.0,0.0,0.0,2.208395712442353,2.06748389219414,0.7762228921202584
14.25,0.09991014362780522,-0.01890756960916508,-0.26125788297631736,0.655629210617146,-0.438731955710783,-0.001964650992886563,-0.18703387127669754,-0.6521489327571435,2.0607465916002035,0.009421264971071912,0.20598739715586278,-1.7574302939989088,0.0,0.0,0.0,0.0,0.0,0.0,2.1958926957928977,2.060340628039106,0.7595664736466592
14.5,0.10124770263327358,-0.023104156833380345,-0.2623115969017941,0.6566409513361987,-0.4350978088948535,-0.00421485570190705,-0.22435281228737922,-0.6344754878091186,2.049240862933214,0.010374169946463462,0.23051582996693254,-1.7960774898026333,0.0,0.0,0.0,0.0,0.0,0.0,2.1778038033427385,2.0494208542041132,0.7366841712751665
14.75,0.10288682688244506,-0.026404483503986883,-0.2639075853281515,0.6578444061008547,-0.43150645456998943,-0.006383953705429546,-0.2512146730874499,-0.6140007157613425,2.032362934250619,0.01152774792069942,0.2592213124464018,-1.8243332581674148,0.0,0.0,0.0,0.0,0.0,0.0,2.1527169048671135,2.0290512066866655,0.7191253528725239
15.0,0.10485622700604211,-0.02882033022845843,-0.26600498002574074,0.6591622174702713,-0.4279612620443771,-0.008389578790356955,-0.2682320385862458,-0.5913217240812543,2.0106518885347366,0.01283622239385884,0.2911445360457692,-1.842777324160516,0.0,0.0,0.0,0.0,0.0,0.0,2.1211242648062374,1.9994824015606425,0.7079818306984188
15.25,0.10880573207453957,-0.03165824797659479,-0.2708860651031657,0.6670789503261608,-0.42964348577547934,-0.01952434030969985,-0.2831438415098334,-0.5479711954060558,1.9615181329890345,0.01574883363296434,0.35609189651087103,-1.8605308250132173,0.0,0.0,0.0,0.0,0.0,0.0,2.0877315474472167,1.9667149711005583,0.7004678698236485
15.5,0.11100594250489178,-0.032138313236218706,-0.27357966966639835,0.6600798454733792,-0.4202015155714548,-0.010774418252930573,-0.28181354399157865,-0.5262257504591958,1.9348660170651157,0.017264646630000716,0.3884665725334038,-1.8605662094847786,0.0,0.0,0.0,0.0,0.0,0.0,2.0548123830258533,1.9323434031013438,0.6987867356548081
15.75,0.11567828281220148,-0.031348519250075736,-0.2791861739095186,0.664901829908505,-0.42232318843668126,-0.022426016972481033,-0.2646412741488514,-0.48397722075490446,1.88016185659289,0.02041036962296112,0.4509394665742674,-1.8460104583692822,0.0,0.0,0.0,0.0,0.0,0.0,2.0201239935605537,1.8938168400241409,0.703106482547286
16.0,0.11798287441346145,-0.030047983673550577,-0.2819760353101147,0.6554237716974471,-0.42027182366629784,-0.011159445602384466,-0.24937933308002036,-0.4645623177656404,1.8533277419890986,0.022040154019275397,0.480177252011873,-1.8320082062955958,0.0,0.0,0.0,0.0,0.0,0.0,1.9892132588076124,1.8565806236029836,0.7141972956249255
16.25,0.12035371551200297,-0.02788143101371604,-0.28468445026962164,0.6556887275051895,-0.41680406473066894,-0.010833659838027643,-0.22764669430658235,-0.4460604032423092,1.8274039897246428,0.02366373217669702,0.5077722653892747,-1.8114689807131306,0.0,0.0,0.0,0.0,0.0,0.0,1.9648151385007917,1.8236149299602495,0.7313871175430695
16.5,0.12243294840850456,-0.025482236402602894,-0.28716568184997965,0.6545178742823383,-0.41586639371989387,-0.009924926321432048,-0.20520259513993575,-0.4298710189238719,1.8038325947610223,0.025296597197094015,0.532706679246265,-1.7901681892076213,0.0,0.0,0.0,0.0,0.0,0.0,1.9474156743302735,1.7960471569060859,0.752756546830913
16.75,0.12430401597193987,-0.022233767505248737,-0.2893257240135707,0.653681817421992,-0.41246234516514946,-0.008640168654364233,-0.17699435196405214,-0.4163486354762622,1.7834452900776536,0.026859739401052043,0.5544640490949542,-1.7629719579330263,0.0,0.0,0.0,0.0,0.0,0.0,1.939235054680207,1.7768497779535755,0.7768123736700366
17.0,0.12582204223928967,-0.018238708823574555,-0.2910147944403592,0.6522675197611237,-0.40946998397067286,-0.006756281707154033,-0.14395370789246764,-0.40630804196948733,1.7676183207493217,0.028287926284230696,0.5720809099809746,-1.7307352113727217,0.0,0.0,0.0,0.0,0.0,0.0,1.9371983089233484,1.7657823095641085,0.796712070528572
17.25,0.12688625303138143,-0.01354189131936991,-0.29210395151183105,0.6504527556559234,-0.40665834824718583,-0.004356628285887343,-0.10632219649443334,-0.40032514754396153,1.7575119705747386,0.029501069072392885,0.5846896954671091,-1.6935855065595846,0.0,0.0,0.0,0.0,0.0,0.0,1.9352353956398898,1.7571634388709128,0.8108715592699183
17.5,0.1274368306722035,-0.008254827493350903,-0.2925244856996564,0.6483996562378646,-0.4042942856663121,-0.0016821367513013552,-0.06468546751519416,-0.3985169844151415,1.7537052981077366,0.030433464509345098,0.5917698089773005,-1.6519853884983529,0.0,0.0,0.0,0.0,0.0,0.0,1.9396744425683687,1.7523643743419535,0.8315984864644995
17.75,0.12741916657193178,-0.0025015527581680884,-0.2922595965386145,0.6461290120683187,-0.40242799511626726,0.0010595566441675697,-0.0196299466196928,-0.40085315581310677,1.7563249283315299,0.031050049943197305,0.593042416407087,-1.606429218272106,0.0,0.0,0.0,0.0,0.0,0.0,1.9421520853866014,1.7460338971948959,0.8504824234620773
18.0,0.1267642491365703,0.0035807210304305104,-0.2913370037205029,0.6435830734273476,-0.4011122272311219,0.0036903712724463134,0.028239579853036982,-0.4073161913166321,1.765136795968689,0.03134725977983373,0.5884051148446727,-1.557520860263738,0.0,0.0,0.0,0.0,0.0,0.0,1.9459177177837086,1.742880421328121,0.8654268318787368
18.25,0.12539137890615273,0.00983494090813133,-0.2898187204042917,0.6407148796228519,-0.40042633872293565,0.006073133264844932,0.07827370034750014,-0.41795260840825943,1.779636920223412,0.031332832102729774,0.5778711302928452,-1.5060376534428985,0.0,0.0,0.0,0.0,0.0,0.0,1.9621442338869548,1.7564423415210766,0.8745972190030009
18.5,0.12322140173617328,0.01607673479323907,-0.2877924663361564,0.6375305821808159,-0.4004797223933542,0.008105016272541121,0.12973747253801562,-0.43287466498367566,1.799114973854557,0.03100349133096185,0.5615219630060058,-1.4529406677035306,0.0,0.0,0.0,0.0,0.0,0.0,1.9884948031821847,1.7822946419462438,0.8817808069879195
18.75,0.12015192394678643,0.022106268097419814,-0.28534517475386245,0.6339364849787384,-0.4013337986071388,0.009789166329175814,0.18195111394273764,-0.4525334523747637,1.8229070646622734,0.03032919890852013,0.5391695516152147,-1.3991373151677493,0.0,0.0,0.0,0.0,0.0,0.0,2.0182864975642145,1.8114557604721784,0.890004727011147
19.0,0.11627704361297993,0.027652234412429578,-0.2826203620369862,0.6307185940284905,-0.40327449555391076,0.010899250867504984,0.2334764078886586,-0.4763659626650547,1.8496772132213637,0.02927736129082801,0.5112537314262161,-1.3462259446807485,0.0,0.0,0.0,0.0,0.0,0.0,2.0480971480653465,1.8405988643304043,0.8982748735988509
19.25,0.11170799344965161,0.032443387829743216,-0.27975525437643506,0.6279452076910337,-0.40630133429784365,0.011460430642204589,0.2826543100742648,-0.5040592076340529,1.8781514161313841,0.027824499272818486,0.47789920346603887,-1.2959189559722482,0.0,0.0,0.0,0.0,0.0,0.0,2.0734935739098574,1.8652132525755702,0.9057345767176701
19.5,0.10665220343785006,0.03616364309401729,-0.276904575195351,0.6260008447365077,-0.4105934698845292,0.011402716724336237,0.3269137246669665,-0.535094021363077,1.906827933722022,0.02597236450528241,0.43926586076588603,-1.250757788528121,0.0,0.0,0.0,0.0,0.0,0.0,2.097630131983454,1.8891664463719542,0.9116481275729603
19.75,0.10147930570321327,0.03842121760936294,-0.2742296999055148,0.6255340501262272,-0.41645351584931645,0.010699501159344704,0.36193302600932137,-0.5684630066600938,1.9340336014437207,0.023743961685295273,0.39569079527273454,-1.2149835149151589,0.0,0.0,0.0,0.0,0.0,0.0,2.121394420722486,1.9156033472841545,0.9114702980054997
20.0,0.09678851207856784,0.03867173984138219,-0.27186773785892776,0.6274627427506998,-0.42449174537113077,0.009447848186348251,0.3801174044253112,-0.6024402667288111,1.958216412839399,0.021193277687376166,0.3481114829237387,-1.1960906186352287,0.0,0.0,0.0,0.0,0.0,0.0,2.1434674507741813,1.9428296305149115,0.9054643777209898
20.25,0.09344584452294913,0.03619697746654336,-0.2698484917388691,0.6328537755764734,-0.4354035530473471,0.008076984480234639,0.36956065413132444,-0.6341709193674978,1.9787981613111973,0.018425747822321197,0.2990484317814873,-1.2058941171363513,0.0,0.0,0.0,0.0,0.0,0.0,2.1636988710189216,1.968868154559687,0.8973020641953792
20.5,0.09222508284658193,0.030713141875097733,-0.2680113314474911,0.6413392809143571,-0.4474503436092806,0.007348641165511927,0.3214718931923074,-0.6593204684289726,1.9971643328527173,0.015617944431123111,0.2535340771249174,-1.2531352315981306,0.0,0.0,0.0,0.0,0.0,0.0,2.181488137649924,1.993224021552082,0.8865373622217398
20.75,0.09295806775104729,0.02323026689217238,-0.2661816413054251,0.6491541172373251,-0.45545486198968377,0.007318760568264082,0.24488500660745166,-0.6743677054836876,2.0151338989638985,0.013015201125383118,0.21696659158601583,-1.3288248133342435,0.0,0.0,0.0,0.0,0.0,0.0,2.202571425083653,2.021996561156182,0.8734132980826482
21.0,0.0946008005254333,0.014995434786598651,-0.2644088748875747,0.6538034645647117,-0.45524486902938244,0.0070910656714016085,0.15720481788594598,-0.6805989074322021,2.0324030728861002,0.010911737385400307,0.19177364809916353,-1.4157435903961983,0.0,0.0,0.0,0.0,0.0,0.0,2.2208792698737274,2.0480963514541624,0.8588399539582506
21.25,0.0961623098971738,0.006772765126515196,-0.26287111313007805,0.65347908458171,-0.4551993852264964,0.006151047029986589,0.0703144471241153,-0.6817635753777727,2.0472859931465184,0.009518178632289133,0.17784853936972678,-1.5022258600027965,0.0,0.0,0.0,0.0,0.0,0.0,2.2264833182070105,2.0594476312965413,0.84611076118979
21.5,0.09729122564284949,-0.0009415970787756862,-0.2617309774110063,0.6517489017903905,-0.45316722077459787,0.004560542876286933,-0.009677827323098478,-0.6797040387661997,2.058176176718093,0.008839018917256782,0.1740739249929858,-1.5822284092437697,0.0,0.0,0.0,0.0,0.0,0.0,2.2183649316626046,2.057123962268242,0.8302914993496217
21.75,0.09815562822400208,-0.007862017030417945,-0.26108791652891883,0.6506909228318173,-0.44999068621935506,0.002572243528349949,-0.07992683049853398,-0.6740620801944859,2.064019187404579,0.008739816107099792,0.17910394458886592,-1.6528263197165054,0.0,0.0,0.0,0.0,0.0,0.0,2.204430330014569,2.0506145438090195,0.8090074614038294
22.0,0.09903397730926616,-0.013883600739770444,-0.26099068762148975,0.6507463249172877,-0.44639297057770544,0.0003889156297163243,-0.13928255614771623,-0.6641881707521717,2.064253153505761,0.009074420147813268,0.19163815060819733,-1.7127803419504872,0.0,0.0,0.0,0.0,0.0,0.0,2.189525165541551,2.0421248605281113,0.7897762370145088
22.25,0.1000923178775472,-0.018989017749964334,-0.2614592949106014,0.6514650974454497,-0.44272446571982205,-0.0018744291564465332,-0.1874868975025491,-0.6502155512898504,2.05867805572763,0.009739837029330324,0.21048677356860435,-1.7617749908360547,0.0,0.0,0.0,0.0,0.0,0.0,2.1780211967907297,2.035635957341485,0.7745725161972484
22.5,0.10140635893483099,-0.023183864110552378,-0.2624933293495669,0.6524874726519299,-0.43907711653347825,-0.004136137755861968,-0.22476053589064562,-0.6327722992902878,2.0473802624512176,0.010665808312230192,0.23456482369767084,-1.799985824224984,0.0,0.0,0.0,0.0,0.0,0.0,2.158894055007585,2.023520440784099,0.7524550262148685
22.75,0.10302473208016716,-0.02648017374074999,-0.2640720338336426,0.6537069444443645,-0.4354769605863782,-0.006314817936302841,-0.25158162433038966,-0.6125067648433347,2.0306889897343714,0.01179566640837549,0.2628650201761352,-1.827848592306556,0.0,0.0,0.0,0.0,0.0,0.0,2.132999818354553,2.0018734187015834,0.7363362279533656
23.0,0.10497619128637209,-0.0288905946032513,-0.2661541219926993,0.6550405645003642,-0.43192640427610696,-0.008328352636226777,-0.26856229470489157,-0.5900139778791238,2.00914540981468,0.01308318890386085,0.294423513995724,-1.8459388042682152,0.0,0.0,0.0,0.0,0.0,0.0,2.1017260506549196,1.972775721585898,0.724850566891387
23.25,0.10725093473545354,-0.030420274147325656,-0.2686772026667777,0.6563340787836803,-0.4283956640911135,-0.01009232269631366,-0.276377586421231,-0.5659548037675566,1.983493552450766,0.014496081874543272,0.328281655540167,-1.85490520621049,0.0,0.0,0.0,0.0,0.0,0.0,2.0683112447483225,1.9397631130350605,0.7177955631382004
23.5,0.10979219746455157,-0.0310635414409347,-0.27155420488029686,0.6573996290279482,-0.42484171034353285,-0.011508008854076657,-0.27572391441183647,-0.5411227395635723,1.9546998494452354,0.016014578141386,0.363444962276647,-1.855427875295785,0.0,0.0,0.0,0.0,0.0,0.0,2.034485666001102,1.9044705753880202,0.7156282223649161
23.75,0.11250110449697047,-0.030808196424228156,-0.2746674776352878,0.6580688041008212,-0.42123869741520653,-0.012453091019963836,-0.26729484061048053,-0.516436480885266,1.9239890328684595,0.01762403087081541,0.39884449922673515,-1.8481890009157236,0.0,0.0,0.0,0.0,0.0,0.0,2.0033118562639713,1.8697407463800306,0.7192551249550083
24.0,0.11524607292265437,-0.029644235544321617,-0.2778649629727664,0.6582108334046461,-0.41759570450124806,-0.012789941349914402,-0.25176754289548653,-0.4929123083968654,1.8928625524164022,0.019304943673824727,0.4333154812449035,-1.8338522402829143,0.0,0.0,0.0,0.0,0.0,0.0,1.9738391612904045,1.834159353319594,0.7293150905293656
24.25,0.11787631328415392,-0.027574602795086507,-0.2809647689478083,0.6577516480630847,-0.41396922729319763,-0.012399223900167566,-0.2297960831405019,-0.47160792624159154,1.8630462906741332,0.021023213629492214,0.4656190790207967,-1.8130480270558198,0.0,0.0,0.0,0.0,0.0,0.0,1.9494282971423034,1.8018760548413157,0.7439847906299134
24.5,0.12017070444726857,-0.025254022959333128,-0.28380568891515406,0.6564038202038477,-0.41295828543958063,-0.011363679869383025,-0.20713704509046332,-0.45306168789972223,1.835974971531243,0.022746886412037835,0.49478959665316047,-1.791519907825392,0.0,0.0,0.0,0.0,0.0,0.0,1.931051723299466,1.774390445693497,0.7619050493922913
24.75,0.12226108632217676,-0.02208809252047338,-0.2862892895331865,0.6555844279065699,-0.40956991989337943,-0.009934402472129733,-0.17873535691952697,-0.43729639880730775,1.8124478753328155,0.024392930971920176,0.5203571036787301,-1.7641331292824374,0.0,0.0,0.0,0.0,0.0,0.0,1.923807562324085,1.7560479768921362,0.7857041680609647
25.0,0.12397491390051596,-0.018169339631742276,-0.28827244931453166,0.6540741839615047,-0.4065524709818567,-0.00793263912538067,-0.14552061235239497,-0.42525994167422465,1.7937930374289441,0.025911430740129623,0.5413999866237863,-1.731751667034699,0.0,0.0,0.0,0.0,0.0,0.0,1.9227796824792278,1.7472265148885857,0.8026712982443097
25.25,0.12519462252801794,-0.013539941794058166,-0.2896314109800588,0.6520935358248239,-0.40370494015045383,-0.005435846662108501,-0.10773241050836793,-0.4175974251801362,1.7811304598530524,0.027232507535503915,0.5570883799084976,-1.6945128445851707,0.0,0.0,0.0,0.0,0.0,0.0,1.9225007803840213,1.7404881741453637,0.8165232184312388
25.5,0.12587124385184723,-0.008313853741126124,-0.29029840163181686,0.6499170562354022,-0.4013147005694297,-0.0026679626070322815,-0.06595466012773529,-0.41434765224362713,1.7750121642172647,0.028286586861237674,0.5669360536864022,-1.6528797539183548,0.0,0.0,0.0,0.0,0.0,0.0,1.9272039752734367,1.7367348928168151,0.8353843872028623
25.75,0.12596519899913114,-0.0026169532252534678,-0.29025680331101616,0.647585294304853,-0.3994297671624031,0.00016639328320278146,-0.02077221997097982,-0.4153900408290283,1.7755432314681936,0.029030411904712138,0.570695669384326,-1.6073388700978597,0.0,0.0,0.0,0.0,0.0,0.0,1.9309976509106024,1.7326478478443903,0.8524572500615303
26.0,0.12541333641241226,0.0034135318255194705,-0.2895358519465406,0.6450663834815304,-0.39780459903294624,0.002883805457902344,0.027211533836878674,-0.42067505592926424,1.7824685165020584,0.029454919240074214,0.5682937613646585,-1.5584783791589987,0.0,0.0,0.0,0.0,0.0,0.0,1.9362779312801663,1.7312739826276338,0.8671001235377906
26.25,0.12413672111725953,0.009620978478136777,-0.28819960178960535,0.6421709739793728,-0.397098657572827,0.0053450006277409035,0.07734845893295765,-0.4302422354773263,1.7952639266236579,0.029565252290582593,0.55977001748425,-1.5070534461033678,0.0,0.0,0.0,0.0,0.0,0.0,1.953830683424988,1.746803531762482,0.875289529764337
26.5,0.12205963257571238,0.01582179826209972,-0.28633740499734656,0.6389731993520197,-0.3971288574893099,0.007448787169035187,0.1289047552649274,-0.44418690490895174,1.8132011758186903,0.029357284629066636,0.5452297166322038,-1.4540029834507966,0.0,0.0,0.0,0.0,0.0,0.0,1.9846422349915263,1.7780873196915352,0.881595306512196
26.75,0.1190836551748074,0.021817466545398845,-0.2840374881202222,0.6353815466518484,-0.3979545116733939,0.009199667508497322,0.18120166839695823,-0.4629382607696182,1.8356003017994513,0.02880176111392862,0.5245057200039257,-1.400220293424967,0.0,0.0,0.0,0.0,0.0,0.0,2.0162677389310626,1.80973704003452,0.8889248792678004
27.0,0.11530382805237303,0.027338632928455838,-0.28144516195321023,0.6321698714475522,-0.399858962133528,0.010369304668047974,0.2328019068974571,-0.4859211823523373,1.8611108161843812,0.02786752250223,0.4980561619414422,-1.3472986866679904,0.0,0.0,0.0,0.0,0.0,0.0,2.045322737185477,1.8386459618705149,0.8959498457754985
27.25,0.11083053299277851,0.032115604755906364,-0.27869914882701663,0.6293993007533003,-0.40284334038743996,0.01098405250477441,0.28204725918218343,-0.5128170067446074,1.8884461961348629,0.02653172621379288,0.46602179242079955,-1.2969529775680726,0.0,0.0,0.0,0.0,0.0,0.0,2.0708778548893445,1.8638532213608525,0.9025443252792995
27.5,0.10586885381628446,0.0358335454478173,-0.2759554482887072,0.6274483700165063,-0.40708801904154074,0.01097480215323765,0.3263673788640933,-0.5431046735507621,1.916093945643939,0.02479551996698684,0.42857678703019564,-1.2517304165537586,0.0,0.0,0.0,0.0,0.0,0.0,2.0954649910374052,1.889232161917159,0.9065182662479618
27.75,0.10078545244380825,0.03810186621547129,-0.27337651210662023,0.6269631280464381,-0.4128958300856305,0.010315744728347953,0.36144131478673547,-0.5757726664644467,1.9423716257450108,0.022680348587858397,0.3860710874963095,-1.215878578612371,0.0,0.0,0.0,0.0,0.0,0.0,2.1215363398360236,1.9194317318161158,0.9037135985157118
28.0,0.0961766333453051,0.038377916524937605,-0.2711004512111897,0.628861748211075,-0.42087493656811475,0.009104243581722127,0.37967486432498393,-0.6090843061776277,1.9657190657890993,0.020238100290870677,0.3394538091274678,-1.1968980104313764,0.0,0.0,0.0,0.0,0.0,0.0,2.143705689426354,1.947169140881514,0.8966640506218955
28.25,0.09290595525496534,0.03594529837856177,-0.2691584519916631,0.6342128623261225,-0.43172027901172894,0.007767996878106365,0.36916236804102986,-0.6401694190417941,1.9855503690744551,0.017572106300393513,0.2912560674546326,-1.2066095474395895,0.0,0.0,0.0,0.0,0.0,0.0,2.164275294647552,1.9741254767357892,0.8870829460227723
28.5,0.09174565630385047,0.0305169515805172,-0.267391942030591,0.6426522745286101,-0.4437136890237465,0.00706603984428833,0.3211134357110422,-0.6646935177545579,2.0032429067178246,0.014857213972176826,0.24652006905578305,-1.2537611981749295,0.0,0.0,0.0,0.0,0.0,0.0,2.1840428908877403,2.0007419575552157,0.8758281615222252
28.75,0.0925279555227173,0.023091069408180204,-0.2656276259446137,0.6504224982500528,-0.45171219361915105,0.0070572643439092975,0.24456239487431297,-0.6791639148261439,2.0206068602718315,0.012337622960461044,0.2106530195402,-1.3293711307755733,0.0,0.0,0.0,0.0,0.0,0.0,2.203890740277112,2.0280014783817335,0.862753961892207
29.0,0.09421205212853613,0.014905772651798798,-0.2639145249120914,0.6540306455406001,-0.45475542182922185,0.006852404130089251,0.1569144673261212,-0.6848847112154302,2.03733022123839,0.010307120098458251,0.18609076252065948,-1.4162247979309592,0.0,0.0,0.0,0.0,0.0,0.0,2.222811167053137,2.054448980359949,0.8486040722705116
29.25,0.09581020166465427,0.00672280552507047,-0.2624300977027419,0.653687329907398,-0.45474927841929813,0.00593770883739797,0.07005313162027299,-0.6856026786060341,2.051720394125609,0.008976782529171425,0.17273374142735098,-1.502656143837785,0.0,0.0,0.0,0.0,0.0,0.0,2.2302043757478973,2.067543130027933,0.8361082245016898
29.5,0.09697188570646341,-0.0009613148854873259,-0.26133706222004244,0.6519416177026636,-0.4527549695365646,0.004372141930797824,-0.009913011276556569,-0.6831532526997848,2.0621655914662043,0.008352372121449937,0.16947074346881308,-1.582616773202762,0.0,0.0,0.0,0.0,0.0,0.0,2.2236854486759308,2.066023061145784,0.8223902270010753
29.75,0.09786618403011146,-0.007859681436956237,-0.26073536325813523,0.6508721087526128,-0.44961120387190356,0.0024067958476288176,-0.08013849605664629,-0.677162319252776,2.067607288549458,0.008300702850205545,0.17496133399172586,-1.653176343485141,0.0,0.0,0.0,0.0,0.0,0.0,2.2096377446869226,2.059270151699151,0.8011899931140332
30.0,0.09877343004167037,-0.013866261100054728,-0.2606742858601208,0.6509234792660994,-0.44604170370965485,0.00024430959205767877,-0.13947305515001732,-0.6669605103846277,2.0674801735071586,0.008676511157406731,0.18791010229501637,-1.7130938416837225,0.0,0.0,0.0,0.0,0.0,0.0,2.1944963696416653,2.0495477848295196,0.7843265863598258
30.25,0.09986017638220226,-0.01896271474564773,-0.2611744107903786,0.6516402520963943,-0.44239738177997784,-0.0020004997210312236,-0.18765834660462008,-0.6526745498693327,2.0615806944432284,0.00937767910770388,0.2071319058024036,-1.7620542386034603,0.0,0.0,0.0,0.0,0.0,0.0,2.181702588897179,2.041675123038955,0.7690181261612233
30.5,0.1012011774738248,-0.023153387392986516,-0.2622359975190263,0.6526551855327113,-0.43876909664679753,-0.004246346914590804,-0.2249148400825095,-0.6349383269348381,2.04999157831344,0.010334901972711398,0.23154591341299857,-1.8002336681283766,0.0,0.0,0.0,0.0,0.0,0.0,2.162957693595109,2.030140445482527,0.7462678848096557
30.75,0.10284409125348998,-0.026448970534056003,-0.26383895805518826,0.6538600499354826,-0.4351824020631194,-0.006411842144647739,-0.2517204981030671,-0.6144070587554464,2.0330386805772074,0.011492292700752173,0.2601485640003113,-1.8280680588333553,0.0,0.0,0.0,0.0,0.0,0.0,2.1375951085136666,2.0094645575711305,0.728947899240416
31.0,0.10481738201826957,-0.028860982053796207,-0.2659425801632059,0.648460422542524,-0.4400976978051377,-0.008414488432070488,-0.2686872811003013,-0.5916782531762965,2.011260239202275,0.012804134606055971,0.2919793418458866,-1.8461327788317643,0.0,0.0,0.0,0.0,0.0,0.0,2.1034600948531494,1.977546362492157,0.7168366305049294
31.25,0.10711140254947057,-0.030393716185687595,-0.2684849369977837,0.6497437164776403,-0.43657280608429716,-0.010169427338311277,-0.2764900741770998,-0.5674121011272562,1.9853976621760718,0.014238486858984024,0.32608259352313096,-1.8550762991410736,0.0,0.0,0.0,0.0,0.0,0.0,2.070265413032814,1.9441745692642045,0.711466179537913
31.5,0.10966958303201918,-0.031040842057980994,-0.2713793400426273,0.6507998331347842,-0.4330220540829006,-0.011577612179374475,-0.2758251533921184,-0.5424006586096393,1.956414948630181,0.01577592430320489,0.3614665347972338,-1.8555784259948918,0.0,0.0,0.0,0.0,0.0,0.0,2.03564159277199,1.9070094468173586,0.7121458165099601
31.75,0.11239315489184401,-0.030789643611420246,-0.2745084548288508,0.6514600057132249,-0.42942017263906207,-0.012516459144893854,-0.26738595569273427,-0.5175610893236431,1.925534557600202,0.017402179048225875,0.3970646603967761,-1.8483211347935422,0.0,0.0,0.0,0.0,0.0,0.0,2.0028218742944954,1.8694665647305595,0.7186029665309184
32.0,0.11515062410183804,-0.02962975142341841,-0.27772046998857286,0.6515933927800195,-0.4257768424135425,-0.012848060638888326,-0.2518495464695149,-0.4939076242916036,1.8942558448077154,0.019098155005809997,0.4317143703469214,-1.8339679332359353,0.0,0.0,0.0,0.0,0.0,0.0,1.9736628760759252,1.833080815873655,0.731546219234484
32.25,0.11779134680938108,-0.027563895995665035,-0.28083366626817,0.6511261356484557,-0.4221491915948305,-0.012452785118388654,-0.22986988635712743,-0.4724951415717953,1.8643027891946093,0.020830147982744376,0.4641787984270237,-1.813149177062184,0.0,0.0,0.0,0.0,0.0,0.0,1.9484035572238922,1.7984560183228049,0.7495547824950476
32.5,0.12009427317762515,-0.025246290251567244,-0.28368696771762014,0.6497705435371489,-0.4211349990838821,-0.011413205797800474,-0.20720346798542633,-0.4538596341649659,1.8371084028932188,0.022566459918140696,0.4934940199146792,-1.7916082217553437,0.0,0.0,0.0,0.0,0.0,0.0,1.9291487700937038,1.7685903126171825,0.7705214359579537
32.75,0.12219176083748369,-0.022083111147585783,-0.28618196679830465,0.6489454536180573,-0.4177457119572955,-0.00997999632273805,-0.17879513752499365,-0.4380185916511141,1.8134704771746335,0.02422445058454868,0.5191916895813006,-1.764210514336504,0.0,0.0,0.0,0.0,0.0,0.0,1.9190299662641161,1.746228642220929,0.7958401475842408
33.0,0.12391163839611868,-0.01816687619953855,-0.2881755623322696,0.6474310098330314,-0.41472729606352005,-0.00797438213585977,-0.14557441489731499,-0.4259165575749546,1.794715754981694,0.025754339365933996,0.540351625780539,-1.731820099067163,0.0,0.0,0.0,0.0,0.0,0.0,1.9172574387689387,1.7346082691237237,0.8167069481781271
33.25,0.1251365093416951,-0.013539787089677062,-0.2895440467356955,0.6454468345940273,-0.4118788957941696,-0.005473937613703628,-0.10778083279879595,-0.41819672312084344,1.7819630397303656,0.027086414208725405,0.5561452512230982,-1.6945744595367107,0.0,0.0,0.0,0.0,0.0,0.0,1.9159284539886123,1.7250117275839294,0.833736397490899
33.5,0.12581751397978627,-0.00831581193019295,-0.29021971489963017,0.643267261447001,-0.4094878426253596,-0.002702672655738647,-0.06599824018912051,-0.41489664619728006,1.7757633021284256,0.028151177562444372,0.5660875040467429,-1.6529367666177186,0.0,0.0,0.0,0.0,0.0,0.0,1.9191181864774756,1.7185131727953327,0.8542406502839318
33.75,0.12591526411236595,-0.0026208566086318684,-0.29018600399824634,0.6409303371360493,-0.4076020099625982,0.00013484360553528418,-0.020811442026226527,-0.4158944046919566,1.7762207538769255,0.028905306933858083,0.5699321154079843,-1.6073933184996754,0.0,0.0,0.0,0.0,0.0,0.0,1.922200032357187,1.7125959579024572,0.8728505309445231
34.0,0.12536682281080788,0.0034078371023203145,-0.2894721968059025,0.6383474840050404,-0.406267214072274,0.002855228769375273,0.02717623398715663,-0.4211392543778303,1.7830795109123325,0.029339607349388345,0.5676066047652781,-1.5585317693705225,0.0,0.0,0.0,0.0,0.0,0.0,1.9265303493221697,1.70942890203966,0.8884661027472478
34.25,0.12409343152150222,0.009613657298161968,-0.2881423974299398,0.6354512747651878,-0.40556063093701944,0.005319197503850903,0.07731668906820782,-0.4306698404475686,1.7958148090073383,0.029459138205222144,0.5591515616683475,-1.5071064871614248,0.0,0.0,0.0,0.0,0.0,0.0,1.9414976899092264,1.7214377436754043,0.8978114359778425
34.5,0.1220195072756548,0.01581304958280907,-0.2862860108133563,0.6322532449589847,-0.40559006174214796,0.0074255464663339765,0.12887616238665256,-0.4445807909781847,1.813697736303857,0.02925978162174044,0.5446730759555843,-1.4540555878432713,0.0,0.0,0.0,0.0,0.0,0.0,1.969363610248827,1.7491144059921866,0.9049816706005122
34.75,0.11904673324597013,0.021807535716776186,-0.2839913143918746,0.6286617295151723,-0.406414765601418,0.009178785685926893,0.18117593480651087,-0.4633007602547017,1.83604775386613,0.028712364089312433,0.5240047237596566,-1.4002718466046686,0.0,0.0,0.0,0.0,0.0,0.0,1.9991697355009457,1.77863830221324,0.9127570439295032
35.0,0.11527016203858403,0.027327830939543246,-0.2814036831845235,0.6254502422446184,-0.4083180079595127,0.01035052482940424,0.2327787466660545,-0.48625431518243567,1.8615138577579244,0.027785817642826203,0.497605265654508,-1.3473483552204948,0.0,0.0,0.0,0.0,0.0,0.0,2.028047799249021,1.8068820234126215,0.9209534350373583
35.25,0.1108001525613385,0.03210429789845472,-0.27866189033320554,0.6226797659416918,-0.41130095983161374,0.010967171405271925,0.2820264149739211,-0.5131225602080625,1.8888090861456488,0.026457351124838383,0.4656160013749491,-1.2969999717827914,0.0,0.0,0.0,0.0,0.0,0.0,2.0533121599251247,1.8314268260636304,0.9284215674309155
35.5,0.10584171268373743,0.035822145933369826,-0.2759219790872627,0.6207286248688249,-0.4155440295195151,0.010959644983771444,0.3263486190766572,-0.5433843368093958,1.9164205653389759,0.024728118950599412,0.4282115959467181,-1.251774117710928,0.0,0.0,0.0,0.0,0.0,0.0,2.0763263952047653,1.8539762020759778,0.9348280812855104
35.75,0.10076139843132333,0.03809082824717268,-0.2733464392200497,0.6202427491014613,-0.42135006304437334,0.010302159468851935,0.361424430978043,-0.5760279998137852,1.9426655284419299,0.02261954025525771,0.3857424315335827,-1.215918570473322,0.0,0.0,0.0,0.0,0.0,0.0,2.100283381483188,1.8806539343502253,0.9350567157918668
36.0,0.09615540897149051,0.038367753474496086,-0.27107341726092266,0.6258056036902047,-0.4223065778772744,0.009092087836508167,0.3796596688971607,-0.6093165186793466,1.9659835157371368,0.020183456883125374,0.3391580223021169,-1.1969340685352685,0.0,0.0,0.0,0.0,0.0,0.0,2.12392923649034,1.909896952724806,0.9291765341370489
36.25,0.0928872149493019,0.03593658729501109,-0.2691341482449904,0.6311553075542251,-0.4331496598417461,0.007757076063729107,0.36914869215598894,-0.6403791993303132,1.9857883592617538,0.017523150189753166,0.2909898468634533,-1.206641632340738,0.0,0.0,0.0,0.0,0.0,0.0,2.143418397438603,1.9362832928765754,0.9192657049000115
36.5,0.09172899989201866,0.03051015729400325,-0.2673701317396895,0.6395930972164601,-0.4451412485816523,0.007056066021203566,0.3211011274145054,-0.6648815542458661,2.003457145087256,0.014813428665378901,0.24628044544386718,-1.2537894877779048,0.0,0.0,0.0,0.0,0.0,0.0,2.1618796543309844,1.9623464659090792,0.9071493744386337
36.75,0.09251299743467893,0.023086247870365867,-0.2656081191313069,0.6473617605416536,-0.45313955680692963,0.007048050433530406,0.24455131740742986,-0.6793318750159061,2.020799746653223,0.012298472569908146,0.21043733098394557,-1.329396036800599,0.0,0.0,0.0,0.0,0.0,0.0,2.1811238640129087,1.9898104797426104,0.8932835859194346
37.0,0.09419852098625828,0.014902669180500653,-0.26389711809111793,0.6509688094107167,-0.4561838206176255,0.006844004160755812,0.15690449760592637,-0.6850348706088376,2.0375038671174845,0.010272071638582743,0.18589662426514808,-1.4162468776531214,0.0,0.0,0.0,0.0,0.0,0.0,2.199336781705488,2.0160741976171743,0.8789352132352657
37.25,0.09579793935977801,0.006721081301890052,-0.2624145670572213,0.6506248561761472,-0.4561790382581491,0.0059302041355864255,0.07004415887209764,-0.6857372206775569,2.0518766736692093,0.008945335745669282,0.17255901181692934,-1.5026759308658104,0.0,0.0,0.0,0.0,0.0,0.0,2.2062502134533126,2.029560057669161,0.8651161636894421
37.5,0.09696076192220585,-0.0009619876927378641,-0.2613231880492532,0.6488786257657231,-0.4541860341983523,0.004365516031872518,-0.009921086749914376,-0.6832741363470578,2.062306190506521,0.008324088043374374,0.16931349063202727,-1.5826346194736531,0.0,0.0,0.0,0.0,0.0,0.0,2.2023048546617194,2.0317337594843705,0.8498262195520218
37.75,0.09785609989739685,-0.007859587373754749,-0.2607229436527381,0.6478092213060995,-0.45104342325100033,0.0024009775860602822,-0.0801457639826683,-0.677270969989406,2.0677337472049606,0.008275202206946199,0.17481981262254287,-1.6531924147855506,0.0,0.0,0.0,0.0,0.0,0.0,2.1884996002735058,2.0256999142853984,0.8282936421713151
38.0,0.09876434971837278,-0.013865645126426785,-0.2606631377283902,0.6478649975402434,-0.4474752033719511,0.00023922369739159954,-0.13947959628343712,-0.6670576756844053,2.0675939097464013,0.00865345920214703,0.18778274008008733,-1.713108242017577,0.0,0.0,0.0,0.0,0.0,0.0,2.171650197753823,2.015851162354185,0.8077181888749926
38.25,0.09985208219925573,-0.018961786748329757,-0.2611643713824182,0.6485866211889276,-0.44383203771478985,-0.002004934616111953,-0.1876642336246979,-0.65276074760045,2.0616830017126553,0.009356783111893203,0.20701728900858507,-1.7620670846138644,0.0,0.0,0.0,0.0,0.0,0.0,2.15781057186042,2.0083794433417705,0.789023748435237
38.5,0.1011940198703461,-0.023152314058167804,-0.26222692750785287,0.6496064234544203,-0.44020473760393725,-0.00425022450173862,-0.22492013840057953,-0.6350142697519627,2.050083621949648,0.010315912640403192,0.23144277069451347,-1.8002450930017213,0.0,0.0,0.0,0.0,0.0,0.0,2.1400041270449712,1.9984210159856666,0.7654613684806864
38.75,0.10283778715036496,-0.026447872088388523,-0.26383074157395436,0.6508159078622417,-0.4366188268118757,-0.006415256264405977,-0.2517252665893302,-0.6144736963750719,2.0331215074044584,0.011474997417039313,0.2600557512984363,-1.8280781990829449,0.0,0.0,0.0,0.0,0.0,0.0,2.116145993705046,1.9799174976034828,0.7469943569783374
39.0,0.10481183783771783,-0.0288599394070027,-0.26593512154018595,0.6521383454316265,-0.433077832930299,-0.008417519864926337,-0.2686915727379381,-0.5917366239656301,2.011334792329955,0.012788347109804206,0.2918958290955769,-1.8461417636317723,0.0,0.0,0.0,0.0,0.0,0.0,2.0857798454756313,1.9521029501161242,0.7346915243422053
39.25,0.10710652967357305,-0.030392780475119834,-0.2684781569138879,0.6534213201276857,-0.4295531196994485,-0.010172141494807718,-0.2764939366509729,-0.5674632220217368,1.985464792070556,0.014224040985516474,0.3260074530512569,-1.8550842458049412,0.0,0.0,0.0,0.0,0.0,0.0,2.0533907844193124,1.9205722092979904,0.7265095335991094
39.5,0.10966529947326845,-0.03104004140297171,-0.27137317262832483,0.6544771409051797,-0.42600245908063994,-0.01158006285774782,-0.27582862961860416,-0.5424454965887493,1.956475419937228,0.01576267267865432,0.3613989310823058,-1.8555854401636112,0.0,0.0,0.0,0.0,0.0,0.0,2.019844210577042,1.8860575513318019,0.722881420473567
39.75,0.11238938231460764,-0.030788988139480878,-0.27450284532825525,0.6551370278439979,-0.4224006028155255,-0.012518690799721677,-0.2673890842965715,-0.5176005574295692,1.9255890548586956,0.0173899936286589,0.3970038408533423,-1.8483273125181963,0.0,0.0,0.0,0.0,0.0,0.0,1.9878319054953921,1.850847194793276,0.7251484992960429
40.0,0.11514728718975334,-0.0296292384850058,-0.2777153723029968,0.655270135929669,-0.4187572530101645,-0.012850107898966234,-0.2518523622129684,-0.49394256364645206,1.8943049787678399,0.019086927233264675,0.43165965694764763,-1.8339733633987685,0.0,0.0,0.0,0.0,0.0,0.0,1.9589210000328696,1.8163726686811432,0.7335951286901518
40.25,0.12000955697273127,-0.025590481425689433,-0.28366676663515095,0.6636936626544554,-0.40723546175833875,-0.023805577328616545,-0.21009047300817604,-0.4539867958264987,1.8372998465275925,0.022565309592751735,0.4933336562134025,-1.794510321271666,0.0,0.0,0.0,0.0,0.0,0.0,1.9343405221385324,1.7843292226861822,0.7468885329520693
40.5,0.12208021266706232,-0.02340275069641497,-0.2862469363138416,0.6525158750879272,-0.4146344753903871,-0.010320678714762721,-0.18940199597137006,-0.43703511210023405,1.8127575716582827,0.024261610018732574,0.5197170892241052,-1.774887234410886,0.0,0.0,0.0,0.0,0.0,0.0,1.9178020648848937,1.7597128541912603,0.7624797904671375
40.75,0.12399785658624199,-0.020363770529530582,-0.28848694043822604,0.6519006010739197,-0.4112224904693438,-0.008960016497537637,-0.16277381271234304,-0.42247539687144076,1.7915148114086124,0.02586361159561655,0.5427789203420839,-1.7491813299912495,0.0,0.0,0.0,0.0,0.0,0.0,1.9105330744371436,1.7406713089004469,0.7875277918201042
41.0,0.1255218815098649,-0.016557900666456918,-0.2902532506293464,0.6455839559969739,-0.41474442043024334,-0.007065240764481562,-0.13115522256592943,-0.4116829396724795,1.774906578036252,0.02734634318464106,0.5615695912441627,-1.7182837816760814,0.0,0.0,0.0,0.0,0.0,0.0,1.9098262709985858,1.7312456466119586,0.8063652376457615
41.25,0.1265566467967621,-0.012034095246728625,-0.29141747834394,0.6436227908151889,-0.4118676861210524,-0.004656910858374275,-0.09480355970054895,-0.4052011820938217,1.7640845597677488,0.028630286211511688,0.5752342957669218,-1.682339412164458,0.0,0.0,0.0,0.0,0.0,0.0,1.908405652018629,1.722563542672779,0.8214541826001333
41.5,0.1270809827928686,-0.006909670113481098,-0.2919058685809921,0.6415770309837523,-0.4094617003766607,-0.0019535609482084215,-0.05431869440069822,-0.40293479042390135,1.7596307350588185,0.029635689399380924,0.583264042801159,-1.6418213136014181,0.0,0.0,0.0,0.0,0.0,0.0,1.912656789979799,1.7174452937850961,0.8418061885679232
41.75,0.12705016772880792,-0.001308644050839149,-0.291700976764522,0.6393525789491212,-0.40755338425594084,0.0008195672658803943,-0.010299850816646472,-0.40480384070052344,1.7616673979609796,0.03032293012677098,0.5853903233523595,-1.5972432154910505,0.0,0.0,0.0,0.0,0.0,0.0,1.916221410507743,1.7123806210516503,0.8600331986237794
42.0,0.1263842132755923,0.004632368996352881,-0.2908330257950416,0.636812327953008,-0.406193468053589,0.0034718038779215643,0.03663666607577867,-0.41085578002307654,1.7699516318556776,0.030689678387001776,0.5815201843495785,-1.5492331220287474,0.0,0.0,0.0,0.0,0.0,0.0,1.9206262238160525,1.7097745057811522,0.8749149850075295
42.25,0.12499628131458462,0.010754989119756288,-0.28936553685381,0.6339280255789239,-0.40546896136757504,0.005869955764926438,0.08583107794796765,-0.42117432621504447,1.7839733243157052,0.030741619541903756,0.5716757976258634,-1.4985839294905188,0.0,0.0,0.0,0.0,0.0,0.0,1.9362095628049905,1.7227414145125879,0.883781358606675
42.5,0.12281167506872606,0.01687358534473944,-0.2873859965662989,0.6307454419518621,-0.40548877848086157,0.007918161150044511,0.1365391123784364,-0.43584933812097115,1.8030191049840052,0.03047107680528039,0.5559469807713704,-1.4462585365579619,0.0,0.0,0.0,0.0,0.0,0.0,1.9618008144489483,1.7479504052444244,0.890691762832917
42.75,0.11973503268212449,0.022788196104808662,-0.2849807526760617,0.6271811931196024,-0.40630980469377254,0.009620975560948652,0.18807258979911634,-0.45529248331662653,1.8264220965158804,0.029846330472478998,0.5341530110733784,-1.3931591742334457,0.0,0.0,0.0,0.0,0.0,0.0,1.9920452223610141,1.7777705396950876,0.8987636375174397
43.0,0.11586364516179395,0.02822924615499801,-0.2822934646086908,0.6240059294468172,-0.4082105324932614,0.010749152269483586,0.23898573615939941,-0.47892046497347995,1.8528421552370016,0.028836692014202726,0.5067400074488988,-1.3408800153865337,0.0,0.0,0.0,0.0,0.0,0.0,2.022821943615122,1.807622307767172,0.9079153088440265
43.25,0.11130848846082819,0.03292669257134219,-0.27946183910160627,0.6212741452794297,-0.4111925928924825,0.011326502028338181,0.2876127055179315,-0.5064159115446569,1.8810009013883702,0.02742176300570884,0.47383804739574287,-1.2911344967339728,0.0,0.0,0.0,0.0,0.0,0.0,2.048993194484214,1.8326506220886782,0.9163868224721495
43.5,0.10627537866015524,0.03656546217500477,-0.2766411034020859,0.6193649304274427,-0.41543590167743943,0.011282942798081397,0.33137628056626656,-0.5372615604999218,1.909392834810929,0.025605462755605317,0.43561177486359126,-1.2464692820695513,0.0,0.0,0.0,0.0,0.0,0.0,2.071702502572943,1.854961618106476,0.9225338229673747
43.75,0.10113234698624632,0.03875496693418839,-0.2739930162188585,0.6189268850131628,-0.42124233937666383,0.010592348732909596,0.3659493263186914,-0.5704508134386577,1.9363418293804056,0.02341164259149585,0.39240259621610574,-1.2111326371131497,0.0,0.0,0.0,0.0,0.0,0.0,2.0943304504672615,1.8802204691935236,0.9224917468357574
44.0,0.09647746967844245,0.038952455803794125,-0.27165499859352804,0.6208797941549309,-0.42922047217116827,0.009352070501321919,0.38373207470374426,-0.6042558866586643,1.9602934891641908,0.020894216482022054,0.345151982443749,-1.1926265498245971,0.0,0.0,0.0,0.0,0.0,0.0,2.114390221263998,1.905729511652999,0.9158826541602585
44.25,0.09317597290360313,0.03644148406722002,-0.26965725072888524,0.6262918737537653,-0.44006502339010534,0.007990991458571184,0.37281385738191414,-0.6358185293901457,1.9806674667746929,0.01815812966137631,0.2963841988286753,-1.202773204762482,0.0,0.0,0.0,0.0,0.0,0.0,2.1334603078743473,1.9309805278529628,0.9071753338401554
44.5,0.09199939006001472,0.030937510878533147,-0.26783972084104557,0.6347894413916692,-0.4520475587827161,0.0072701195513587,0.3243997761178381,-0.6608043100800096,1.9988470529441613,0.015379351913255554,0.25113525725102903,-1.2503207270650503,0.0,0.0,0.0,0.0,0.0,0.0,2.1513507411036046,1.955264890070955,0.8973567968778331
44.75,0.09277459384939292,0.023444325466399504,-0.26602818009072865,0.6425964412541987,-0.46001279858086963,0.00724616300126768,0.24752010124042928,-0.6756995783647854,2.0166488518931915,0.012802696723077475,0.2148066921578622,-1.326286375059964,0.0,0.0,0.0,0.0,0.0,0.0,2.170570167993678,1.9815953326400155,0.8858074236782003
45.0,0.09445434620379868,0.015201941677177103,-0.2642719853691125,0.6462156128291517,-0.4630151804679824,0.007024778886464578,0.15957640305562584,-0.681795959205741,2.033766828125839,0.010722115868091561,0.18982914894141234,-1.4134557803787304,0.0,0.0,0.0,0.0,0.0,0.0,2.1890602669359085,2.0071258810707087,0.8737451286351432
45.25,0.09604721340675343,0.006970712760919895,-0.262749040311669,0.6458685610673955,-0.4629737433937019,0.006091780229773969,0.07244887377682718,-0.6828412001334578,2.0485132992855535,0.009348307992009433,0.17609832675676018,-1.5001659246865535,0.0,0.0,0.0,0.0,0.0,0.0,2.195912260857631,2.0191722366446805,0.8631188424244904
45.5,0.0972018703184105,-0.0007539948023287195,-0.26162197824336525,0.644115886430876,-0.4609487345087353,0.004508248273215054,-0.0077568433356578065,-0.6806750469778062,2.0592803362767187,0.008686159681233388,0.17249882101816216,-1.5803747096180145,0.0,0.0,0.0,0.0,0.0,0.0,2.1910525479648544,2.018636324531776,0.8519499147391955
45.75,0.0980867011138345,-0.007685850957907178,-0.26099039735839435,0.643036633554549,-0.45777657000378497,0.0025263235398835793,-0.07819794490983738,-0.674937084509512,2.065012304337447,0.008601695431865328,0.1776864927204891,-1.6511581235748736,0.0,0.0,0.0,0.0,0.0,0.0,2.175166167432039,2.010534550973583,0.8301196752772694
46.0,0.09898132158212837,-0.013719211500492833,-0.26090320788142685,0.6387724990253727,-0.45802026231426096,0.00034875790787003424,-0.1377265591178893,-0.6649728415068628,2.0651463380464063,0.008949121882849673,0.19036255220597753,-1.7112786348911777,0.0,0.0,0.0,0.0,0.0,0.0,2.1564199571737745,1.9981893637553592,0.8107936224911342
46.25,0.10005282426820998,-0.01883640702653531,-0.2613805636359879,0.6394837213048812,-0.4543521032389717,-0.0019094230182441496,-0.18608650017570486,-0.6509128705461948,2.059481453827681,0.009625736998592996,0.20933880417191797,-1.7604230011232753,0.0,0.0,0.0,0.0,0.0,0.0,2.1430777015941365,1.9900242669214032,0.7953524075112484
46.5,0.10137730261718902,-0.023042809711442586,-0.26242223833539846,0.6404986160064746,-0.45070408318957395,-0.00416669879764231,-0.22350017829648583,-0.6333870499267518,2.0481030139284515,0.01056157390263325,0.2335316939626042,-1.7987687594466941,0.0,0.0,0.0,0.0,0.0,0.0,2.124255512309303,1.9781409563564871,0.7742220859427251
46.75,0.10300358995342401,-0.026350217909701115,-0.26400766502983225,0.6417080380597215,-0.4471020578046384,-0.0063417067777351566,-0.25044730249564584,-0.6130462761224573,2.031339298822413,0.011700198596701086,0.26193523194001256,-1.826753228357489,0.0,0.0,0.0,0.0,0.0,0.0,2.0998828146717146,1.957776969637943,0.759353127674388
47.0,0.10496079225965937,-0.02877111966291285,-0.266095717899304,0.6430330302176004,-0.443548979455334,-0.008352211477886895,-0.26754140505362217,-0.5904865077093266,2.009730677843862,0.012995525631264146,0.2935867293033998,-1.8449531876298382,0.0,0.0,0.0,0.0,0.0,0.0,2.0692243270488255,1.928493647750752,0.7500677077675473
47.25,0.1072395366051424,-0.03031061032476835,-0.2686241319463203,0.6443196437820731,-0.4400154979115869,-0.010113656188065256,-0.2754587857350886,-0.5663683569319493,1.98402047072207,0.01441534664958552,0.32752857929956214,-1.8540184769470038,0.0,0.0,0.0,0.0,0.0,0.0,2.0375811898945155,1.8965673148931126,0.7448285208630769
47.5,0.10978341556336554,-0.03096303044379279,-0.27150594030651387,0.6453797323572448,-0.4364588400248655,-0.011527233440774332,-0.2748969937943083,-0.5414848755742077,1.9551744436695848,0.015939984174543988,0.36276723696496593,-1.8546301636516624,0.0,0.0,0.0,0.0,0.0,0.0,2.0042403850357444,1.860997117389652,0.7440895443934388
47.75,0.11249381041401807,-0.030716217698994228,-0.2746235802643109,0.6460444766134406,-0.4328532677608816,-0.012470559831188055,-0.2665506120547052,-0.516754388345807,1.9244166977633614,0.017554902020691182,0.39823460960352275,-1.8474713469707642,0.0,0.0,0.0,0.0,0.0,0.0,1.9716529533424092,1.8235113161667171,0.7498145425608735
48.0,0.11523934327876009,-0.0295602235618025,-0.27782506384606837,0.6461810228298199,-0.4292089690653978,-0.012805934327029922,-0.2510977371952888,-0.49319267333830763,1.8932480972264683,0.019240726571119846,0.43276666765707894,-1.8332065119442145,0.0,0.0,0.0,0.0,0.0,0.0,1.9417288141835993,1.7867676960683674,0.7601131416554939
48.25,0.11786942314980234,-0.027498058621470405,-0.28092854816218055,0.645716669596259,-0.4255817386342214,-0.012413937264448727,-0.22919325801032392,-0.47185666014623995,1.8633939916927627,0.02096348033617759,0.4651252586239438,-1.8124668359582823,0.0,0.0,0.0,0.0,0.0,0.0,1.9172484097692728,1.7527410757649897,0.7770071982221219
48.5,0.12016341713726444,-0.02518442631288448,-0.28377286720983624,0.6443661539836116,-0.4245696416044311,-0.011377276190622787,-0.20659450247330316,-0.453284167410118,1.8362886205265372,0.02269130344309787,0.4943452946751028,-1.790996532387321,0.0,0.0,0.0,0.0,0.0,0.0,1.8994675582610494,1.7239564762790431,0.7974654053824138
48.75,0.12225304310470443,-0.022025001710983004,-0.2862595890548156,0.643542998082476,-0.4211807664152246,-0.009946887379917335,-0.17824706856408282,-0.43749621598282684,1.8127308561270297,0.024341280192308853,0.5199573816608989,-1.7636614988718606,0.0,0.0,0.0,0.0,0.0,0.0,1.8915416656201745,1.7040381953741515,0.8210869025158962
49.0,0.12396595421964134,-0.018112381968859906,-0.2882456023627383,0.6420307257367613,-0.4181625633565386,-0.007944053231690784,-0.14508115283249523,-0.4254398696288322,1.7940483607675766,0.02586356744150552,0.5410403934205812,-1.731326265976491,0.0,0.0,0.0,0.0,0.0,0.0,1.8909022706038434,1.6937228830667035,0.8407224228905662
49.25,0.12518471327678635,-0.013488780856072254,-0.28960716231368566,0.6400494219091868,-0.4153139499547147,-0.005446239803789554,-0.10733689694045817,-0.4177595629306621,1.7813608001815104,0.027188359979485006,0.556764898788851,-1.6941287175340705,0.0,0.0,0.0,0.0,0.0,0.0,1.889890461844506,1.6850398955529686,0.8557607774171945
49.5,0.1258604483986399,-0.008268144734832375,-0.29027651616748334,0.6378735860101837,-0.4129220940790448,-0.0026774154151907315,-0.06559869791661652,-0.4144937300690592,1.7752198995601318,0.028246129695364473,0.5666450563734402,-1.652532569409712,0.0,0.0,0.0,0.0,0.0,0.0,1.8947745444768667,1.6804714205873978,0.8753207292110082
49.75,0.12595362251637926,-0.0025763443157636344,-0.2902370693101833,0.6355406938307384,-0.4110348288022577,0.00015778742920025124,-0.020451853980972934,-0.41552170127015065,1.775730493590373,0.028993607107184686,0.5704338781472668,-1.6070250314964836,0.0,0.0,0.0,0.0,0.0,0.0,1.8987744147642591,1.6755382705179847,0.8932613179764117
50.0,0.12540105869342205,0.0034493815294868854,-0.28951808420343356,0.6329562550021086,-0.40969769380507703,0.002875940426998902,0.027499863227884856,-0.42079420462279393,1.7826372359202967,0.029421648400098633,0.5680582213900129,-1.5581950609202415,0.0,0.0,0.0,0.0,0.0,0.0,1.9032504948934292,1.6726362467363713,0.9081026552189719
50.25,0.12412378317114445,0.009652379555979081,-0.2881836383126758,0.6300571133221853,-0.40898837482890066,0.005337783563031051,0.07760795538486322,-0.43035109514179193,1.7954158693592983,0.02953527375944497,0.5595580769565749,-1.5067983871649646,0.0,0.0,0.0,0.0,0.0,0.0,1.918907317186342,1.6856038873731662,0.9170304394204996
50.5,0.12204612574998867,0.015849030743580926,-0.2863230918398366,0.6268563656197805,-0.40901492876672496,0.007442185891356701,0.1291383020716424,-0.44428748883697633,1.8133379711416564,0.02933024973825026,0.5450390050681929,-1.4537740784428383,0.0,0.0,0.0,0.0,0.0,0.0,1.943731894390768,1.7101213011017762,0.9238932908025101
50.75,0.11906981691349665,0.02184079983813547,-0.2840246656444913,0.6232652900619637,-0.4098395703701306,0.009193704781381262,0.18141186052300173,-0.4630317611259698,1.8357234505392472,0.02877729425368485,0.5243341169257291,-1.400015306452591,0.0,0.0,0.0,0.0,0.0,0.0,1.976426172788959,1.7427222604815946,0.9322979884710324
51.0,0.11529001363316439,0.027358394373831856,-0.28143367313486767,0.6233298988471613,-0.4056392967142104,0.010363970038494541,0.23299107981089626,-0.48600805367865796,1.8612216799198567,0.027845305290741047,0.497901762020584,-1.3471152370987676,0.0,0.0,0.0,0.0,0.0,0.0,2.0098156817153288,1.7754178290018288,0.9419398106733169
51.25,0.1108171192981574,0.032132170329822574,-0.27868884850848186,0.6205607819878105,-0.40862226791184686,0.010979298505543245,0.2822175148042787,-0.512897379688317,1.8885459940867981,0.026511534524871413,0.4658828748880438,-1.2967887028188037,0.0,0.0,0.0,0.0,0.0,0.0,2.034864854700806,1.800585903467267,0.9479268859629926
51.5,0.10585616340358515,0.03584732964040561,-0.27594620860438623,0.6186110877533536,-0.4128653860487039,0.010970559616382491,0.326520608923979,-0.5431787351054362,1.9161837662598218,0.024777206872933517,0.4284517944298095,-1.2515831161045463,0.0,0.0,0.0,0.0,0.0,0.0,2.0576028816640415,1.8243441589565037,0.9515765908813936
51.75,0.10077374091201208,0.038113323152575276,-0.27336821998980215,0.618126816886156,-0.4186714745432317,0.010311954458336325,0.3615792218406326,-0.5758407022812415,1.9424524500839169,0.02266380521874463,0.38595861076011106,-1.2157462847738285,0.0,0.0,0.0,0.0,0.0,0.0,2.080781361894476,1.8518150418123944,0.9489110216057096
52.0,0.09616611191973207,0.03838755510171103,-0.2710930049316204,0.6200262359637321,-0.4266486317458769,0.009100860232726937,0.3797989806734914,-0.6091465709538091,1.9657917891766583,0.020223222287767614,0.3393525764311295,-1.1967790021957987,0.0,0.0,0.0,0.0,0.0,0.0,2.1014443094902253,1.8793289843941783,0.9403141785088611
52.25,0.09289680799904255,0.035953690183990035,-0.2691517634535981,0.6253780483071275,-0.43749176259302647,0.0077649659120893055,0.36927407275468654,-0.6402260490543545,1.9856158117172835,0.017558777219009863,0.29116493575077007,-1.2065023409610913,0.0,0.0,0.0,0.0,0.0,0.0,2.1197966500064425,1.9049117971888072,0.9299725169645847
52.5,0.0917379910358604,0.030524645477887902,-0.26738594307239005,0.6338178598253439,-0.4494830388447285,0.0070632815248321545,0.3212139699533333,-0.6647446410343152,2.0033018123038087,0.014845301202175698,0.24643801754565853,-1.253664537901324,0.0,0.0,0.0,0.0,0.0,0.0,2.138124870127559,1.9311611798079766,0.9177115330323867
52.75,0.09252171170601374,0.02309840422181617,-0.26562226226990776,0.6415878097333167,-0.45748023760421275,0.00705472320992917,0.24465287569237493,-0.6792099013636754,2.0206598899315322,0.012326981072584592,0.21057914199048644,-1.3292839722584247,0.0,0.0,0.0,0.0,0.0,0.0,2.1578988748010146,1.9599492909454261,0.9028434697055784
53.0,0.09420705985931616,0.014912846473416152,-0.26390973999116324,0.6451952512124134,-0.4605231073119394,0.006850089114978086,0.15699590006237693,-0.6849261039588281,2.0373779571702517,0.01029759946985026,0.1860242538200988,-1.4161462588407945,0.0,0.0,0.0,0.0,0.0,0.0,2.1767157698564956,1.9869466702436571,0.8888950851194983
53.25,0.09580627476813948,0.006729586180573165,-0.26242582975600165,0.6448526523904718,-0.4605172193545224,0.005935640940646358,0.07012642108290315,-0.6856399650343135,2.0517633539385427,0.008968240819241496,0.17267387852459926,-1.5025854333487507,0.0,0.0,0.0,0.0,0.0,0.0,2.1840899342617384,2.0013899390991363,0.8744639229929392
53.5,0.09696883665192095,-0.0009548879202483249,-0.26133325030566845,0.6431099287187407,-0.4585234320054705,0.00437031780133279,-0.009847050760189394,-0.6831868501839149,2.062204241084096,0.008344684920882361,0.16941686977489512,-1.5825531438356601,0.0,0.0,0.0,0.0,0.0,0.0,2.1797813190456186,2.0036806262314224,0.8583184414453128
53.75,0.0978638314658288,-0.007853645424425139,-0.2607319518694174,0.6420437729918553,-0.45538010108824767,0.0024051937450042526,-0.08007913159191582,-0.6771925951752453,2.0676420511833733,0.008293765386271579,0.1749128521424711,-1.6531190834895324,0.0,0.0,0.0,0.0,0.0,0.0,2.165606764067986,1.997181457892719,0.8373284187381496
54.0,0.09877163051236107,-0.013860627340325437,-0.260671224941129,0.6420991135055587,-0.4518109480648489,0.00024290771315360615,-0.13941962713175987,-0.666987672281711,2.0675114375858277,0.008670233397392979,0.18786647178291582,-1.713042298776531,0.0,0.0,0.0,0.0,0.0,0.0,2.1494032363493965,1.987737926998047,0.8178216223619721
54.25,0.09985882351292195,-0.01895748301121175,-0.26117165544707505,0.6428203824889523,-0.4481669378638331,-0.002001722023784236,-0.18761026138818837,-0.6526987048800716,2.0616088151988965,0.009371982872403595,0.2070926400224663,-1.7620078364943226,0.0,0.0,0.0,0.0,0.0,0.0,2.136617288438302,1.9806408744609239,0.8013708028547762
54.5,0.10120017926687297,-0.02314855021228088,-0.262233509115723,0.6438400209652225,-0.44453893123612764,-0.004247414674591887,-0.22487156338772096,-0.6349596357870992,2.05001687616406,0.010329720976977597,0.23151057490214855,-1.8001918978971705,0.0,0.0,0.0,0.0,0.0,0.0,2.1185381310749563,1.9705582154190213,0.777884395307665
54.75,0.10284336257780109,-0.02644451260028275,-0.2638367045434646,0.645049508715079,-0.44095246296620244,-0.006412781710966264,-0.25168154907775747,-0.6144257692650963,2.033061443149399,0.011487570815668313,0.2601167595191928,-1.828030465437029,0.0,0.0,0.0,0.0,0.0,0.0,2.094361798888851,1.9521293366565515,0.7586451064956499
55.0,0.10481684920072266,-0.028856882555877265,-0.2659405351175544,0.6463720425549688,-0.4374110420011206,-0.008415322296359218,-0.2686522269775226,-0.5916946482964756,2.011280725772714,0.01279982250976229,0.2919507178894686,-1.8460989511578065,0.0,0.0,0.0,0.0,0.0,0.0,2.0641334564196017,1.924983870172889,0.7450396133662553
55.25,0.10877401932204304,-0.03168918047780035,-0.27083277390830535,0.6543081658902328,-0.4390849486247917,-0.01956895516300383,-0.28348419410676773,-0.5482604437603218,1.9620280920017306,0.01571868310446401,0.3567455286312199,-1.8632106205571695,0.0,0.0,0.0,0.0,0.0,0.0,2.032105222934091,1.8939832033326378,0.7363961315554637
55.5,0.11097734254549016,-0.032166880002283266,-0.27353127642123526,0.6472909878324047,-0.42965587095132246,-0.010794010051719649,-0.28211986132881955,-0.5264837882326625,1.9353252918753332,0.017237213578113184,0.38905516201929,-1.8629728540786767,0.0,0.0,0.0,0.0,0.0,0.0,2.0006707329467877,1.861228130606014,0.7338346050103387
55.75,0.11565526165478673,-0.03137308611499037,-0.2791463654565583,0.6482871143821203,-0.4360693618083228,-0.02246035614129216,-0.26488939119201654,-0.48418511240803186,1.8805346511123655,0.020387481785049268,0.4514166969477399,-1.8479510846951406,0.0,0.0,0.0,0.0,0.0,0.0,1.966156155705952,1.8230322642400223,0.7364260941603749
56.0,0.1179622589212014,-0.030070785078008897,-0.2819399976173541,0.6387965117015069,-0.43402677724362526,-0.011174528643183246,-0.24960263841886896,-0.46475052778234094,1.853663697535185,0.022019235894282518,0.4806069271004171,-1.833750745078645,0.0,0.0,0.0,0.0,0.0,0.0,1.9340708462060918,1.781861244504237,0.7520641884029313
56.25,0.1203353146226715,-0.027902651686401256,-0.28465187252354884,0.6390607559282129,-0.4305597139541033,-0.010847499624778933,-0.22784766911154608,-0.44623167853123547,1.827706783471078,0.023644649574734774,0.5081590752516586,-1.8130337888052255,0.0,0.0,0.0,0.0,0.0,0.0,1.9118596968089898,1.7495461313366767,0.7709058532709625
56.5,0.12241644729162737,-0.025501904403575054,-0.2871362770127224,0.6378887749105638,-0.4296220309949659,-0.009937617956694123,-0.20538347246440308,-0.43002780805547713,1.8041055422373826,0.02527919446496162,0.5330548373373869,-1.791573543362353,0.0,0.0,0.0,0.0,0.0,0.0,1.8967393266010337,1.7231816710901555,0.7926316934704805
56.75,0.12428926880654399,-0.022252010661263113,-0.289299217936693,0.6370508953464507,-0.4262191357605156,-0.008651763695882497,-0.17715714155607276,-0.416492668731423,1.7836913491848019,0.02684392340931323,0.5547773616481713,-1.7642345109032902,0.0,0.0,0.0,0.0,0.0,0.0,1.8873804651539772,1.7027002796652446,0.8142584220459383
57.0,0.12580886864305058,-0.018255619270227938,-0.29099093227918715,0.6356326355532478,-0.4232277135485257,-0.00676685736997662,-0.1441002185252862,-0.40644083948673315,1.7678401403764032,0.028273611901359786,0.5723628072246852,-1.7318700856333797,0.0,0.0,0.0,0.0,0.0,0.0,1.886412111004159,1.6910173562079063,0.8360687492944527
57.25,0.12687445800264066,-0.01355755290146108,-0.29208249641981204,0.6338119482855465,-0.4204163338581579,-0.00436625656249956,-0.10645405606397004,-0.40044806158259916,1.7577119244725183,0.02948816984256607,0.5849432781697942,-1.694606445999603,0.0,0.0,0.0,0.0,0.0,0.0,1.885144343988292,1.6813263229340376,0.8525907538087405
57.5,0.1274262266015506,-0.008269326304330605,-0.29250521570310534,0.6317529630006714,-0.41805198151191103,-0.0016908771331731742,-0.0648041411277772,-0.3986311478662188,1.7538855272680844,0.030421866622671438,0.5919978869268075,-1.6529047966326034,0.0,0.0,0.0,0.0,0.0,0.0,1.8892347346515634,1.6746136592009848,0.8745724527055789
57.75,0.12740960485151737,-0.002514978453906906,-0.29224230165906884,0.6294767757278501,-0.4161848869295598,0.0010516561761459986,-0.019736752871017546,-0.4009594129858478,1.7564873747482375,0.031039604337259347,0.5932475391714903,-1.6072581172677691,0.0,0.0,0.0,0.0,0.0,0.0,1.8929002986255155,1.668096469802619,0.894721022424647
58.0,0.12675563848352123,0.0035682836505366708,-0.29132148504321576,0.6269256585396741,-0.41486794348533607,0.003683266463412327,0.028143454226844708,-0.4074150662996652,1.7652832210396274,0.03133780218956363,0.5885895921454605,-1.5582688320353804,0.0,0.0,0.0,0.0,0.0,0.0,1.8966737485003586,1.6638732977057005,0.9104377833945377
58.25,0.12538368537307115,0.009823423489745067,-0.28980479143919435,0.6240504487187613,-0.4141818500660681,0.006066774416085607,0.07818718728392708,-0.4180443303808794,1.7797689119859201,0.031324218734116616,0.5780370449256789,-1.5067128933857568,0.0,0.0,0.0,0.0,0.0,0.0,1.911259914352427,1.6749317427093873,0.9206074719851789
58.5,0.12321461968238338,0.01606609301995826,-0.28777995720463395,0.6208607368104088,-0.41423508176457324,0.008099336938241608,0.12965961078079988,-0.4329593229440267,1.79923395237357,0.03099562341371321,0.561671184370327,-1.4535502150004125,0.0,0.0,0.0,0.0,0.0,0.0,1.9357514324442184,1.698360274141927,0.9288196743321075
58.75,0.12014603563248699,0.022096480538646716,-0.28533393587698364,0.617266491094622,-0.41508935740607994,0.009784085310601265,0.18188103836124345,-0.4526112144663479,1.8230142940891,0.03032202021151044,0.5393037569703225,-1.399687354318654,0.0,0.0,0.0,0.0,0.0,0.0,1.964897903669819,1.727066680300515,0.93705093439034
59.0,0.1162719992673907,0.027643287148892255,-0.2826102651585856,0.6140483149147138,-0.41703023809110007,0.010894682873592076,0.23341333986531382,-0.476437131036652,1.8497738239000252,0.029270836354032312,0.5113744303571994,-1.346722023849201,0.0,0.0,0.0,0.0,0.0,0.0,1.9933858363339152,1.7546600764317526,0.9459149584783924
59.25,0.11170372473286275,0.032435272923871564,-0.2797461861372351,0.6112745646136534,-0.42005724536974476,0.011456316085401985,0.2825975488532545,-0.5041241371044403,1.8782384302141029,0.027818591245055344,0.4780077609947768,-1.2963661184674082,0.0,0.0,0.0,0.0,0.0,0.0,2.0175788308372753,1.777774560838655,0.9540136002582114
59.5,0.1066486303499745,0.03615635707675679,-0.276896432846858,0.6093297908951403,-0.4243495345392325,0.011399013161508487,0.3268626395680572,-0.5351530438640686,1.9069062828705874,0.025967027379415017,0.43936351391715167,-1.2511606391169368,0.0,0.0,0.0,0.0,0.0,0.0,2.039313804551655,1.7989483495139478,0.9605132113698329
59.75,0.10147633391287633,0.0384147582244525,-0.2742223895145202,0.6088625321713044,-0.43020972650162626,0.010696173329351133,0.36188704942030303,-0.5685163955298931,1.9341041374772645,0.023739141805024493,0.3957786645365575,-1.2153462594018483,0.0,0.0,0.0,0.0,0.0,0.0,2.061179682598166,1.8232741712549878,0.9613183553796912
60.0,0.09678602957341659,0.038666103793919035,-0.2718611738393554,0.6107906987763084,-0.438248097455028,0.009444862700659362,0.3800760254951947,-0.6024881945204834,1.9582799147888659,0.021188918107119644,0.3481905791707769,-1.1964170966126433,0.0,0.0,0.0,0.0,0.0,0.0,2.080228796336919,1.847343676299407,0.9563854802044714
60.25,0.09344372327671235,0.036192153750316126,-0.26984259905832364,0.6161811548730514,-0.44916006315343526,0.008074299124126938,0.36952341309421954,-0.6342134322237953,1.9788553390004882,0.018421794302234975,0.2991196597024013,-1.206187837889118,0.0,0.0,0.0,0.0,0.0,0.0,2.0981421315115143,1.8714031819174943,0.9487099318193926
60.5,0.09222319291071698,0.030709078670251414,-0.26800604904114544,0.624666084736501,-0.46120716104338055,0.007346200068712783,0.321438376258913,-0.6593576714223968,1.9972158252293253,0.015614353246573408,0.2535982377473116,-1.2533994204012004,0.0,0.0,0.0,0.0,0.0,0.0,2.1139877044771405,1.8939968103688467,0.9389995191655658
60.75,0.09295630349421853,0.023226846863178507,-0.2661769158881458,0.632480440196048,-0.46921223887418134,0.007316532611998605,0.24485484136739666,-0.6744000855871861,2.0151802719978615,0.013011943636144063,0.2170243876415585,-1.3290624465223375,0.0,0.0,0.0,0.0,0.0,0.0,2.1325959328182624,1.9201375156574871,0.9279209738106401
61.0,0.09459909578653282,0.014992531800592075,-0.26440465137353425,0.6369260780106593,-0.4686417338966824,0.007089058058446174,0.15717766916989648,-0.6806272119961312,2.0324448274246363,0.010908795215377406,0.19182569609821276,-1.4159573885053491,0.0,0.0,0.0,0.0,0.0,0.0,2.1514664085345814,1.9493720599386812,0.9103605214326412
61.25,0.09616063211505983,0.006770285734545524,-0.26286733615964114,0.6366051461609481,-0.46859694677092567,0.006149260855572436,0.07029001327967073,-0.6817885542128548,2.0473235774259297,0.009515533982690168,0.1778953911362584,-1.5024182611026529,0.0,0.0,0.0,0.0,0.0,0.0,2.156735387640866,1.961275822150458,0.8971648018900653
61.5,0.0972895622530103,-0.0009437206233497477,-0.2617275953210407,0.6348786099742547,-0.46656535578491265,0.004558963354401868,-0.0096998177830986,-0.6797263286951924,2.058209996256453,0.00883664936781994,0.17411608565321268,-1.5824015579637551,0.0,0.0,0.0,0.0,0.0,0.0,2.147851267493809,1.9583103693610233,0.8822049447423499
61.75,0.0981539914851856,-0.007863841004160634,-0.2610848818436136,0.6338247268116306,-0.46338934969066686,0.0025708539097082372,-0.07994662191253411,-0.6740820777537144,2.0640496141184217,0.008737694096594275,0.17914187868652443,-1.6529821030712843,0.0,0.0,0.0,0.0,0.0,0.0,2.1338489026270957,1.950974436610323,0.8642973371102629
62.0,0.09903240084801294,-0.013885178400132788,-0.26098795685568393,0.6338847851151824,-0.45979216101918724,0.00038769995171872296,-0.13930036842031635,-0.6642060404828527,2.064280529588798,0.009072515620458018,0.19167228252870938,-1.7129204502275528,0.0,0.0,0.0,0.0,0.0,0.0,2.117318923403486,1.9418314056993344,0.84399657300385
62.25,0.1000908349584162,-0.018990398734696684,-0.2614568296827196,0.6346086007437868,-0.4561241720957925,-0.001875491308142685,-0.18750292854788922,-0.650231390228567,2.0587026914387865,0.009738122270050938,0.21051748794043013,-1.761900956391526,0.0,0.0,0.0,0.0,0.0,0.0,2.1041041602814383,1.934739428146454,0.8270656941798452
62.5,0.10140498882682278,-0.023185090414527564,-0.26249109724560454,0.635634502032129,-0.4524771801569408,-0.004137070251539754,-0.22477496383145174,-0.6327862480915729,2.0474024355439617,0.010664260539951117,0.2345924671537305,-1.8000990399022825,0.0,0.0,0.0,0.0,0.0,0.0,2.085201355838876,1.9240050745983375,0.8039086809533363
62.75,0.10302348123424895,-0.026481278396428637,-0.26407000807594583,0.636854011783693,-0.4488771205907985,-0.006315643321365139,-0.25159460947711515,-0.612519011532342,2.0307089488216583,0.011794266819379614,0.26288990395138656,-1.8279503228843845,0.0,0.0,0.0,0.0,0.0,0.0,2.059503934135944,1.9035662384129606,0.7861246915698319
63.0,0.10497505958929645,-0.028891602876488533,-0.266152280445427,0.6381823451889541,-0.4453295580078787,-0.008329089477924656,-0.26857398133694455,-0.5900247230047171,2.009163378583783,0.013081920879191421,0.2944459169060194,-1.8460301959341021,0.0,0.0,0.0,0.0,0.0,0.0,2.0286619867733333,1.8750239011700047,0.7744383943351105
63.25,0.10724991926001763,-0.03042120492774157,-0.26867552692452373,0.6394706423216598,-0.4418017354132397,-0.010092985916386965,-0.2763881043900787,-0.5659642399383658,1.9835097325737558,0.01449493031470411,0.32830182711555933,-1.8549872957643612,0.0,0.0,0.0,0.0,0.0,0.0,1.996185242697478,1.842802404318217,0.7673557335435683
63.5,0.109791293109325,-0.03106440807346334,-0.2715526796360225,0.640531206149954,-0.4382505400042954,-0.011508610845994971,-0.2757333805837994,-0.5411310490074421,1.954714422355664,0.016013529765809633,0.3634631258269654,-1.8555015995099366,0.0,0.0,0.0,0.0,0.0,0.0,1.9633358913493695,1.8082784270896224,0.7647332557061345
63.75,0.1125003038324951,-0.030809007495748105,-0.2746660901435153,0.6411957788256708,-0.4346500457056387,-0.012453642029971235,-0.2673033601652472,-0.5164438359325367,1.9240021612643303,0.017623074614560398,0.39886085467967325,-1.8482552058350774,0.0,0.0,0.0,0.0,0.0,0.0,1.9327174297226437,1.7737573391255428,0.7675816341288892
64.0,0.11524536661810879,-0.029644995988931385,-0.2778637024546333,0.6413337391463659,-0.4310092561142763,-0.012790449244472146,-0.2517752104947766,-0.49291886748078495,1.8928743818758986,0.01930407075125356,0.4333302077164831,-1.8339116902214736,0.0,0.0,0.0,0.0,0.0,0.0,1.9057153305609047,1.7400635273385288,0.7771292311842701
64.25,0.11787569097937944,-0.027575315176482703,-0.28096362596037017,0.6408722532767732,-0.4273840227900132,-0.012399694022947383,-0.22980298397986293,-0.47161382792019557,1.863056951313643,0.021022417308194537,0.46563233715030705,-1.8131014132191121,0.0,0.0,0.0,0.0,0.0,0.0,1.883187615862698,1.70867030806548,0.7917331462519741
64.5,0.12017015045862656,-0.02525468584770988,-0.2838046549318858,0.6395226411897603,-0.42637397868379034,-0.011364115886062454,-0.20714325584588827,-0.45306705642917344,1.8359845798037726,0.02274616071118499,0.4948015306698761,-1.7915678528731815,0.0,0.0,0.0,0.0,0.0,0.0,1.8670459202546623,1.6817541459532939,0.8109028677397101
64.75,0.1222605927268641,-0.0220887090497704,-0.2862883560450659,0.6387009085813936,-0.4229868624373635,-0.009934804452720547,-0.17874094659940942,-0.43730131639273595,1.8124565354980902,0.024392271537011814,0.520367843872942,-1.7641761996172833,0.0,0.0,0.0,0.0,0.0,0.0,1.8595042443384058,1.6619627856416854,0.8340478007012992
65.0,0.12397447407089772,-0.018169912248062574,-0.28827160797423024,0.6371892724206156,-0.4199701408198329,-0.007933007716657281,-0.1455256430642892,-0.4252644676320969,1.7938008433037582,0.025910833180960633,0.5414096504359925,-1.7317903764170164,0.0,0.0,0.0,0.0,0.0,0.0,1.8608256005014845,1.653359684335109,0.8538581086439475
65.25,0.1251942297388731,-0.013540472778309819,-0.28963065385923903,0.6352080936009523,-0.41712286603489745,-0.005436183540035167,-0.10773693814907273,-0.41760160939975766,1.781137495448651,0.02723196774847848,0.5570970734845884,-1.6945476599400793,0.0,0.0,0.0,0.0,0.0,0.0,1.8610546565960924,1.6462357953769904,0.8680046894213689
65.5,0.1258708911774471,-0.00831434559295782,-0.29029772128013304,0.6330319940576892,-0.4147323869165722,-0.00266826968357603,-0.06595873500436962,-0.41435153810703773,1.7750185049958815,0.02828610039201687,0.566943873189229,-1.6529110975405334,0.0,0.0,0.0,0.0,0.0,0.0,1.8671801755012336,1.6427728669759774,0.8875016142590081
65.75,0.12596488085131693,-0.0026174087773035808,-0.2902561926174167,0.6306986738192435,-0.4128465321693405,0.0001661146508653566,-0.020775887359950715,-0.4153936607550115,1.7755489457502447,0.029029973322913332,0.5707027020624025,-1.6073671185246265,0.0,0.0,0.0,0.0,0.0,0.0,1.8736317486755474,1.6405633997907907,0.9050125197542142
66.0,0.1254130495164692,0.0034131097654955056,-0.2895353040681781,0.6276520677270918,-0.4109717659249189,0.0028835541969542966,0.02720823318680486,-0.4206784289199541,1.7824736663176084,0.029454522493601986,0.5683000862675399,-1.5585038609790307,0.0,0.0,0.0,0.0,0.0,0.0,1.8795732986172842,1.6393484834797358,0.9194195639574725
66.25,0.12413646435948897,0.009620587605747915,-0.2881991102383003,0.6247527649033902,-0.4102637007452414,0.005344775319511275,0.07734548834789122,-0.430245369145718,1.7952685679799456,0.02956489187552881,0.5597757059264683,-1.5070764432496713,0.0,0.0,0.0,0.0,0.0,0.0,1.896208215597049,1.6537745632203635,0.9277043122369544
66.5,0.12205940582679745,0.015821437058096535,-0.2863369638272004,0.6215518553777645,-0.4102912762250674,0.007448585644399541,0.1289020817383676,-0.44418980193538715,1.8132053588406947,0.029356956508817766,0.5452348326693724,-1.4540237383252734,0.0,0.0,0.0,0.0,0.0,0.0,1.9241567776910304,1.6826494448375033,0.9333113901171308
66.75,0.11908345791170473,0.021817134251243233,-0.2840370920678833,0.6179583591019929,-0.4111140314402874,0.009199487037268472,0.1811992622230544,-0.46294092648824536,1.835604071130614,0.0288014627050248,0.5245103211478599,-1.4002390187100084,0.0,0.0,0.0,0.0,0.0,0.0,1.9546766443716093,1.713436191727029,0.940689747436332
67.0,0.11530365868742921,0.02733832903829031,-0.2814448064643066,0.6147498080465049,-0.4130161641860335,0.010369142414306864,0.23279974134094367,-0.48592362653027,1.8611142117481385,0.027867251974129415,0.4980602999737629,-1.3473155727615294,0.0,0.0,0.0,0.0,0.0,0.0,1.9842314720198697,1.7428288010259572,0.9485369285739823
67.25,0.11083038933165554,0.03211532898073276,-0.27869882985265676,0.6119791567860872,-0.41600067937809126,0.0109839064465993,0.28204531018132134,-0.512819240827215,1.8884492540197229,0.026531481748126935,0.466025514166176,-1.2969681971958027,0.0,0.0,0.0,0.0,0.0,0.0,2.0100134602110886,1.7684436913132016,0.9553852735332963
67.5,0.10586873326196132,0.03583329766456535,-0.2759551621475912,0.6100281425928105,-0.4202454962268593,0.010974670820262267,0.3263656247633174,-0.5431067082351468,1.9160966987204258,0.024795299490197025,0.42858013491701685,-1.251744127184019,0.0,0.0,0.0,0.0,0.0,0.0,2.033850185770064,1.7930105939594203,0.9600310349703338
67.75,0.10078535188546585,0.03810164635063287,-0.27337625542683913,0.6095428171689508,-0.4260534414663526,0.010315626883008244,0.36143973609603713,-0.5757745105610454,1.94237410404492,0.02268014981141951,0.3860740999502501,-1.2158909239158175,0.0,0.0,0.0,0.0,0.0,0.0,2.0571867423836157,1.8204417484834725,0.9581279316549275
68.0,0.0961765490341379,0.03837772447346271,-0.2711002209157186,0.6114413574187321,-0.4340326724151537,0.009104138044482069,0.3796734435033554,-0.6090859651873055,1.9657212967616624,0.020237920848387214,0.3394565208122162,-1.196909121465717,0.0,0.0,0.0,0.0,0.0,0.0,2.077914641262822,1.847731384380298,0.9505882323858582
68.25,0.0929058828530711,0.035945133780219865,-0.269158245375156,0.6167923991430464,-0.44487812485971623,0.0077679021622505395,0.36916108930156416,-0.6401708942722615,1.9855523777207063,0.017571943944196464,0.29125850939257725,-1.206619543903232,0.0,0.0,0.0,0.0,0.0,0.0,2.096223367994324,1.8733205613199617,0.940650032191213
68.5,0.0917455913890444,0.030516812719296127,-0.2673917568779544,0.6252317438759569,-0.45687163504887357,0.007065953988806273,0.3211122848455231,-0.6646948124554184,2.003244715543163,0.014857066837221641,0.246522268713101,-1.2537701899647087,0.0,0.0,0.0,0.0,0.0,0.0,2.1136713841422776,1.8985300283613318,0.9290804333061006
68.75,0.09252789455474623,0.023090952385999203,-0.2656274603282191,0.6330040133753778,-0.46487040688490955,0.0070571861989412454,0.2445613590953458,-0.6791650449086237,2.020608489217654,0.012337489727543768,0.21065500100834256,-1.3293792191553997,0.0,0.0,0.0,0.0,0.0,0.0,2.1307338006476506,1.9234972633165566,0.9166159540593315
69.0,0.09421199297671544,0.014905673270152079,-0.263914376872479,0.6366160172855277,-0.4679140266746265,0.006852333822960466,0.15691353512505068,-0.684885701286742,2.0373316879442296,0.010306999842303113,0.1860925469323107,-1.4162320753437234,0.0,0.0,0.0,0.0,0.0,0.0,2.14737240494325,1.9483968677489663,0.9027501820868132
69.25,0.09581014335294777,0.006722720654807403,-0.2624299652924026,0.6362762960023216,-0.46790821786357895,0.0059376463203055785,0.07005229263930952,-0.6856035535321747,2.0517217143566375,0.008976674395856685,0.17273534769700682,-1.5026626930844766,0.0,0.0,0.0,0.0,0.0,0.0,2.153617896466861,1.9609210707195046,0.8904260768815233
69.5,0.09697182790593911,-0.0009613875414535187,-0.2613369436282146,0.6345342958114308,-0.4659142201472753,0.004372086656752039,-0.009913766359423704,-0.6831540337946742,2.062166779465013,0.008352275147195373,0.16947218891155846,-1.5826226671586041,0.0,0.0,0.0,0.0,0.0,0.0,2.1482735147575998,1.9618350891250242,0.8753754493283323
69.75,0.09786612720415212,-0.007859743809528794,-0.2607352568237482,0.6334688463192957,-0.46277076528474204,0.0024067472178654903,-0.08013917563122669,-0.6771630199463887,2.067608357366413,0.008300615927479174,0.17496263453365057,-1.6531816463522864,0.0,0.0,0.0,0.0,0.0,0.0,2.1346436409195153,1.9557238487283852,0.8554809765466197
70.0,0.09877337533149753,-0.013866315021664364,-0.26067419006491593,0.6335247491182034,-0.4592015861963322,0.0002442670353290932,-0.13947366676713968,-0.666961136479169,2.0674811351462887,0.008676433109103696,0.18791127248523165,-1.7130986110128141,0.0,0.0,0.0,0.0,0.0,0.0,2.117661895218859,1.9457385243357006,0.8358190577977148
70.25,0.09997865561844028,-0.023517524631076255,-0.2616774990811551,0.6347139403138269,-0.47378272333849847,-0.004013236064956738,-0.23102560432363167,-0.6440226678494234,2.056074551383629,0.010234090474046345,0.22443990128927616,-1.806282552367923,0.0,0.0,0.0,0.0,0.0,0.0,2.1039324759529485,1.9375542888426491,0.8200092933357279
70.5,0.10086093138937748,-0.027257725031903903,-0.26271509428615625,0.6334314050189507,-0.45012706130745755,-0.004150380820004518,-0.26394537202961993,-0.6290778936021564,2.044952741843785,0.01121311777251778,0.24712922885445576,-1.840121830898338,0.0,0.0,0.0,0.0,0.0,0.0,2.0855751871139185,1.926578433754464,0.7986985662297463
70.75,0.10247387212825135,-0.030228079898667104,-0.26426456202311244,0.6363568079412067,-0.4470418643738415,-0.006197870947824757,-0.28684797685546654,-0.6088840632302013,2.028527502064388,0.012277308963186767,0.274177114288751,-1.8639661676844437,0.0,0.0,0.0,0.0,0.0,0.0,2.0551954560404555,1.9021037337489266,0.7783506591426061
71.0,0.10447620828373747,-0.03235285402008624,-0.2663180494511234,0.6292433001776784,-0.45293975664282515,-0.008213949712043922,-0.30030201197746076,-0.586355828836675,2.007228021373235,0.013498789535198785,0.3046083185436228,-1.878420073074788,0.0,0.0,0.0,0.0,0.0,0.0,2.0215427250130915,1.8714111460029164,0.7644967702151568
71.25,0.10673645332508346,-0.033596466702853094,-0.26882648040656837,0.6302700969334364,-0.44941008546630556,-0.010033723821779805,-0.3049433319665433,-0.5628607850857033,1.981765888406393,0.014882808459487487,0.33745240797631504,-1.884121524809997,0.0,0.0,0.0,0.0,0.0,0.0,1.9883617306827632,1.8377356516535912,0.7591508721493397
71.5,0.1092585945853267,-0.03396927966163411,-0.2716952591922627,0.6313122329191867,-0.4459212394193974,-0.011475115142777215,-0.30143308540261754,-0.538733949705978,1.9531316839320219,0.016386401793239157,0.37170287350795683,-1.8817071256548454,0.0,0.0,0.0,0.0,0.0,0.0,1.9565497025870644,1.8028166919394524,0.7602228054708828
71.75,0.11199491469598172,-0.033473545113507586,-0.2747989008011022,0.6321630633024176,-0.4424409616995449,-0.012414566435358099,-0.2904330945021835,-0.5145276989641259,1.9225700214830919,0.017975003437891168,0.4062800623168903,-1.8718190575134175,0.0,0.0,0.0,0.0,0.0,0.0,1.9261820782047023,1.7664927106360426,0.767906831371302
72.0,0.11480423505263372,-0.032093598411559315,-0.27798507812188555,0.6324488997511106,-0.4388977476414796,-0.012744709283133426,-0.2725919713980193,-0.491292224906585,1.8915831072115485,0.019629932283548715,0.4400099673106017,-1.8550951682642893,0.0,0.0,0.0,0.0,0.0,0.0,1.8996052456533399,1.731119080095012,0.7821296694568525
72.25,0.11750907926687819,-0.029822071390180994,-0.2810744818412415,0.6320284953403376,-0.435328860538553,-0.012357614877423817,-0.24853806879278137,-0.4702256700027898,1.8618923100635836,0.021323896789315906,0.47164556915748745,-1.832146808730188,0.0,0.0,0.0,0.0,0.0,0.0,1.877415669639599,1.6983332067769703,0.8002211665327008
72.5,0.11986744996624407,-0.027309198516417395,-0.28390655240288953,0.6306364917291165,-0.43435716739895047,-0.011328282246592103,-0.22400483217751485,-0.4519056302541238,1.8349324474537496,0.0230264688568401,0.5002137844944448,-1.8086976318861945,0.0,0.0,0.0,0.0,0.0,0.0,1.8605816005031237,1.6686100453293127,0.8231065597824345
72.75,0.12202285005135304,-0.023963352361870006,-0.2863823612697503,0.629818995134851,-0.4310195030657946,-0.009903235467443094,-0.19391636529787332,-0.43634659117618946,1.811505456434223,0.024652232733282084,0.5252383005212584,-1.7795936540235637,0.0,0.0,0.0,0.0,0.0,0.0,1.8534275104651736,1.6474962477027193,0.8490875398653495
73.0,0.12380246241558308,-0.019875473497115565,-0.2883581479019526,0.6283104987859911,-0.42804588756948014,-0.00790314652880908,-0.1591835198929067,-0.4244809865247612,1.7929420130371712,0.02614891700509673,0.5457916409741512,-1.7456818668632663,0.0,0.0,0.0,0.0,0.0,0.0,1.852534655003369,1.6356873598312016,0.869719212663998
73.25,0.12508492308063496,-0.015086340800712278,-0.2897102909208231,0.6263172543664883,-0.42523612827315055,-0.0054085720754821764,-0.12002902729482848,-0.4169684918086991,1.7803630845585816,0.027446057864197043,0.5610387701639628,-1.70708409002756,0.0,0.0,0.0,0.0,0.0,0.0,1.852105792522928,1.626456123904684,0.885966333282442
73.5,0.1258172904564089,-0.009709859227312606,-0.29037116806387336,0.6241131869913096,-0.4228829702125903,-0.00264350857220097,-0.07702161523554979,-0.4138613688262682,1.774321371419022,0.028473850473054244,0.5704889338144564,-1.6642458267296547,0.0,0.0,0.0,0.0,0.0,0.0,1.8569182689438957,1.6201275115682807,0.9073766052732263
73.75,0.12595961222547714,-0.003872270386702496,-0.2903239228287844,0.6217503913357552,-0.42103590019213744,0.0001889809403559095,-0.030732479568012873,-0.4150354036216579,1.774922890831469,0.029188955361177105,0.5738908339280665,-1.6176304071014616,0.0,0.0,0.0,0.0,0.0,0.0,1.8620325265496749,1.614860748112526,0.9270328441508529
74.0,0.12545133865036537,0.0022894023385887294,-0.2895972881787674,0.6191465477486243,-0.4197381151868106,0.002906538600067954,0.01824730019954892,-0.420423411739145,1.7819132364326558,0.02958353908218392,0.5711673815530263,-1.5677983772594657,0.0,0.0,0.0,0.0,0.0,0.0,1.8663658084409094,1.6108167730986607,0.9426508656025876
74.25,0.1242162488414981,0.00861957748177943,-0.28825495718732597,0.6162390017937421,-0.4190638758511233,0.005369323965765727,0.06928064865936087,-0.43004794604044694,1.7947683472366716,0.029665839772451616,0.5623547247519346,-1.5154807262770267,0.0,0.0,0.0,0.0,0.0,0.0,1.8814900951312554,1.6225186796134692,0.9525954610338988
74.5,0.12217817853958866,0.014935951721081978,-0.28638643978674966,0.6130280594966401,-0.4191201511502553,0.007474069602305233,0.12164372601869028,-0.4440055228741937,1.812759344592753,0.02943528026001444,0.5475546654645784,-1.4616043916922308,0.0,0.0,0.0,0.0,0.0,0.0,1.9055707348848434,1.646137675668186,0.9599117555251134
74.75,0.11923488084507546,0.0210407786421315,-0.2840805522914889,0.6094091949410314,-0.41996850348795495,0.009223549981043133,0.17466674207534483,-0.46274716175492103,1.8352057446634225,0.028864314107216807,0.5265969124468807,-1.4070618972382531,0.0,0.0,0.0,0.0,0.0,0.0,1.9341547481804469,1.6745674350618391,0.9678731814341077
75.0,0.11547768032788827,0.02666348882431538,-0.28148304349002023,0.6061567895874973,-0.4219003232469925,0.01039003520587456,0.22692047320800507,-0.4857192809026427,1.860757345022243,0.02792089689646436,0.49993694690341284,-1.3534489889886632,0.0,0.0,0.0,0.0,0.0,0.0,1.96250234910512,1.7024602433357987,0.9762400268909932
75.25,0.1110159663730671,0.031533325173881875,-0.27873267964039755,0.6033429703765167,-0.4249162222352517,0.011001455398490734,0.2767539688616766,-0.5126123927260611,1.888128624981819,0.026579759659017013,0.4677133249018338,-1.3024800909169572,0.0,0.0,0.0,0.0,0.0,0.0,1.9868390489180132,1.7259083060106042,0.9842611063884633
75.5,0.10605587227142022,0.035334619691915745,-0.27598526717559657,0.6013567369705052,-0.4291962549093773,0.01098964985920392,0.3216034175756371,-0.5429033245601167,1.9158082333471087,0.02483975926862017,0.4300983050406547,-1.2566986398881252,0.0,0.0,0.0,0.0,0.0,0.0,2.0073139107062863,1.746921677227897,0.9887233130387063
75.75,0.10096531831719861,0.037675896698635566,-0.273403092142489,0.600836393841139,-0.43504585197853873,0.010328700132430368,0.3571537496271249,-0.5755766408341223,1.9421145422715076,0.022721006402614204,0.38744006417599886,-1.2203464716820243,0.0,0.0,0.0,0.0,0.0,0.0,2.03473631272877,1.7775147975122656,0.9902489621110439
76.0,0.09634117351552005,0.038013276704223956,-0.2711241881451895,0.6062161662245231,-0.43587586482496443,0.009115615989197856,0.37581605568133436,-0.6088941073870402,1.9654878151894521,0.020274945724536694,0.34068603335537995,-1.2009178978317998,0.0,0.0,0.0,0.0,0.0,0.0,2.056886127060454,1.805433911643586,0.9854891832897477
76.25,0.09304715349567093,0.03562890674085662,-0.2691796886361413,0.6115444691165659,-0.4467708050802419,0.007777998036192946,0.3656894402617452,-0.6399854852228113,1.9853423972218003,0.017604957797298922,0.29236567809752845,-1.21022776737704,0.0,0.0,0.0,0.0,0.0,0.0,2.075244191928964,1.8319830901887837,0.974923798764424
76.5,0.09185736523878123,0.030235560307662866,-0.2674109433046027,0.6199654904303492,-0.4588173787816668,0.0070749813261543615,0.3179878007096861,-0.6645167558457044,2.0030558516559687,0.01488615043678709,0.24751957149045578,-1.2570186170475528,0.0,0.0,0.0,0.0,0.0,0.0,2.0914168447397263,1.8568752774296498,0.9623090057417297
