Suke0811/REMS/test_robot.csv
timestamp,x,y,z,d_x,d_y,d_z,j.0,j.1,j.2,j.3,j.4,j.5,d_j.0,d_j.1,d_j.2,d_j.3,d_j.4,d_j.5,h2_norm,h2_norm_x,h2_norm_y
0.1,0.24999999999873052,-2.842170943040401e-17,-0.24999999999977285,2.489354784287977,-0.004783409570340152,-2.4999999999977285,0.0,0.36686574988772785,1.624147125641893,8.426139125282777e-17,0.7572976076597144,-1.5707963267948966,0.0,0.0,0.0,0.0,0.0,0.0,0,0,0
0.2,0.2497399939797406,0.007206587913064709,-0.24999999999977945,-0.011470537757879026,0.06791304448291484,-6.605826996519681e-14,0.028848357498645782,0.36535824684440643,1.6253898412575905,7.6288268110139e-17,0.7563479554309106,-1.5419479692962508,0.0,0.0,0.0,0.0,0.0,0.0,0,0,0
0.30000000000000004,0.24884291295847105,0.015168332087074531,-0.2499999999997892,-0.017824417355473,0.07547061193655466,-9.742207041085749e-14,0.06088012456893921,0.36017906616723755,1.629656447235154,8.543803566141223e-17,0.7530807188120077,-1.5099162022259573,0.0,0.0,0.0,0.0,0.0,0.0,0,0,0
0.4,0.24749280343438204,0.022252095474816314,-0.24999999999977232,-0.02239476459883186,0.06671053945872726,1.687538997430238e-13,0.08966896682977676,0.35244686273037884,1.6360172616524897,9.429410377043862e-17,0.7481900891673021,-1.4811273599651198,0.0,0.0,0.0,0.0,0.0,0.0,0,0,0
0.5,0.24539843333223826,0.029985639422173607,-0.24999999999967554,-0.02979611038398717,0.07319540824500567,9.678369217169802e-13,0.12158890068531036,0.34059100390553193,1.6457468059034965,9.332610599743973e-17,0.74066309064794,-1.4492074261095862,0.0,0.0,0.0,0.0,0.0,0.0,0,0,0
0.6,0.24269167702365155,0.037526700381156956,-0.2499999999994005,-0.035905818099962794,0.07126254573488428,2.750299987752669e-12,0.1534120887517929,0.3254969374769793,1.6580862916764338,3.684378041490559e-17,0.7310349663169307,-1.4173842380431037,0.0,0.0,0.0,0.0,0.0,0.0,0,0,0
0.7,0.23938988646161202,0.04482685575386111,-0.24999999999877914,-0.0418508421363383,0.06885015092955561,6.213640713070845e-12,0.18511086702346802,0.3073938137479595,1.672804320542959,1.0880889555508958e-16,0.7194278777526225,-1.3856854597714285,0.0,0.0,0.0,0.0,0.0,0.0,0,0,0
0.7999999999999999,0.23551428090679416,0.05183925447523019,-0.25000000000000155,-0.04758426512433236,0.06596955105398132,-1.2224110612635286e-11,0.21665605902671814,0.2865192099112459,1.6896487013856833,1.0686234754816943e-16,0.7059742060972798,-1.3541402677681784,0.0,0.0,0.0,0.0,0.0,0.0,0,0,0
0.8999999999999999,0.23108970893116185,0.05851887566360003,-0.2500000000000026,-0.05306977747780997,0.06263905235435743,-1.0547118733938987e-14,0.24801646173000336,0.26310362878047333,1.7083594720635369,1.396404051218421e-16,0.6908090323285988,-1.3227798650648932,0.0,0.0,0.0,0.0,0.0,0.0,0,0,0
0.9999999999999999,0.22614459347656043,0.06482284124788687,-0.2500000000000037,-0.05827160297682652,0.05888007606332028,-1.1102230246251565e-14,0.2791583836078644,0.2373611109238757,1.7286778058975243,1.3660006599933748e-16,0.6740651763602354,-1.2916379431870322,0.0,0.0,0.0,0.0,0.0,0.0,0,0,0
1.0999999999999999,0.22071068200752944,0.0707106760731753,-0.25000000000000394,-0.0631568285757406,0.05471299447884114,-2.220446049250313e-15,0.3100450932979584,0.20948236159507544,1.7503533082253377,6.670427767174848e-17,0.6558687430788406,-1.2607512334969382,0.0,0.0,0.0,0.0,0.0,0.0,0,0,0
1.2,0.214822846763897,0.07614459691467357,-0.2500000000000031,-0.06769422543126578,0.050164097384383766,8.326672684688674e-15,0.34063631296157837,0.17963192210610862,1.7731480657223029,6.505411724803926e-17,0.6363365369038281,-1.2301600138333182,0.0,0.0,0.0,0.0,0.0,0.0,0,0,0
1.3,0.20851887903980612,0.08108970557990934,-0.24999999999492925,-0.07185402956629512,0.045267416903590416,5.0738580004150435e-11,0.37088724970817566,0.14794763853212212,1.7968385750359368,6.336855006099105e-17,0.6155745730684108,-1.199909077086721,0.0,0.0,0.0,0.0,0.0,0.0,0,0,0
1.4000000000000001,0.20183926875224603,0.08551427590269202,-0.24999999999541575,-0.07560923263612258,0.040054565754579274,-4.864997293907436e-12,0.4007479250431061,0.11454195467855038,1.8212158041181357,1.2332887985037099e-16,0.5936776439720715,-1.1700484017517905,0.0,0.0,0.0,0.0,0.0,0.0,0,0,0
1.5000000000000002,0.19482685518143522,0.08938989098003566,-0.2500000000004304,-0.07893632710312913,0.03455853993867851,-5.0146276020512914e-11,0.4301619827747345,0.07950301247005305,1.846084870826004,1.1991333997891003e-16,0.570728782910682,-1.140634344020162,0.0,0.0,0.0,0.0,0.0,0.0,0,0,0
1.6000000000000003,0.18752670887079706,0.09269167489539865,-0.2500000000000126,-0.08181299875401027,0.02881467947271815,4.177769241664464e-12,0.459065318107605,0.04289817343288647,1.8712625076256857,5.825843250551453e-17,0.5468004137995599,-1.1117310086872916,0.0,0.0,0.0,0.0,0.0,0.0,0,0,0
1.7000000000000004,0.17998564744123008,0.09539843730621357,-0.2500000000000621,-0.08422178329588609,0.022859783186503717,-4.951594689828198e-13,0.4873847961425781,0.0047752021837283234,1.8965758515078164,1.131629714314012e-16,0.5219540812909247,-1.0834115306523184,0.0,0.0,0.0,0.0,0.0,0.0,0,0,0
1.8000000000000005,0.1722520906486629,0.09749279330949213,-0.24999999999999656,-0.08614668193134815,0.016731881686966914,6.555866960411549e-13,0.5150359272956848,-0.03483420810269202,1.9218593451156545,-0.0,0.49624179628902354,-1.0557603994992117,0.0,0.0,0.0,0.0,0.0,0.0,0,0,0
1.9000000000000006,0.16437569943620764,0.09896130856423954,-0.24999999999998038,-0.08757531902054247,0.010470482461617572,1.6181500583911657e-13,0.5419206619262695,-0.0759120788886549,1.9469523732496579,1.066668906542364e-16,0.46970664058231526,-1.028875664868627,0.0,0.0,0.0,0.0,0.0,0.0,0,0,0
2.0000000000000004,0.15640703141583395,0.09979453947710655,-0.24999999999999953,-0.08849878220499036,0.004115526305183279,-1.915134717478395e-13,0.5679242014884949,-0.1184517669414887,1.9716968631974856,5.178180394680658e-17,0.4423833440848887,-1.0028721253064017,0.0,0.0,0.0,0.0,0.0,0.0,0,0,0
2.1000000000000005,0.14839722021147442,0.09998715621919838,-0.25000000000000633,-0.0889113869207296,-0.002291777952018288,-6.800116025829084e-14,0.592911422252655,-0.16245481262213105,1.9959345428453816,5.029105289515494e-17,0.4142992355948285,-0.9778849045422415,0.0,0.0,0.0,0.0,0.0,0.0,0,0,0
2.2000000000000006,0.13960029357940384,0.09945775871956931,-0.2500000000004058,-0.09676629368915655,-0.009551763918251018,-3.994582442601313e-12,0.6190306544303894,-0.21255598847390858,2.021818300651861,7.309990276658465e-17,0.38255261988888783,-0.9517656723645072,0.0,0.0,0.0,0.0,0.0,0.0,0,0,0
2.3000000000000007,0.13167138523656588,0.0983059630805314,-0.2500000000001995,-0.08810688733032494,-0.01573464933547119,2.062794379753541e-12,0.6413220763206482,-0.2596538706826734,2.0444613694274807,7.110474256588874e-17,0.3529317195785278,-0.9294742504742484,0.0,0.0,0.0,0.0,0.0,0.0,0,0,0
2.400000000000001,0.12386014500245159,0.09652309750001402,-0.25000000000000144,-0.08693369759316656,-0.022042537364042516,1.9806378759312793e-12,0.6619853377342224,-0.3082321584723579,2.0660790194177285,4.6167250558019665e-17,0.32259734346150876,-0.9088109890606743,0.0,0.0,0.0,0.0,0.0,0.0,0,0,0
2.500000000000001,0.11621671143640105,0.09412061481571934,-0.2500000000000911,-0.08526030685008047,-0.028234024162776948,-8.965050923848139e-13,0.6807312965393066,-0.35828267693736077,2.0864871374104434,6.755877546195123e-17,0.2915568121604838,-0.8900650302555899,0.0,0.0,0.0,0.0,0.0,0.0,0,0,0
2.600000000000001,0.10879013858718886,0.09111392418743151,-0.2500000000002676,-0.0830978971175317,-0.034269070586630306,-1.765254609153999e-12,0.697204053401947,-0.4097782060778253,2.1054904194595156,8.807006897676516e-17,0.2598166579851387,-0.8735922733929499,0.0,0.0,0.0,0.0,0.0,0.0,0,0,0
2.700000000000001,0.10162811150525837,0.08752233639027542,-0.25000000000315153,-0.08046060533149964,-0.04010801898144499,-2.8839153287663066e-11,0.7109615802764893,-0.4626614495251922,2.1228814547014725,8.634814175140571e-17,0.22738596871680816,-0.8598347465184073,0.0,0.0,0.0,0.0,0.0,0.0,0,0,0
2.800000000000001,0.0947766029345565,0.08336892176999404,-0.2500000000018369,-0.07736614703374474,-0.04571241702030879,1.3146150834586479e-11,0.7214497327804565,-0.5168315511823355,2.138441349753717,6.371950979136334e-17,0.19428087560849114,-0.8493465940144402,0.0,0.0,0.0,0.0,0.0,0.0,0,0,0
2.9000000000000012,0.08827959869672279,0.07868031449388847,-0.2500000000007885,-0.07383675940264525,-0.05105605154522531,1.0484391133047666e-11,0.727966845035553,-0.5721267136238668,2.1519423704314855,5.247554094178437e-17,0.16053146650254355,-0.8428294817593436,0.0,0.0,0.0,0.0,0.0,0.0,0,0,0
3.0000000000000013,0.08217879244324468,0.07348662365354473,-0.24999999999985237,-0.06991600883421395,-0.056119433028800444,9.361122987883164e-12,0.7296172976493835,-0.628302014728206,2.1631538717949472,5.21391616559548e-17,0.12619245340231272,-0.8411790291455132,0.0,0.0,0.0,0.0,0.0,0.0,0,0,0
3.1000000000000014,0.07651337412471301,0.06782120610936147,-0.2500000000000163,-0.0656256769879803,-0.06086780961201224,-1.6395218516152e-12,0.7252484560012817,-0.6850022736981549,2.1718536040032714,5.735796345951507e-17,0.09135908210371164,-0.8455478707936149,0.0,0.0,0.0,0.0,0.0,0.0,0,0,0
3.2000000000000015,0.07131968851983836,0.06172040430349412,-0.24999999999999228,-0.06099864643087714,-0.06525904585740792,2.403632848313464e-13,0.7133696675300598,-0.74173027053564,2.1778472144687977,6.306259011543282e-17,0.05619036989013409,-0.8574266592648367,0.0,0.0,0.0,0.0,0.0,0.0,0,0,0
3.3000000000000016,0.06663107925377958,0.055223396278917904,-0.25000000000016287,-0.05602057720492184,-0.06926934919319798,-1.705857677336553e-12,0.692052960395813,-0.7978078299487705,2.180999429683898,5.744463938498834e-17,0.020944592615268102,-0.8787433663990835,0.0,0.0,0.0,0.0,0.0,0.0,0,0,0
3.4000000000000017,0.06247765624401325,0.04837188796249538,-0.25000000000044464,-0.050756761916678404,-0.07287151082871958,-2.8177460364986473e-12,0.6588269472122192,-0.8523328691283932,2.1812821736837145,6.310273730680701e-17,-0.013970355160566267,-0.9119693795826773,0.0,0.0,0.0,0.0,0.0,0.0,0,0,0
3.5000000000000018,0.05888607310081804,0.041209863591247384,-0.2499999999997733,-0.04524400105738644,-0.07604321091236546,6.713518629908322e-12,0.6106075644493103,-0.9041328188767007,2.178843854240739,6.260727023421584e-17,-0.047927132640707734,-0.9601887623455863,0.0,0.0,0.0,0.0,0.0,0.0,0,0,0
3.600000000000002,0.055879391226317264,0.03378329271947047,-0.2500000000009172,-0.039518639140429676,-0.07876210535343217,-1.14391829342253e-11,0.54377681016922,-0.9517203976048502,2.1741000169471043,7.148497689431416e-17,-0.07999094509134291,-1.0270195166256766,0.0,0.0,0.0,0.0,0.0,0.0,0,0,0
3.700000000000002,0.053476902695349,0.026139850349526653,-0.2500000000000341,-0.033617830663378964,-0.08101186296073958,8.831269049380808e-12,0.45465266704559326,-0.9932696845908946,2.1678302726756864,6.898208399356428e-17,-0.10883159916646515,-1.1161436597493033,0.0,0.0,0.0,0.0,0.0,0.0,0,0,0
3.800000000000002,0.05169403836071498,0.018328610039070155,-0.2500000000000078,-0.027571366967941668,-0.08277093950235602,2.625677453238495e-13,0.3407309055328369,-1.0266559675012694,2.1612304823936426,5.938184290667069e-17,-0.13269236296615175,-1.2300654212620596,0.0,0.0,0.0,0.0,0.0,0.0,0,0,0
3.900000000000002,0.05054223900657644,0.010399708003673354,-0.24999999999999784,-0.0214336126602117,-0.08402061301111119,9.992007221626409e-14,0.20293043553829193,-1.0496437551202678,2.155814270019953,6.529547948266696e-17,-0.14953251097825807,-1.3678658912566046,0.0,0.0,0.0,0.0,0.0,0.0,0,0,0
4.000000000000002,0.050028900945100506,0.002404048438570214,-0.24999999999994543,-0.01518751964442963,-0.08472368013136101,5.240252676230739e-13,0.048016257584095,-1.0603067899528453,2.153046577701841,6.403673976385021e-17,-0.15746960825053946,-1.5227800692108016,0.0,0.0,0.0,0.0,0.0,0.0,0,0,0
4.100000000000001,0.050157316667312615,-0.005607044502570176,-0.24999999999996558,-0.008821842226513332,-0.08485074653845645,-2.015054789694659e-13,-0.11132695525884628,-1.057613313557661,2.1537613918787386,6.282101615980077e-17,-0.15545683038736816,-1.6821232820537428,0.0,0.0,0.0,0.0,0.0,0.0,0,0,0
4.200000000000001,0.0509266657209123,-0.01358214264300139,-0.24999999999999892,-0.002367748704590073,-0.08439993322379961,-3.3334446314370325e-13,-0.26063352823257446,-1.0418332781611161,2.1577375192425925,6.0969952291319e-17,-0.1437704142701425,-1.831429855027471,0.0,0.0,0.0,0.0,0.0,0.0,0,0,0
4.300000000000001,0.052332009434215336,-0.0214700553151622,-0.25000000000002665,0.004105841919400348,-0.08339754001588012,-2.7727820040013285e-13,-0.3893251121044159,-1.0144252848186246,2.163817418209652,5.175356040269512e-17,-0.12387343696860892,-1.9601214388993125,0.0,0.0,0.0,0.0,0.0,0.0,0,0,0
4.4,0.05436431754289103,-0.029220137544446346,-0.2500000000089178,0.010515151297706256,-0.08188064303186623,-8.891165581559335e-11,-0.4931859076023102,-0.9775051172377055,2.1704539488838672,7.369580791421843e-17,-0.09778549655031238,-2.0639822343972067,0.0,0.0,0.0,0.0,0.0,0.0,0,0,0
4.5,0.05701055715444662,-0.03678264694908023,-0.24999999999955902,0.01680268967968318,-0.07991702379412395,9.358791519531451e-11,-0.5729864835739136,-0.9333001335440628,2.1762334845396163,6.428343191550468e-17,-0.06746800947663217,-2.14378281036881,0.0,0.0,0.0,0.0,0.0,0.0,0,0,0
4.6,0.060253732004532,-0.044109030846912305,-0.25000000000018624,0.022933990383198273,-0.07755668451019074,-6.272204977619822e-12,-0.631916880607605,-0.883827531786984,2.1801262712848395,6.442652514699713e-17,-0.03451122677389623,-2.2027132074025015,0.0,0.0,0.0,0.0,0.0,0.0,0,0,0
4.699999999999999,0.06407302256176768,-0.05115226344079346,-0.2500000000003798,0.028829118678759133,-0.07472629223396533,-1.9356738434339604e-12,-0.6737298965454102,-0.8307775679610858,2.181508836238892,6.1238897056264e-17,-7.833766744352304e-05,-2.2445262233403067,0.0,0.0,0.0,0.0,0.0,0.0,0,0,0
4.799999999999999,0.06844391668017079,-0.05786713158686095,-0.2500000000000518,0.034453106994517674,-0.07144380943239871,3.280153926255025e-12,-0.7018570303916931,-0.7755070010713571,2.1800844068632603,6.362521470031016e-17,0.035030140756275044,-2.2726533571865897,0.0,0.0,0.0,0.0,0.0,0.0,0,0,0
4.899999999999999,0.07333834670220796,-0.06421051743008852,-0.2500000000001363,0.03977460671251561,-0.06772991026710388,-8.448797217397441e-13,-0.7191346883773804,-0.7190746667035377,2.1757849617589238,6.803652286746789e-17,0.07028426049844376,-2.289931015172277,0.0,0.0,0.0,0.0,0.0,0.0,0,0,0
4.999999999999998,0.07872490986634238,-0.07014172029303047,-0.2500000000000063,0.044751098408142904,-0.06361165989370905,1.3000711618360583e-12,-0.7278050184249878,-0.6622873500170333,2.1686884769936223,6.251652628764251e-17,0.10534337931073619,-2.2986013452198844,0.0,0.0,0.0,0.0,0.0,0.0,0,0,0
5.099999999999998,0.08456900808155791,-0.07562265297186355,-0.2499999999999356,0.04936918446101854,-0.05911170340784667,7.066569551739121e-13,-0.7296082973480225,-0.6057461307691946,2.1589585952883943,6.268321854052667e-17,0.13999388978874056,-2.300404624142919,0.0,0.0,0.0,0.0,0.0,0.0,0,0,0
5.1999999999999975,0.09083313460963231,-0.08061812631655149,-0.25000000004326023,0.053602876543733004,-0.05425898809026212,-4.33246216680061e-10,-0.7258888483047485,-0.5498871901250324,2.1468038304130563,7.377060023823012e-17,0.1741057368221486,-2.296685175099645,0.0,0.0,0.0,0.0,0.0,0.0,0,0,0
5.299999999999997,0.09747708374364959,-0.08509608080464366,-0.2500000000000346,0.05742733211864162,-0.04908489070559015,4.322564528536077e-10,-0.7176879048347473,-0.49501782855554843,2.132451551107038,4.273574538020892e-17,0.20760234039988706,-2.288484231629644,0.0,0.0,0.0,0.0,0.0,0.0,0,0,0
5.399999999999997,0.10445819017893666,-0.0890277724726081,-0.2500000000000161,0.06081959183198247,-0.04362266142530074,1.8485213360008856e-13,-0.7058170437812805,-0.441346902289853,2.1161322743088546,4.3499879925327463e-17,0.2404403134670568,-2.276613370576177,0.0,0.0,0.0,0.0,0.0,0.0,0,0,0
5.4999999999999964,0.1117316615715818,-0.092387952431727,-0.25000000000006845,0.06375983940537613,-0.03790738866174778,-5.234701561107613e-13,-0.6909137964248657,-0.3890094386122275,2.09807068756999,6.663101037383666e-17,0.2725961976447824,-2.2617101232197623,0.0,0.0,0.0,0.0,0.0,0.0,0,0,0
5.599999999999996,0.11925077428802268,-0.09515506143184956,-0.2500000000000824,0.06625313429984103,-0.03198101720779298,-1.3933298959045715e-13,-0.6734840869903564,-0.3380870467487545,2.0784812854322916,2.2738251038681208e-17,0.3040573329383856,-2.244280413785253,0.0,0.0,0.0,0.0,0.0,0.0,0,0,0
5.699999999999996,0.12696729310994398,-0.09731132464649736,-0.25000000000000433,0.06825836407857451,-0.025875794050248056,7.80486786311485e-13,-0.6539325714111328,-0.28862339616714006,2.0575665592412977,4.6649485825494704e-17,0.33481619425622927,-2.2247288982060294,0.0,0.0,0.0,0.0,0.0,0.0,0,0,0
5.799999999999995,0.13483166563747767,-0.09884290812388398,-0.25000000000036304,0.06976336853607011,-0.019631275359783547,-3.5871305925638808e-12,-0.6325865387916565,-0.24063708040919518,2.0355172395481325,-0.0,0.36486616771394775,-2.203382865586553,0.0,0.0,0.0,0.0,0.0,0.0,0,0,0
5.899999999999995,0.14279340326141118,-0.09973999290319722,-0.2500000000002528,0.0707595800426569,-0.01328772319568011,1.1024514634527804e-12,-0.6097128987312317,-0.19413100667932517,2.012513340849172,2.4644488150594725e-17,0.39419902252011996,-2.1805092255261282,0.0,0.0,0.0,0.0,0.0,0.0,0,0,0
5.999999999999995,0.15080141820453302,-0.0999967873124453,-0.24999999999998204,0.07124165974546258,-0.006885510224712266,2.7075564013046005e-12,-0.5855309963226318,-0.1490999712698716,1.988725982289887,2.5365655567857535e-17,0.42280296817492324,-2.1563273231175284,0.0,0.0,0.0,0.0,0.0,0.0,0,0,0
6.099999999999994,0.15880427610558162,-0.0996116693631161,-0.2500000000000028,0.07120934185086518,-0.00046845011528417243,-2.0733414984874798e-13,-0.5602232813835144,-0.10553647077802285,1.9643195379455716,1.0448266915817347e-16,0.4506612841124525,-2.131019608178411,0.0,0.0,0.0,0.0,0.0,0.0,0,0,0
6.199999999999994,0.16675062389671108,-0.09858710468397455,-0.24999999999997566,0.07066052798751811,0.005925064160086643,2.711719737646945e-13,-0.5339421629905701,-0.0634351014203071,1.9394538828122463,1.0761879148661633e-16,0.47775137751447216,-2.1047384897854666,0.0,0.0,0.0,0.0,0.0,0.0,0,0,0
6.299999999999994,0.17458943047293338,-0.09692966777872797,-0.25000000000001743,0.06959878621138753,0.012253904046152682,-4.1772141301521515e-13,-0.5068163275718689,-0.02279664067318603,1.9142870720189245,-0.0,0.5040436630643114,-2.0776126543667655,0.0,0.0,0.0,0.0,0.0,0.0,0,0,0
6.399999999999993,0.1822703995237789,-0.09464999463554434,-0.2500000000000654,0.06803174116914683,0.01847743999499922,-4.796163466380676e-13,-0.47895506024360657,0.01636926880037469,1.8889776040282067,5.70816794095159e-17,0.5295010575919391,-2.049751387038503,0.0,0.0,0.0,0.0,0.0,0.0,0,0,0
6.499999999999993,0.18974419878953028,-0.09176272421717485,-0.24999999999998226,0.0659692416393542,0.024555656659138954,8.31279489688086e-13,-0.45045211911201477,0.054040777331309756,1.8636873276695163,5.876617664765076e-17,0.5540778603214936,-2.0212484459069113,0.0,0.0,0.0,0.0,0.0,0.0,0,0,0
6.5999999999999925,0.19696287533962561,-0.08828639867846914,-0.2500000000029629,0.06342524252747588,0.03044955660667094,-2.9806435097867734e-11,-0.42138832807540894,0.09018176266882409,1.8385836451591187,6.046856900271171e-17,0.577719358691994,-1.9921846548703053,0.0,0.0,0.0,0.0,0.0,0.0,0,0,0
6.699999999999992,0.20388008242825503,-0.08424332615933779,-0.24999999999556838,0.06041592047131038,0.03612154002650684,7.394529433213393e-11,-0.39183396100997925,0.12473870112381151,1.8138423939212232,1.2435339414815979e-16,0.6003607192870568,-1.9626302878048758,0.0,0.0,0.0,0.0,0.0,0.0,0,0,0
6.799999999999992,0.21045139894396578,-0.07965945451535518,-0.2500000000000022,0.056960610552313246,0.041535289304194374,-4.4338421822942564e-11,-0.3618505895137787,0.15763829293326045,1.7896500950070706,6.387689335210237e-17,0.6219264143927316,-1.9326469163086752,0.0,0.0,0.0,0.0,0.0,0.0,0,0,0
6.8999999999999915,0.21663465225925113,-0.0745642193370029,-0.25000000000000344,0.053081847587500536,0.04665602269756611,-1.2212453270876722e-14,-0.3314925730228424,0.18878528529345373,1.7662057660244928,1.3110740356516057e-16,0.6423298740214354,-1.902288899817739,0.0,0.0,0.0,0.0,0.0,0.0,0,0,0
6.999999999999991,0.22239016843808748,-0.06899032954063565,-0.25000000000000394,0.048804645497261705,0.051451117430386634,-4.9960036108132044e-15,-0.30080822110176086,0.21806004550505184,1.743722530127108,1.0078446052589947e-16,0.66147308628865,-1.8716045478966574,0.0,0.0,0.0,0.0,0.0,0.0,0,0,0
7.099999999999991,0.22768095907819055,-0.06297355264901401,-0.25000000000000333,0.044155867798706644,0.05589010903246643,6.106226635438361e-15,-0.26984086632728577,0.24531635884455757,1.722428622621984,1.3753008020365894e-16,0.6792464316561294,-1.8406371931221823,0.0,0.0,0.0,0.0,0.0,0.0,0,0,0
7.19999999999999,0.2324731047761161,-0.056552529197593,-0.2500000000000023,0.03916702408975199,0.059943760314250145,1.0547118733938987e-14,-0.23862969875335693,0.2703820304453202,1.7025657277053166,3.5129046556115665e-17,0.6955303355124555,-1.8094260255482535,0.0,0.0,0.0,0.0,0.0,0.0,0,0,0
7.29999999999999,0.23673581168784164,-0.04976847082572081,-0.24999999999804678,0.033867270186212994,0.06358234328241437,1.9554913244235195e-11,-0.2072104513645172,0.2930586994102643,1.6843874855913916,1.7911255975048467e-16,0.7101962009673438,-1.7780067781594138,0.0,0.0,0.0,0.0,0.0,0.0,0,0,0
7.39999999999999,0.24044171554728838,-0.04266492888838974,-0.24999999999901334,0.028292118661025486,0.06678672841970687,-9.665601652386613e-12,-0.17561601102352142,0.313126586734141,1.6681538842713302,7.290061973279421e-17,0.7231100563874978,-1.746412337818418,0.0,0.0,0.0,0.0,0.0,0.0,0,0,0
7.499999999999989,0.24356705346449536,-0.03528750218545414,-0.24999999999951064,0.022477997567626796,0.06953652620461138,-4.9729664830522324e-12,-0.14387691020965576,0.33035189780796015,1.6541236066623208,3.699953377279991e-17,0.7341370504226734,-1.7146732370045523,0.0,0.0,0.0,0.0,0.0,0.0,0,0,0
7.599999999999989,0.2460917394938056,-0.027683551587282834,-0.24999999999971753,0.016461673458790245,0.07181389565853655,-2.0689006063889792e-12,-0.11202186346054077,0.34449776121311076,1.6425440848892265,5.618633596873296e-17,0.7431470184178878,-1.6828181902554373,0.0,0.0,0.0,0.0,0.0,0.0,0,0,0
7.699999999999989,0.24799956974880366,-0.01990188793538209,-0.24999999999978278,0.010282093202602122,0.07360424429569681,-6.525335827234358e-13,-0.08007808029651642,0.3553405922957166,1.6336380907633863,9.453199161286711e-17,0.7500221356468386,-1.650874407091413,0.0,0.0,0.0,0.0,0.0,0.0,0,0,0
7.799999999999988,0.24927829926434647,-0.011992466411696143,-0.24999999999978678,0.003979026225383249,0.07489596500059938,-3.9968028886505635e-14,-0.04807168245315552,0.36268845552693185,1.6275897827639347,9.513885097923058e-17,0.754664626052595,-1.618868009248052,0.0,0.0,0.0,0.0,0.0,0.0,0,0,0
7.899999999999988,0.249919724023539,-0.004006061056966019,-0.24999999999977507,-0.002406884971939553,0.07568063401952788,1.1712852909795402e-13,-0.016028018668293953,0.3663999879848509,1.6245311168911232,8.828838389169443e-17,0.7570042662636327,-1.5868243454631905,0.0,0.0,0.0,0.0,0.0,0.0,0,0,0
7.999999999999988,0.1550505065917482,-2.842170943040401e-17,-0.25000000000002676,-0.9580031911752481,0.03511398404601714,-2.51687559682523e-12,0.0,-0.3214437606479951,2.071650653617968,6.438818847411419e-17,0.31438365656151707,-1.5707963267948966,0.0,0.0,0.0,0.0,0.0,0.0,0,0,0
8.099999999999987,0.16515151977505246,-2.842170943040401e-17,-0.2500000000002508,0.09197279990830898,-0.0043887307814908525,-2.240430063693566e-12,0.0,-0.2541306447378743,2.041891443061857,6.533812986918476e-17,0.3563944204507102,-1.5707963267948966,0.0,0.0,0.0,0.0,0.0,0.0,0,0,0
8.199999999999987,0.17525251769968883,-2.842170943040401e-17,-0.2500000000001784,0.09197247876266386,-0.0043981405469514364,7.238654120556021e-13,0.0,-0.18698703349138288,2.008838366296722,6.644442158744136e-17,0.3987236624554562,-1.5707963267948966,0.0,0.0,0.0,0.0,0.0,0.0,0,0,0
8.299999999999986,0.1853535308838131,-2.842170943040401e-17,-0.24999999999999858,0.09197317227474026,-0.004408859180920909,1.7982837441365973e-12,0.0,-0.11964572141188175,1.9723728629470438,6.773032405526013e-17,0.4416188801692435,-1.5707963267948966,0.0,0.0,0.0,0.0,0.0,0.0,0,0,0
8.399999999999986,0.19545454406727225,-2.842170943040401e-17,-0.2499999999999785,0.09197462900908669,-0.004421425755487866,2.0095036745715333e-13,0.0,-0.05164968683442978,1.9322719076478676,6.922773372798292e-17,0.4853624476094028,-1.5707963267948966,0.0,0.0,0.0,0.0,0.0,0.0,0,0,0
8.499999999999986,0.20555555725111152,-2.842170943040401e-17,-0.25000000000006484,0.09198191102395765,-0.004440086553566091,-8.634759574022155e-13,0.0,0.017584184358067207,1.888176297109767,7.098091383577707e-17,0.5302923860931282,-1.5707963267948966,0.0,0.0,0.0,0.0,0.0,0.0,0,0,0
8.599999999999985,0.2156565704373898,-2.842170943040401e-17,-0.2500000000022293,0.09199543901531432,-0.004465895001728468,-2.164435297657974e-11,0.0,0.08883063225697363,1.8395365644134554,7.305278193353635e-17,0.5768346756052103,-1.5707963267948966,0.0,0.0,0.0,0.0,0.0,0.0,0,0,0
8.699999999999985,0.22575756835937738,-2.842170943040401e-17,-0.25000000000000255,0.09201290745105928,-0.0044983442102181186,2.2267188093394452e-11,0.0,0.1631798736724043,1.7855164428484143,7.553613344451377e-17,0.6255581709423693,-1.5707963267948966,0.0,0.0,0.0,0.0,0.0,0.0,0,0,0
8.799999999999985,0.23585858154297262,-2.842170943040401e-17,-0.2500000000000035,0.09203698831288186,-0.004541017074811199,-9.43689570931383e-15,0.0,0.24229136507340177,1.7248081098102108,7.857532071237442e-17,0.6772769197526247,-1.5707963267948966,0.0,0.0,0.0,0.0,0.0,0.0,0,0,0
8.899999999999984,0.24595959472495837,-2.842170943040401e-17,-0.24999999999948172,0.0920698848145345,-0.00460253164228411,5.2177706599820795e-12,0.0,0.32898145671010987,1.6552428049152426,8.24128354973978e-17,0.7332618922476886,-1.5707963267948966,0.0,0.0,0.0,0.0,0.0,0.0,0,0,0
8.999999999999984,0.24494949340625327,-2.842170943040401e-17,-0.24999999999924333,-0.019219693120841534,-0.004133872869392841,2.3839263896263674e-12,0.0,0.31984728265234624,1.6626896257497992,8.198274970095093e-17,0.7274191989786967,-1.5707963267948966,0.0,0.0,0.0,0.0,0.0,0.0,0,0,0
9.099999999999984,0.2348484802246133,-2.842170943040401e-17,-0.2500000000000038,-0.10985689577102435,-0.004335167489413555,-7.60447260717001e-12,0.0,0.23409929159288173,1.7312321085088465,7.824059340570806e-17,0.6719391687640387,-1.5707963267948966,0.0,0.0,0.0,0.0,0.0,0.0,0,0,0
9.199999999999983,0.2247474822998068,-2.842170943040401e-17,-0.2500000000000022,-0.10987170877870946,-0.004289791521228794,1.554312234475219e-14,0.0,0.15556440894671716,1.7911928050884758,7.526572539475414e-17,0.6205671498502516,-1.5707963267948966,0.0,0.0,0.0,0.0,0.0,0.0,0,0,0
9.299999999999983,0.2146464691170177,-2.842170943040401e-17,-0.25000000000061334,-0.10988357580138246,-0.004259062127380435,-6.111222639049174e-12,0.0,0.08158766170333231,1.8446259761812405,7.28289176275755e-17,0.5720931512109388,-1.5707963267948966,0.0,0.0,0.0,0.0,0.0,0.0,0,0,0
9.399999999999983,0.20454545593276255,-2.842170943040401e-17,-0.2500000000000656,-0.10989327539661313,-0.004237220575924814,5.47728529198821e-12,0.0,0.010584947242714231,1.8927794413757733,7.079247917339637e-17,0.525734754051812,-1.5707963267948966,0.0,0.0,0.0,0.0,0.0,0.0,0,0,0
9.499999999999982,0.1944444427488798,-2.842170943040401e-17,-0.24999999999997582,-0.10989720566514258,-0.004222248602397764,8.978928711655954e-13,0.0,-0.058494150203554564,1.9364545712058374,6.906733338447704e-17,0.4809408387216544,-1.5707963267948966,0.0,0.0,0.0,0.0,0.0,0.0,0,0,0
9.599999999999982,0.184343429565544,-2.842170943040401e-17,-0.24999999999998934,-0.10989678827102246,-0.004212233761213465,-1.351696532481128e-13,0.0,-0.12640093826865884,1.9761783917074107,6.759282393982788e-17,0.4372961970137919,-1.5707963267948966,0.0,0.0,0.0,0.0,0.0,0.0,0,0,0
9.699999999999982,0.17424243163997608,-2.842170943040401e-17,-0.2500000000002483,-0.10989528220335473,-0.004205450466280184,-2.5895952049381776e-12,0.0,-0.19370351677164085,2.0122944863602092,6.632615380180712e-17,0.39446963277432856,-1.5707963267948966,0.0,0.0,0.0,0.0,0.0,0.0,0,0,0
9.799999999999981,0.16414141845679917,-2.842170943040401e-17,-0.25000000000018846,-0.1098933218830926,-0.0042011938737282475,5.984102102729594e-13,0.0,-0.26084893562414024,2.045014426550217,6.523642280743852e-17,0.35218287002372467,-1.5707963267948966,0.0,0.0,0.0,0.0,0.0,0.0,0,0,0
9.89999999999998,0.1540404052733602,-2.842170943040401e-17,-0.2500000000000491,-0.10989057750181068,-0.004198955091209828,1.3933298959045715e-12,0.0,-0.32819633502426027,2.0744473340478264,6.430109662277367e-17,0.3101912669486011,-1.5707963267948966,0.0,0.0,0.0,0.0,0.0,0.0,0,0,0
9.99999999999998,0.15101010131823603,-2.842170943040401e-17,-0.2500000000001015,-0.03938541260267224,-0.004145767481390182,-5.234701561107613e-13,0.0,-0.3484848444435899,2.0826419055333454,6.404802701706192e-17,0.2976174117500157,-1.5707963267948966,0.0,0.0,0.0,0.0,0.0,0.0,0,0,0
