Suke0811/REMS/test_robot.csv
timestamp,x,y,z,d_x,d_y,d_z,j.0,j.1,j.2,j.3,j.4,j.5,d_j.0,d_j.1,d_j.2,d_j.3,d_j.4,d_j.5,h2_norm,h2_norm_x,h2_norm_y
0.25,0.0,0.0,0.0,-0.3533882946841911,-1.397208199168966,1.1888777233524974,-3.2568845814903914e-06,-0.0001225607351952018,1.570734944978161,1.0891391254114393e-05,7.8109056876369e-05,2.1250988961943782e-05,0.0,0.0,0.0,0.0,0.0,0.0,0.0,0.0,0.0
0.5,0.0,0.0,0.0,-0.06292800863447012,-1.3972226055048345,1.2730930135446696,-2.93119612334159e-06,-0.3875357599256411,1.5367810008119904,0.03758328448789939,0.0820908267908096,-0.1604076061765718,0.0,0.0,0.0,0.0,0.0,0.0,2.426432265130914,1.441015199696844,1.952190751824985
0.75,0.0,0.0,0.0,-0.04987116533458025,-1.4006514868566327,1.2723322771469001,0.007685345585379022,-0.40671113579805535,1.5399449323697598,0.040291393180662306,0.15085375606348378,-0.296009057258867,0.0,0.0,0.0,0.0,0.0,0.0,3.027769679251187,1.4410843635602546,2.6628302776735455
1.0,0.0,0.0,0.0,-0.16407867671458876,-1.4097122937431874,1.2521839898979141,0.02225801990202041,-0.2574663035179972,1.5565718955243724,0.030861795240654737,0.2067061751051845,-0.4014814563741991,0.0,0.0,0.0,0.0,0.0,0.0,3.5373558076786336,1.4412142291709082,3.2304469746078577
1.25,0.0,0.0,0.0,-0.1935389223617059,-1.4227906878097922,1.2404854573530775,0.043268358520605905,-0.22166888959427472,1.5694392780920494,0.029084370374234232,0.2560653438770656,-0.49451955164878225,0.0,0.0,0.0,0.0,0.0,0.0,4.005956799720423,1.4412171960092666,3.7377242909494375
1.5,0.0,0.0,0.0,-0.15353286775841624,-1.435791443742373,1.243360629664443,0.06994603199834115,-0.279345130829388,1.5796813347205556,0.03488397660867353,0.2973549013219043,-0.5717805016080906,0.0,0.0,0.0,0.0,0.0,0.0,4.437020764654678,1.4412301624432835,4.1964281102909995
1.75,0.0,0.0,0.0,-0.1364301197091664,-1.4523793733031711,1.2376434475277427,0.10153840294248898,-0.30762857333376364,1.597727313587035,0.036741421446522184,0.32875511247717265,-0.6312562828852721,0.0,0.0,0.0,0.0,0.0,0.0,4.163370304387212,0.047390864530519994,4.163100574981622
2.0,0.0,0.0,0.0,-0.1455158037834341,-1.4729951566218644,1.224329225785957,0.13729109445900056,-0.3014438595203717,1.6230823112178618,0.03508854284870049,0.350638936512565,-0.6761891976967961,0.0,0.0,0.0,0.0,0.0,0.0,4.144696169980333,0.12278426608846345,4.142877063762665
2.25,0.0,0.0,0.0,-0.14459568656554556,-1.494607336602787,1.2107232877193477,0.17642006349286735,-0.30860501442342586,1.6520273583180773,0.03395741653537337,0.36404489032949494,-0.7101956928581059,0.0,0.0,0.0,0.0,0.0,0.0,4.044101560854528,0.2514668948077858,4.036275738266868
2.5,0.0,0.0,0.0,-0.12769773186729494,-1.514339250740547,1.1983498258578746,0.2180691993688461,-0.337350168388406,1.6835739621077521,0.033833458479387145,0.36936158073916975,-0.7346649732616577,0.0,0.0,0.0,0.0,0.0,0.0,3.858216644683278,0.399950959924999,3.837430769012799
2.75,0.0,0.0,0.0,-0.10763569437601328,-1.5331134838397693,1.1846630739989628,0.26144966809048503,-0.3702636260487611,1.7183442272572793,0.033276004023114446,0.36645932562337263,-0.7509928200285927,0.0,0.0,0.0,0.0,0.0,0.0,3.6107054978644975,0.5240259531280709,3.5724768708498487
3.0,0.0,0.0,0.0,-0.11451117588511406,-1.538774643307245,1.1694532738160437,0.30502510662163124,-0.4005845172333547,1.7554188590091804,0.03189060132227659,0.35596179436446723,-0.7616307067465495,0.0,0.0,0.0,0.0,0.0,0.0,3.350979012778139,0.5978282702139588,3.2972202994966135
3.25,0.0,0.0,0.0,-0.09412255132389147,-1.5541862382144118,1.1540005135012594,0.34704813893394015,-0.4334131323705746,1.7932851856297023,0.030067232823953426,0.3382396722475031,-0.7689421652913916,0.0,0.0,0.0,0.0,0.0,0.0,3.1237995322447967,0.6237869949080282,3.0608843987704635
3.5,0.0,0.0,0.0,-0.07065213063982312,-1.5649000179179215,1.1392067765814444,0.3848681706406743,-0.47138431871579606,1.8303613433508024,0.028004727894832007,0.3136487021189622,-0.7759707964319856,0.0,0.0,0.0,0.0,0.0,0.0,2.9998434286932114,0.6067349655584091,2.9378450058236014
3.75,0.0,0.0,0.0,-0.04664563726854465,-1.5695922418409798,1.125492060931198,0.41409202738565837,-0.5121656104456536,1.865118778815725,0.025641965067871423,0.2826716041822361,-0.7874430279428513,0.0,0.0,0.0,0.0,0.0,0.0,2.9861383635584575,0.537281548949975,2.9374054646019676
4.0,0.0,0.0,0.0,-0.017047513477655984,-1.5713284450206175,1.1016703221770034,0.4387321361145351,-0.5816186658756282,1.9244195121548864,0.020151600570396,0.21365939007422202,-0.8327160358092176,0.0,0.0,0.0,0.0,0.0,0.0,3.0727598654651884,0.4320015883268043,3.0422405918166233
4.25,0.0,0.0,0.0,-0.027718160730567876,-1.5403417237952546,1.092023824130566,0.4223139126516259,-0.6141137684352667,1.9484620298602606,0.01743800445685012,0.17796850139981774,-0.8788957737300247,0.0,0.0,0.0,0.0,0.0,0.0,3.2393237929257728,0.3356381021631423,3.2218885300071043
4.5,0.0,0.0,0.0,-0.02243815501996549,-1.5150139553520345,1.0834184538371536,0.3689498258605787,-0.6440538159599205,1.969762283032083,0.01488295338621478,0.1444984970389795,-0.95896235043557,0.0,0.0,0.0,0.0,0.0,0.0,3.461943379896731,0.2693037081819951,3.4514529517828034
4.75,0.0,0.0,0.0,-0.02557995841058025,-1.4826848656869116,1.0749332469035333,0.2876151460088958,-0.6629202084894374,1.990398890959027,0.0124769551763134,0.11876893807606964,-1.0641777280727835,0.0,0.0,0.0,0.0,0.0,0.0,3.7238086228426535,0.21737346299847274,3.717458733750968
5.0,0.0,0.0,0.0,-0.03331626231800344,-1.448172214448831,1.0667655883871312,0.19566194334724574,-0.670997254259162,2.010140603218265,0.010460153044801669,0.10334690555274068,-1.1775984143580374,0.0,0.0,0.0,0.0,0.0,0.0,3.970568644885651,0.17615623507945838,3.9666590910477435
5.25,0.0,0.0,0.0,-0.019072322975101308,-1.4324610554418988,1.0596535369451556,0.10492586003928507,-0.6732112383967777,2.0272679230709083,0.009102513122240495,0.09824850021119963,-1.287893833799845,0.0,0.0,0.0,0.0,0.0,0.0,4.166670369579315,0.13899016295643707,4.164351534552717
5.5,0.0,0.0,0.0,-0.06651753106008118,-1.3739203424055448,1.0542537732079353,0.02147244430055431,-0.6721287461430339,2.0401649972072193,0.008450890689748684,0.10244369519184254,-1.389343456708401,0.0,0.0,0.0,0.0,0.0,0.0,4.330845007458977,0.10930116334368718,4.329465525249515
5.75,0.0,0.0,0.0,-0.07064818204565171,-1.3450813764237193,1.050950312711735,-0.05189158603724649,-0.6674036482910135,2.0478047248159563,0.00837552671230251,0.11465702173807418,-1.479282532514615,0.0,0.0,0.0,0.0,0.0,0.0,4.456667574354561,0.10229321865352017,4.455493459283816
6.0,0.0,0.0,0.0,-0.07464279811745622,-1.3199558386047507,1.0499195132635835,-0.1140508361325575,-0.6582908248194541,2.0496548385978905,0.008726804095308675,0.13365645705596568,-1.5566820262036534,0.0,0.0,0.0,0.0,0.0,0.0,4.6170891310791875,0.11760878545458604,4.615590993352147
6.25,0.0,0.0,0.0,-0.07919618113171945,-1.2986084503584374,1.0512278086762827,-0.16477834948890624,-0.6449543544572616,2.045534685719127,0.009403809848462584,0.15831971914733328,-1.6214098938488826,0.0,0.0,0.0,0.0,0.0,0.0,4.848441237637578,0.14215003251051678,4.84635696199546
6.5,0.0,0.0,0.0,-0.09503389798524431,-1.2729321557648292,1.0583423221914843,-0.2399128865488818,-0.61671311332094,2.02638756129457,0.011393015260014523,0.2140015894008524,-1.7211126535265737,0.0,0.0,0.0,0.0,0.0,0.0,5.1443179662173675,0.17308174229703416,5.141405454545501
6.75,0.0,0.0,0.0,-0.1375844867892635,-1.23217472981162,1.0639686921132274,-0.2652187399228022,-0.5998422974297775,2.011722209179046,0.012532379538286918,0.24436356609287707,-1.7570957926938333,0.0,0.0,0.0,0.0,0.0,0.0,5.407188087663722,0.21294383155502591,5.402993424017387
7.0,0.0,0.0,0.0,-0.1451725371736865,-1.222991600761679,1.0715601353118196,-0.28083569873806286,-0.5784918401855008,1.992092066273512,0.01373187245110228,0.27777206523280856,-1.782418218278285,0.0,0.0,0.0,0.0,0.0,0.0,5.612420144417613,0.2733803981777025,5.605758025045035
7.25,0.0,0.0,0.0,-0.15416133383282693,-1.2173056887884979,1.0809841522735872,-0.28742365005108517,-0.5553958204773468,1.9681614358230504,0.015064355095057665,0.31329290189718323,-1.7978754220086568,0.0,0.0,0.0,0.0,0.0,0.0,5.7339257806002575,0.3694649488798657,5.722010180782752
7.5,0.0,0.0,0.0,-0.16393284105885209,-1.215251319800187,1.091929695438058,-0.2856653716787052,-0.5319355735437181,1.94088767597832,0.016540523241332927,0.34995213163844524,-1.8042432931120145,0.0,0.0,0.0,0.0,0.0,0.0,5.748575050890391,0.49083810395493294,5.727581782168229
7.75,0.0,0.0,0.0,-0.18828038275275305,-1.2248739574119578,1.1148620678940353,-0.2677612545754239,-0.4893128443046155,1.885013340749786,0.019748736378847765,0.4197547827692522,-1.800575135343074,0.0,0.0,0.0,0.0,0.0,0.0,5.651729746397913,0.6331979330362507,5.616147211738457
8.0,0.0,0.0,0.0,-0.30241996464660237,-1.1709873912346394,1.1364857670933293,-0.2381707702635961,-0.45159611794867693,1.8330704366759139,0.0229972006221059,0.4812288048155681,-1.7828097581714002,0.0,0.0,0.0,0.0,0.0,0.0,5.504352243494028,0.7760878079497173,5.449365223107141
8.25,0.0,0.0,0.0,-0.3111814062492808,-1.1794266149170423,1.1465110299901573,-0.2175589877718005,-0.4344740221342074,1.8091291309785844,0.024599786310455705,0.508711449636617,-1.7673110224629014,0.0,0.0,0.0,0.0,0.0,0.0,5.248189679921497,0.8531376330147122,5.178383058018067
8.5,0.0,0.0,0.0,-0.3190331831070281,-1.1887518264183878,1.1556708806023794,-0.19612365925863207,-0.41923769622550666,1.787354214446792,0.026195095000946824,0.5335471011101618,-1.7505200235248783,0.0,0.0,0.0,0.0,0.0,0.0,4.9138230771907985,0.9225576928234307,4.826442223558172
8.75,0.0,0.0,0.0,-0.3261035730006878,-1.2015011461529932,1.1636122197853003,-0.16882330967087883,-0.4065418369803173,1.7685855963470556,0.027717206131136634,0.5552176780742497,-1.7273528320492468,0.0,0.0,0.0,0.0,0.0,0.0,4.538191435339065,0.9667494555922186,4.434024920306266
9.0,0.0,0.0,0.0,-0.33175269769910054,-1.2172649833178475,1.1697416296217493,-0.13659976982861166,-0.3973072087784868,1.7542136438948757,0.029106826772182372,0.5727585607288024,-1.6987093881387312,0.0,0.0,0.0,0.0,0.0,0.0,4.146518233595876,0.9781620114902547,4.029492839157356
9.25,0.0,0.0,0.0,-0.4588157090887668,-1.1410455655648617,1.173531401186111,-0.09970365223696297,-0.39205826400298216,1.7454191390806781,0.0302793327812839,0.5853009930486358,-1.6647520477886244,0.0,0.0,0.0,0.0,0.0,0.0,3.756838588702964,0.9608031469822716,3.6318994333979906
9.5,0.0,0.0,0.0,-0.4607004730189532,-1.1620041232705833,1.1746969203732496,-0.058728777683470824,-0.3908798828240818,1.7427980727314512,0.031167354075692693,0.5923230081196039,-1.6259797076127454,0.0,0.0,0.0,0.0,0.0,0.0,3.4076312663502217,0.9137631931075385,3.282832264117302
9.75,0.0,0.0,0.0,-0.4603623357680098,-1.1848415945357056,1.1731689429449954,-0.014268925771141812,-0.3937707350807611,1.7464885570843873,0.03173930628840972,0.593544242946947,-1.5829305111225471,0.0,0.0,0.0,0.0,0.0,0.0,3.0938880248135114,0.8365019122519917,2.97865870164462
10.0,0.0,0.0,0.0,-0.4574976213682578,-1.2090088532095618,1.1690576626198201,0.03306449861673288,-0.4007514997731838,1.7562663446523152,0.03199484785178916,0.5888609024476521,-1.5362576808149921,0.0,0.0,0.0,0.0,0.0,0.0,2.781654046055065,0.7374957745169024,2.68210723396814
10.25,0.0,0.0,0.0,-0.4448881164313643,-1.2440487839435888,1.1626079947179073,0.08261612723482645,-0.41188609102304263,1.771637751216422,0.03194163293471952,0.5782852171692684,-1.4867861045879134,0.0,0.0,0.0,0.0,0.0,0.0,2.47075944904586,0.6133256019545725,2.3934251525870747
10.5,0.0,0.0,0.0,-0.5237950383761731,-1.1772165282955143,1.1541660852174578,0.1336456567366093,-0.42728849513972045,1.791902644060468,0.03157436019887774,0.5618981075663195,-1.435514511900807,0.0,0.0,0.0,0.0,0.0,0.0,2.134512813770053,0.4525412119642572,2.085989310524498
10.75,0.0,0.0,0.0,-0.5112854799450557,-1.2011840494910175,1.1440749825599448,0.18546847972147193,-0.4474054005109456,1.8164062339274696,0.030861246994275678,0.5395111236167488,-1.3833753505189947,0.0,0.0,0.0,0.0,0.0,0.0,1.9216682631451805,0.3692049592143643,1.885867601840313
11.0,0.0,0.0,0.0,-0.49557602020243485,-1.2232154599874268,1.1329040418338632,0.23664203708951945,-0.47167016936385764,1.843820166568412,0.02976922355342535,0.5115637238608951,-1.3319834015953405,0.0,0.0,0.0,0.0,0.0,0.0,1.7473018169468193,0.2848749474389125,1.7239228242085936
11.25,0.0,0.0,0.0,-0.47711429912651604,-1.242224029845313,1.1211988914012783,0.28550337635503953,-0.49976950180180024,1.8728766515161808,0.028275446680287628,0.47818018715513133,-1.2830627650531434,0.0,0.0,0.0,0.0,0.0,0.0,1.6220390976989838,0.2041434220629077,1.609141478457559
11.5,0.0,0.0,0.0,-0.39498325635359066,-1.2383466718748801,1.109575917694967,0.32947788431966374,-0.5311856745102057,1.90207924103685,0.026382698857194548,0.43952000465144525,-1.2391647764230418,0.0,0.0,0.0,0.0,0.0,0.0,1.5477750830170671,0.12853347823720565,1.5424288808825952
11.75,0.0,0.0,0.0,-0.4584236194202318,-1.2423933232835305,1.0986785017188312,0.3642407696967489,-0.5649143104057632,1.9297594475210293,0.02411500310079738,0.39591994727765745,-1.2045397103501678,0.0,0.0,0.0,0.0,0.0,0.0,1.5051230019263533,0.041446129463369105,1.5045522487704783
12.0,0.0,0.0,0.0,-0.4395630094426155,-1.2432216246690206,1.0890530803462735,0.382194373743996,-0.5992356330846618,1.954369493575776,0.021527230826550604,0.3483173190583172,-1.1866907183451068,0.0,0.0,0.0,0.0,0.0,0.0,1.5955805426945264,0.01903770869290013,1.5954669642061172
12.25,0.0,0.0,0.0,-0.42612422564067676,-1.2331425954843531,1.0808161771245475,0.3714299265181407,-0.6313028827451328,1.9753352016436714,0.018725443801776067,0.2992326508688471,-1.1974406142071659,0.0,0.0,0.0,0.0,0.0,0.0,1.7457389601808553,0.01505151070569604,1.745674072992668
12.5,0.0,0.0,0.0,-0.42119803323479554,-1.211029524593163,1.073321435280275,0.32315423834044205,-0.6567798425910278,1.9940462779473758,0.015886466416035968,0.25369856140309766,-1.2455368041006583,0.0,0.0,0.0,0.0,0.0,0.0,1.9330596394973465,0.02596459867166268,1.9328852551223599
12.75,0.0,0.0,0.0,-0.38803131085173037,-1.19239454451762,1.0658681159345165,0.24639911724077285,-0.6721262049117978,2.0123261727143986,0.013255573291074973,0.21711345596367237,-1.3219951074104546,0.0,0.0,0.0,0.0,0.0,0.0,2.1330634797080825,0.04203765922299417,2.13264920783316
13.0,0.0,0.0,0.0,-0.4359734215168629,-1.1441729345541083,1.0586548455172118,0.15856751745593506,-0.6786159172039756,2.0298751861778217,0.011126866347469438,0.19190513626008665,-1.4096020613457059,0.0,0.0,0.0,0.0,0.0,0.0,2.342443858438461,0.05326001720168493,2.3418382951228165
13.25,0.0,0.0,0.0,-0.4422083144369835,-1.1111761867721537,1.0523947572886094,0.07154087673710548,-0.6799991716717155,2.0450107791747176,0.009710877366473674,0.17796669977350532,-1.496699889414472,0.0,0.0,0.0,0.0,0.0,0.0,2.495805371721207,0.07444793047792679,2.494694762723485
13.5,0.0,0.0,0.0,-0.4467158061447254,-1.080232064782526,1.0477378415000331,-0.008574040671407337,-0.6781235247311086,2.056129119292858,0.009011922614727674,0.17418039745460578,-1.5772550649985442,0.0,0.0,0.0,0.0,0.0,0.0,2.60478575067663,0.08053594096016839,2.603540429711372
13.75,0.0,0.0,0.0,-0.4501624783663436,-1.0524804320404018,1.0450808966987872,-0.07893342251201196,-0.6726426505546468,2.062177819472025,0.008895401223451959,0.17919999013571652,-1.6483515048296202,0.0,0.0,0.0,0.0,0.0,0.0,2.709096295694566,0.07959995856618003,2.7079266212255977
14.0,0.0,0.0,0.0,-0.36760744389305366,-0.9909646199892033,1.044423958657283,-0.1918980487628974,-0.6588420961223784,2.0627400772798308,0.009751972157658283,0.20300458464787485,-1.7632974804326351,0.0,0.0,0.0,0.0,0.0,0.0,2.8386687313730086,0.07314485227465649,2.837726201919516
14.25,0.0,0.0,0.0,-0.4793509995581857,-0.940949695863711,1.0481653229733616,-0.27348935374019545,-0.638802556009562,2.0521792249919417,0.01119498761816155,0.23667455159712947,-1.8470377664395945,0.0,0.0,0.0,0.0,0.0,0.0,2.969715065085375,0.06541029374793848,2.9689946212930134
14.5,0.0,0.0,0.0,-0.48284553306334277,-0.9274535588286604,1.052131634330059,-0.30216274650452735,-0.6238967043900625,2.0414798274582195,0.012058927096373028,0.25814426964433,-1.8767851680206507,0.0,0.0,0.0,0.0,0.0,0.0,3.1461001979181558,0.03964084500178012,3.145850450791996
14.75,0.0,0.0,0.0,-0.48900592024330813,-0.9169501383171438,1.058206968391791,-0.3212436138828832,-0.604426614202962,2.0254010957472217,0.013052333906616278,0.284095754949956,-1.8969538550053477,0.0,0.0,0.0,0.0,0.0,0.0,3.342551128748587,0.021632178508361924,3.342481128914782
15.0,0.0,0.0,0.0,-0.49674342267700045,-0.9097389264651872,1.0663325957245466,-0.33125808530213574,-0.5827868431144299,2.004400896146213,0.014222042848959556,0.31354078733516266,-1.9080985171196456,0.0,0.0,0.0,0.0,0.0,0.0,3.506505272714489,0.013727828133611649,3.506478400662016
15.25,0.0,0.0,0.0,-0.47746039092621406,-0.9195657376140646,1.0854891764975538,-0.3341949393497043,-0.5420523922903251,1.9564300217725896,0.016946053746725368,0.3742498284780432,-1.9133599864373902,0.0,0.0,0.0,0.0,0.0,0.0,3.603455455187856,0.0246886933926247,3.603370878211357
15.5,0.0,0.0,0.0,-0.5857124887734524,-0.7904601706349039,1.0960981378425902,-0.32775953204746244,-0.5212368303752979,1.9302767334243218,0.01837377234559665,0.40481607467898895,-1.9080575234063337,0.0,0.0,0.0,0.0,0.0,0.0,3.660845289544012,0.06506310187574728,3.660267070413153
15.75,0.0,0.0,0.0,-0.5965257341654693,-0.7936020925585697,1.1076239311122125,-0.31412689648254394,-0.4987332237103135,1.901997063886879,0.019831300434875514,0.43607573387401943,-1.895529827572143,0.0,0.0,0.0,0.0,0.0,0.0,3.525572720959657,0.08029534580693197,3.5246582342429496
16.0,0.0,0.0,0.0,-0.6076627871073301,-0.8002323440640977,1.119566312110003,-0.2939163931803436,-0.4770610876054526,1.8730513908487398,0.02137691325593779,0.4668190795229338,-1.8764314535573792,0.0,0.0,0.0,0.0,0.0,0.0,3.310397799629329,0.11495852916851783,3.308401143809818
16.25,0.0,0.0,0.0,-0.6182328112184916,-0.8104312129495401,1.1312267361742878,-0.2677300483968733,-0.4577001769842395,1.8451743553483673,0.02299443690259592,0.49576617025201764,-1.8513604254063465,0.0,0.0,0.0,0.0,0.0,0.0,3.03814607199803,0.1544084611064321,3.0342197649372404
16.5,0.0,0.0,0.0,-0.6274273640865977,-0.8215093644811328,1.1419187363266152,-0.2412776138211976,-0.44086497687540316,1.819843403658457,0.024627450526844778,0.5219141537847883,-1.8260087387577353,0.0,0.0,0.0,0.0,0.0,0.0,2.7151656875994807,0.19437457062052046,2.7081992610245007
16.75,0.0,0.0,0.0,-0.6889070996935056,-0.6904242678005019,1.1512250777083153,-0.2094618687771878,-0.42646314520357476,1.797889959823403,0.026173701089391987,0.544760469600243,-1.7951932997695472,0.0,0.0,0.0,0.0,0.0,0.0,2.3180027191880574,0.22432608757471562,2.3071225395710235
17.0,0.0,0.0,0.0,-0.6960371379441403,-0.7076373973327076,1.158576179913921,-0.17317447302428973,-0.4155469672630827,1.7806583552507118,0.027584003094424207,0.5633537170681382,-1.7597449616862622,0.0,0.0,0.0,0.0,0.0,0.0,2.0265149268583804,0.23690560532219274,2.0126198058616915
17.25,0.0,0.0,0.0,-0.701184927828491,-0.727605263182617,1.1634845859156577,-0.1326208851130732,-0.4088960121150915,1.7692809655261663,0.02879174395636045,0.5768374251733446,-1.7197707022919357,0.0,0.0,0.0,0.0,0.0,0.0,1.7482015001141613,0.23775969312288084,1.7319580864811706
17.5,0.0,0.0,0.0,-0.7041246292326624,-0.749870449122833,1.16567588051268,-0.08835428727197006,-0.40658171213726213,1.7643247728645668,0.029725884389004913,0.5847016730793632,-1.6756967742066484,0.0,0.0,0.0,0.0,0.0,0.0,1.4626005825159292,0.226094752624086,1.445019593919677
17.75,0.0,0.0,0.0,-0.6356209432957325,-0.8004990675374923,1.1650752568090854,-0.04093188440079112,-0.40846249201969,1.7659091898339274,0.030342189655737255,0.5866778644337588,-1.6279630424679241,0.0,0.0,0.0,0.0,0.0,0.0,1.1811562368961792,0.19983505153970665,1.1641288623407917
18.0,0.0,0.0,0.0,-0.7223379236749867,-0.7302917859208813,1.1617924856156379,0.009067835850048486,-0.4144623425488716,1.7737899009490126,0.030636110488091707,0.5826730014521446,-1.5771061078864013,0.0,0.0,0.0,0.0,0.0,0.0,0.9173486503333648,0.17060467322396564,0.9013448794676707
18.25,0.0,0.0,0.0,-0.7174339238098573,-0.75621401715084,1.1560790496391122,0.061019130744810496,-0.42460296572212464,1.7874506095893632,0.03062173862078576,0.57270839952778,-1.523839453485624,0.0,0.0,0.0,0.0,0.0,0.0,0.7890767574712648,0.14615143093601002,0.7754236831672875
18.5,0.0,0.0,0.0,-0.7093187908000709,-0.7820369740850992,1.1482912177612146,0.11420835989559495,-0.4389911857860276,1.806169254301047,0.03030344034531867,0.5568721443193273,-1.469085637331839,0.0,0.0,0.0,0.0,0.0,0.0,0.6618219096187926,0.11917858564534868,0.6510028454431206
18.75,0.0,0.0,0.0,-0.6975641068005438,-0.806972079744682,1.1387842105042811,0.16797491256455904,-0.4581062977115402,1.829271892860898,0.029655218716257266,0.5349817175143362,-1.413742737322804,0.0,0.0,0.0,0.0,0.0,0.0,0.555559035257631,0.09456364332105373,0.547451878267157
19.0,0.0,0.0,0.0,-0.5767248473233582,-0.8846142607659794,1.1281399638215883,0.22089782664829782,-0.481423388335001,1.8554149734936014,0.028643348625941943,0.5074820230784743,-1.359412554238518,0.0,0.0,0.0,0.0,0.0,0.0,0.47168175899674486,0.0752775670318347,0.4656360914620246
19.25,0.0,0.0,0.0,-0.66967904285074,-0.8752013069181799,1.116911471332573,0.2713335869579401,-0.5086487172816478,1.8833194638316004,0.02723947916046235,0.4745025196510114,-1.3078091656479118,0.0,0.0,0.0,0.0,0.0,0.0,0.40807745572440224,0.018177165719101405,0.40767241814589544
19.5,0.0,0.0,0.0,-0.6497386346004035,-0.8907558537558486,1.1057189638035694,0.3167250738622742,-0.5392589723301247,1.9114799717915676,0.02543995396618571,0.4362074316709833,-1.2614700432921329,0.0,0.0,0.0,0.0,0.0,0.0,0.42240482118665246,0.028071624745858115,0.4214710154279361
19.75,0.0,0.0,0.0,-0.6292460051792239,-0.9004041011619807,1.0952088820798793,0.3527632402850983,-0.5722354337114299,1.9382198756373223,0.023263818146303704,0.3929376698446928,-1.2246283736191028,0.0,0.0,0.0,0.0,0.0,0.0,0.47184351208059533,0.05626100279296167,0.4684773201098227
20.0,0.0,0.0,0.0,-0.6105923316702946,-0.9019638264559884,1.085931211938661,0.37186459727351046,-0.6058419275910394,1.9619835201565805,0.020762752414652724,0.34563399050920995,-1.2047693367087753,0.0,0.0,0.0,0.0,0.0,0.0,0.5537786934201927,0.08623742069744887,0.5470228044219244
20.25,0.0,0.0,0.0,-0.46731687689493984,-0.9405386771254135,1.070541292513601,0.35337480507377766,-0.6585505589801559,2.0007103373786426,0.015258304452847135,0.252860150640143,-1.2215179107578689,0.0,0.0,0.0,0.0,0.0,0.0,0.6650422548223068,0.1179091043077394,0.6545064123600965
20.5,0.0,0.0,0.0,-0.5779146653959395,-0.9121399796755091,1.0640240701525483,0.3069046290405153,-0.6795482396212345,2.016970470132772,0.012723821038482921,0.21195569668982184,-1.26704941336253,0.0,0.0,0.0,0.0,0.0,0.0,0.8176669495830405,0.12206362362799099,0.8085046148459752
20.75,0.0,0.0,0.0,-0.5803584306243192,-0.8833747741770552,1.0575888590245228,0.23177446887083875,-0.6937135953074307,2.032899408046099,0.010516567131385629,0.17954728260214214,-1.3412915035607356,0.0,0.0,0.0,0.0,0.0,0.0,0.991364482330246,0.1637692032658828,0.977743926029497
21.0,0.0,0.0,0.0,-0.5867890455293843,-0.8516152709206775,1.0512996035706357,0.14540533392299437,-0.6986061065837226,2.048356952418208,0.008730546296937647,0.15809597951954057,-1.4269329247858606,0.0,0.0,0.0,0.0,0.0,0.0,1.1607330677118448,0.21082942272127664,1.1414255161834974
21.25,0.0,0.0,0.0,-0.5935691866018087,-0.8198247993886145,1.0458372325256742,0.05969491155745886,-0.6975953011354186,2.0616559554314295,0.0075580245300353455,0.14753727188936605,-1.5122754736115422,0.0,0.0,0.0,0.0,0.0,0.0,1.299259814385195,0.2458414816035364,1.2757891797625613
21.5,0.0,0.0,0.0,-0.49828559586452337,-0.8218166504171204,1.041875705576991,-0.019235409333089273,-0.6934916574533321,2.0711226371583247,0.007058635977088529,0.14679381808300251,-1.5912683505689154,0.0,0.0,0.0,0.0,0.0,0.0,1.4090020589928232,0.2591588794924818,1.384963348766391
21.75,0.0,0.0,0.0,-0.604165889197005,-0.7643544473675761,1.0398370779013493,-0.08852865430752571,-0.6862966281120242,2.0756679222153873,0.007125388580160319,0.15455304906304612,-1.66096020928366,0.0,0.0,0.0,0.0,0.0,0.0,1.521903007125201,0.2601495559007382,1.4995035750745573
22.0,0.0,0.0,0.0,-0.6080631141355015,-0.7408037478043439,1.0399190876874023,-0.1470241975758088,-0.6751042328665,2.0747276927715004,0.007608608871500416,0.1695442671699775,-1.7200904237512007,0.0,0.0,0.0,0.0,0.0,0.0,1.6202397722248834,0.2452150390214052,1.601576256110546
22.25,0.0,0.0,0.0,-0.6127333530472012,-0.7207794433948376,1.0422010700890396,-0.19445437478783242,-0.6598404010674876,2.068099669008268,0.008400563829408847,0.19060496168014318,-1.7683356541693849,0.0,0.0,0.0,0.0,0.0,0.0,1.7649551913582866,0.2087611080505072,1.7525654416506364
22.5,0.0,0.0,0.0,-0.6184545881407446,-0.7042810977459272,1.0466892745983953,-0.23103126544740063,-0.6411526591313241,2.055858537183005,0.009434730704448974,0.21667472107007557,-1.8058686989109154,0.0,0.0,0.0,0.0,0.0,0.0,1.9575413931651744,0.15928285314837504,1.951050301414078
22.75,0.0,0.0,0.0,-0.5331176471345389,-0.7152326777525237,1.0594954363253914,-0.28079989486713086,-0.6039510401203212,2.0223981150919648,0.011956999916319572,0.2738550968642671,-1.8577777155649513,0.0,0.0,0.0,0.0,0.0,0.0,2.148004330742878,0.11303933941258101,2.145027904861689
23.0,0.0,0.0,0.0,-0.6546909963402432,-0.59063325399373,1.0676130063995144,-0.29485873818795866,-0.583777519872644,2.001625839836955,0.01330955373120675,0.3043200769945703,-1.8729256962029284,0.0,0.0,0.0,0.0,0.0,0.0,2.3141094477766764,0.10614368182173742,2.311673864345617
23.25,0.0,0.0,0.0,-0.6638499898123162,-0.5854247551730901,1.0774038134277377,-0.3000443855559914,-0.5601813469056895,1.9767430389892122,0.014698004852647384,0.33719186455042494,-1.8791856279023316,0.0,0.0,0.0,0.0,0.0,0.0,2.3462634111180938,0.078289727012128,2.344956868045952
23.5,0.0,0.0,0.0,-0.6741977314473471,-0.5836755845124068,1.0886325676212667,-0.2970240336331208,-0.5356897602879171,1.9486414885995864,0.016192314198081245,0.3714667959476773,-1.8772623749392343,0.0,0.0,0.0,0.0,0.0,0.0,2.3115534524217463,0.05189581190635309,2.3109708323796463
23.75,0.0,0.0,0.0,-0.6849806725169068,-0.5855505194082351,1.1008702086498392,-0.28646494790963645,-0.5117425302153618,1.918529085681706,0.017805823080015232,0.40606650792571164,-1.8678327645452557,0.0,0.0,0.0,0.0,0.0,0.0,2.20250321693729,0.03134319933517716,2.202280187549837
24.0,0.0,0.0,0.0,-0.4713875517592836,-0.636286988462947,1.1250162559269723,-0.25332076186430824,-0.4697912076310917,1.8602969728703358,0.0212244526296276,0.4701733031889229,-1.836970200285228,0.0,0.0,0.0,0.0,0.0,0.0,2.0396827524500396,0.040785706300226286,2.039274934089016
24.25,0.0,0.0,0.0,-0.7210129062929473,-0.475710307708497,1.1361642640651035,-0.23119398021244142,-0.45113990164131623,1.8336714637429865,0.02291363519158378,0.49877452718960347,-1.8159267807167783,0.0,0.0,0.0,0.0,0.0,0.0,1.8389435651799684,0.21148322876961276,1.8267425324511368
24.5,0.0,0.0,0.0,-0.7296721465022764,-0.4853486172854333,1.1463208939952751,-0.2083951524552089,-0.43430110072251016,1.8094966525046732,0.02457231928563262,0.5246140372917142,-1.7941581857713849,0.0,0.0,0.0,0.0,0.0,0.0,1.6450316165616485,0.22000611221658248,1.6302534557775903
24.75,0.0,0.0,0.0,-0.7374842814114333,-0.49838114572407943,1.1551688835425657,-0.179867653547798,-0.42018483009483343,1.788567057267572,0.026160139350184537,0.5471851558750983,-1.7665458241361032,0.0,0.0,0.0,0.0,0.0,0.0,1.4257930102610823,0.2294408229276519,1.40721093546193
25.0,0.0,0.0,0.0,-0.7437257099275758,-0.514424711891816,1.1621340067626567,-0.1465396793178389,-0.40979852789268834,1.7722415986816071,0.027626223203769913,0.5655332819481996,-1.7339499943562957,0.0,0.0,0.0,0.0,0.0,0.0,1.19555822493024,0.2370624511648167,1.1718194670878594
25.25,0.0,0.0,0.0,-0.6147985381748322,-0.5855694727593577,1.1666872059811664,-0.10864957077726747,-0.40357128623296523,1.7616822425063172,0.028881248114201705,0.578799111034185,-1.696491022773323,0.0,0.0,0.0,0.0,0.0,0.0,0.9696873050105903,0.24170374198191893,0.9390808115442673
25.5,0.0,0.0,0.0,-0.7583998228177831,-0.501609663967048,1.1685428465811483,-0.06678010436974488,-0.4015070958693716,1.757468783813287,0.029851719187927925,0.5864695706499112,-1.6546230422357742,0.0,0.0,0.0,0.0,0.0,0.0,0.6666169899413802,0.17797289878009118,0.6424203130181343
25.75,0.0,0.0,0.0,-0.7584703646859281,-0.5246674541085334,1.1676371382566448,-0.021515119788788457,-0.40358733717881345,1.759722380730922,0.030503489833985962,0.5882726100460823,-1.608834797065238,0.0,0.0,0.0,0.0,0.0,0.0,0.5579314036294197,0.1708258654551734,0.5311364936128805
26.0,0.0,0.0,0.0,-0.7559796768423479,-0.5490358021413898,1.1640866371080343,0.02654292400085089,-0.4098269204321112,1.7682029578340122,0.03083543733875409,0.5841120547639211,-1.559723167012811,0.0,0.0,0.0,0.0,0.0,0.0,0.476425458219852,0.15907951888135774,0.4490823130701895
26.25,0.0,0.0,0.0,-0.7506088547233691,-0.5740861853770811,1.1581405603024,0.07674671008053266,-0.420267595078468,1.7824029771823064,0.03085539004437113,0.5740068229825228,-1.50805643861734,0.0,0.0,0.0,0.0,0.0,0.0,0.39981485332164407,0.1465745297942543,0.3719782576336969
26.5,0.0,0.0,0.0,-0.7650048407963359,-0.568754210080356,1.1501493956272033,0.12836318129774488,-0.4350038661784452,1.801609586943346,0.030559555283688155,0.558043475201167,-1.4547887192965072,0.0,0.0,0.0,0.0,0.0,0.0,0.31719950696067606,0.13408178962297326,0.28746756496620046
26.75,0.0,0.0,0.0,-0.7495744028690405,-0.664204016906957,1.1404618769830457,0.18071425182649398,-0.4544829997051958,1.825156086171161,0.029918205782364326,0.5360383872322197,-1.4008245145619456,0.0,0.0,0.0,0.0,0.0,0.0,0.16722208410958878,0.04080636735096914,0.16216678389106737
27.0,0.0,0.0,0.0,-0.7342072691836363,-0.6864170712320719,1.1296541683704089,0.2323632319840393,-0.47814742606776406,1.8517037287672404,0.028899215048254098,0.5084353074177703,-1.3477615700840582,0.0,0.0,0.0,0.0,0.0,0.0,0.13826724648447866,0.024827828802119895,0.13601988960211742
27.25,0.0,0.0,0.0,-0.7160610706510953,-0.7056109657278848,1.1182764565687437,0.28165245176010745,-0.5056864656341564,1.879976357108799,0.027478969868062756,0.4753624001885477,-1.2973124398845879,0.0,0.0,0.0,0.0,0.0,0.0,0.13661209769170873,0.032177956643308685,0.13276838607887917
27.5,0.0,0.0,0.0,-0.6959630500155616,-0.7205229137011344,1.1069482943829607,0.3260120521842249,-0.5365790612704737,1.908470565549354,0.025658679998203274,0.43698264404849696,-1.2520187146878548,0.0,0.0,0.0,0.0,0.0,0.0,0.1605264701427781,0.058695795735343545,0.14941067960321663
27.75,0.0,0.0,0.0,-0.4737007205395263,-0.8184358174447388,1.0963157583978855,0.36112152077485393,-0.5698153112084117,1.9355117225352756,0.023460803366743173,0.3936358948364205,-1.2161214237897247,0.0,0.0,0.0,0.0,0.0,0.0,0.20476569615699974,0.09174009982890817,0.1830648639309103
28.0,0.0,0.0,0.0,-0.6579820877291964,-0.8107949514842351,1.086927965615387,0.37938704971429055,-0.6036669973056834,1.959546439225519,0.02093888884113112,0.3462621121914493,-1.1971148560421545,0.0,0.0,0.0,0.0,0.0,0.0,0.3068987890137558,0.09211216221928292,0.2927494086576407
28.25,0.0,0.0,0.0,-0.6446883622968342,-0.8009492873043564,1.0789051317632259,0.3689033348914058,-0.6352765355253434,1.9799951622953764,0.01819802342796642,0.2973840392524152,-1.20681385155158,0.0,0.0,0.0,0.0,0.0,0.0,0.42486418720778907,0.1387371966498814,0.4015738634889818
28.5,0.0,0.0,0.0,-0.6398537478639241,-0.7790756654746777,1.071606235648604,0.3208803058763806,-0.6603093855933317,1.9982419385214496,0.01541451648250039,0.2520361354374261,-1.2539597533261706,0.0,0.0,0.0,0.0,0.0,0.0,0.5635536702038316,0.18735161099689793,0.5314998711731509
28.75,0.0,0.0,0.0,-0.6428116622010811,-0.7492062536927964,1.0643337409229792,0.24435257802311755,-0.6752493939211872,2.0161041662282426,0.012833544868201013,0.2156184222921389,-1.32956378266378,0.0,0.0,0.0,0.0,0.0,0.0,0.7132498319846622,0.24204275493994326,0.670925202691948
29.0,0.0,0.0,0.0,-0.5359567156596445,-0.7676625029671124,1.0572850392283017,0.15672563216004531,-0.6813858016338044,2.0332765919324074,0.010749296439863859,0.19056026066087317,-1.4164067260485618,0.0,0.0,0.0,0.0,0.0,0.0,0.8517096907868821,0.2998266774518937,0.7971909187067074
29.25,0.0,0.0,0.0,-0.647302487293405,-0.6857706636958896,1.046002506770749,-0.008275026999511853,-0.6912114811482959,2.06098389225548,0.008542436378068424,0.16435155303779192,-1.5808633682255957,0.0,0.0,0.0,0.0,0.0,0.0,0.9779831799008314,0.31831344204410006,0.9247311245886446
29.5,0.0,0.0,0.0,-0.6477180172922283,-0.6580674030390571,1.0421728432011872,-0.08040835403436292,-0.6917730982449868,2.070312942413008,0.008148480300597338,0.16193252573923322,-1.6531313161506689,0.0,0.0,0.0,0.0,0.0,0.0,1.04926113501073,0.33826230404923885,0.993240929031474
29.75,0.0,0.0,0.0,-0.6508031267684271,-0.6331064855265927,1.0400541813893707,-0.143584304538672,-0.6837828260265875,2.074987267405692,0.008067815449169041,0.16817554989714356,-1.7166146391615826,0.0,0.0,0.0,0.0,0.0,0.0,1.1141125330755477,0.3336800236030632,1.062969603612574
30.0,0.0,0.0,0.0,-0.6545592215679992,-0.6112882267728569,1.0400311068577965,-0.19657428278384043,-0.671411520081524,2.0741879561056566,0.008396428081152568,0.18180333180551367,-1.770147313778221,0.0,0.0,0.0,0.0,0.0,0.0,1.2005708101547081,0.30608992323612627,1.1608958734911734
30.25,0.0,0.0,0.0,-0.5097515119873071,-0.6542926638199902,1.042283749074828,-0.23904945147506088,-0.6564717745127715,2.067619487114787,0.009115875857733186,0.20164067502657046,-1.8133895505594984,0.0,0.0,0.0,0.0,0.0,0.0,1.3274789680232046,0.2528729762888709,1.3031713887308762
30.5,0.0,0.0,0.0,-0.6719840172049056,-0.5292778059919343,1.0510435913531153,-0.30007247915766705,-0.6263367327496887,2.0442526900297744,0.011206586703300658,0.24909230646111524,-1.8762883384736293,0.0,0.0,0.0,0.0,0.0,0.0,1.5424495698576604,0.22931484611666503,1.5253082891352068
30.75,0.0,0.0,0.0,-0.6771151892076317,-0.5190600613577095,1.0573502129861965,-0.31936237327070893,-0.6084037620706519,2.0278046973831505,0.012369751756524688,0.27595368658295794,-1.8965509053000225,0.0,0.0,0.0,0.0,0.0,0.0,1.6574062619813172,0.1740061187469113,1.6482467618331664
31.0,0.0,0.0,0.0,-0.6851780264419742,-0.5116935160855283,1.065546502995193,-0.3295649687511789,-0.5860746667753887,2.0065735002104863,0.013585872964883117,0.3062149491495052,-1.9077224789511105,0.0,0.0,0.0,0.0,0.0,0.0,1.753251043427155,0.12982328523433143,1.7484379130782353
31.25,0.0,0.0,0.0,-0.6947654080154348,-0.5076029763745147,1.075516122356416,-0.33127999306288963,-0.5621299617690854,1.9812028419822947,0.01493193919401406,0.33890519865780044,-1.9104454948129217,0.0,0.0,0.0,0.0,0.0,0.0,1.8070594255562902,0.09240872353398105,1.8046950976014342
31.5,0.0,0.0,0.0,-0.5533412823486283,-0.5601949076444677,1.0975234184812697,-0.3196065589831249,-0.5186624047442052,1.926803577256305,0.01797074390242437,0.4037051813174328,-1.9008981744004103,0.0,0.0,0.0,0.0,0.0,0.0,1.808120525915166,0.044749417885395756,1.8075666864142674
31.75,0.0,0.0,0.0,-0.7233056516625693,-0.39773785630680714,1.1090175107611309,-0.30678922072464015,-0.4975280670685289,1.8988141655009048,0.01953980180284861,0.435074968413375,-1.8891370994849013,0.0,0.0,0.0,0.0,0.0,0.0,1.7258262893670915,0.07705410688072606,1.7241052884564205
32.0,0.0,0.0,0.0,-0.7343135296495902,-0.404117392071524,1.1208259159355773,-0.2873124849982302,-0.4759168483319667,1.870186184409905,0.021118561807301192,0.4659172230038635,-1.870694083170406,0.0,0.0,0.0,0.0,0.0,0.0,1.603171577087349,0.06987064770164382,1.6016482754245671
32.25,0.0,0.0,0.0,-0.7449909958652785,-0.41401554594986634,1.1323275971167563,-0.2617865310329712,-0.45626040447467964,1.8426116824313818,0.022745066062589202,0.4949535444957922,-1.8461982566837576,0.0,0.0,0.0,0.0,0.0,0.0,1.4470935362595292,0.07979351306863165,1.4448919329680943
32.5,0.0,0.0,0.0,-0.754100216806554,-0.4248717053679416,1.1429013185673886,-0.23592844819368572,-0.43943182505912093,1.817538455989364,0.024403632763115166,0.5211821211189489,-1.8213697855397053,0.0,0.0,0.0,0.0,0.0,0.0,1.2665359614675513,0.09302263133025909,1.2631152487999382
32.75,0.0,0.0,0.0,-0.14177061883652353,-0.4412983092095726,1.1521198246016073,-0.20464761971242712,-0.42522377813922074,1.7958070873154504,0.025984845422742636,0.5441012323067601,-1.791027785460716,0.0,0.0,0.0,0.0,0.0,0.0,1.0525880962263998,0.10707789512746528,1.0471275111907759
33.0,0.0,0.0,0.0,-0.7652614790885215,-0.38774713630270585,1.1593866481934865,-0.1688416488660051,-0.4144414065174131,1.7787776117839793,0.02742346909350379,0.5627603946735775,-1.7559981932111108,0.0,0.0,0.0,0.0,0.0,0.0,1.0266961197370383,0.722057837689497,0.7298886225406304
33.25,0.0,0.0,0.0,-0.770300702203472,-0.40754828305566615,1.1642099367921719,-0.12872134337061708,-0.40783480094905467,1.767586299375822,0.028651322228905398,0.5763038329787273,-1.7163893886708508,0.0,0.0,0.0,0.0,0.0,0.0,0.9368912952098398,0.7232963786525346,0.5954894186029677
33.5,0.0,0.0,0.0,-0.7731490729823016,-0.4296580841500991,1.1663232340374625,-0.08484469970375953,-0.40555176459330555,1.7627979622674999,0.029603480879432053,0.5842220977603255,-1.6726344542904572,0.0,0.0,0.0,0.0,0.0,0.0,0.8680042376914391,0.723289482069875,0.47987881988830083
33.75,0.0,0.0,0.0,-0.7736365063242738,-0.453569917498603,1.1656548329225818,-0.037773255589401644,-0.40748311164148454,1.76453214157458,0.030238483991191247,0.5862469956925541,-1.6251808679438098,0.0,0.0,0.0,0.0,0.0,0.0,0.8092572851236771,0.7223099156643025,0.3649188118729599
34.0,0.0,0.0,0.0,-0.3716045535858834,-0.6461212074824405,1.162312300271024,0.01191060178029902,-0.41354043207879765,1.7725471460513025,0.03055061956121353,0.5822859141905926,-1.574573427069326,0.0,0.0,0.0,0.0,0.0,0.0,0.77035429884708,0.7205764498103798,0.27242489924903207
34.25,0.0,0.0,0.0,-0.8126897167456282,-0.5302799923913765,1.1565454338497312,0.06357762008203596,-0.423738158480504,1.7863290349694494,0.03055244939014631,0.5723605636976947,-1.5215344646356699,0.0,0.0,0.0,0.0,0.0,0.0,0.32609559866334353,0.2440816064848199,0.21624640770055342
34.5,0.0,0.0,0.0,-0.8045151400370996,-0.5559772167430828,1.1487103149795397,0.11651100029909787,-0.4381888979063604,1.805157209909177,0.030247623501732202,0.5565594886615843,-1.4669926979969865,0.0,0.0,0.0,0.0,0.0,0.0,0.2983165889345061,0.23906355391515474,0.17844159947437976
34.75,0.0,0.0,0.0,-0.7927045526504091,-0.580791390984968,1.1391615661751122,0.17004728892771165,-0.4573726251846466,1.8283590021451785,0.029609854164328157,0.5347006455452203,-1.4118477961016584,0.0,0.0,0.0,0.0,0.0,0.0,0.2822569497947766,0.23573466270614235,0.15523580291373618
35.0,0.0,0.0,0.0,-0.777609496901218,-0.6036322751424483,1.1284798303073935,0.2227629653751352,-0.4807575983290284,1.8545920721693654,0.02860551066711488,0.5072293401209879,-1.3577008097014163,0.0,0.0,0.0,0.0,0.0,0.0,0.27539434584253064,0.23494052101850368,0.14368367097756585
35.25,0.0,0.0,0.0,-0.5456036958403732,-0.7111290799373948,1.1172172485309246,0.27301221181209373,-0.5080447058236663,1.8825782647446867,0.027206857857363913,0.4742753411246948,-1.3062652363511997,0.0,0.0,0.0,0.0,0.0,0.0,0.27618786876502405,0.2378047680163877,0.14045864573474354
35.5,0.0,0.0,0.0,-0.7483517252344001,-0.7330113107133963,1.0954847815187376,0.35893709820803943,-0.5608774293894203,1.936499244571389,0.023430276657093137,0.4015553274885427,-1.2185819422926505,0.0,0.0,0.0,0.0,0.0,0.0,0.12330887954659302,0.04724926555948772,0.11389726370341471
35.75,0.0,0.0,0.0,-0.730425818532817,-0.7407442041801489,1.0858865116905743,0.390754062196287,-0.5898028703138827,1.96083884165088,0.021316325950597348,0.36174956200212993,-1.186071681767404,0.0,0.0,0.0,0.0,0.0,0.0,0.19825255154496452,0.11031502124211043,0.1647260461567676
36.0,0.0,0.0,0.0,-0.7122762295206382,-0.7400119579405047,1.0776313415891907,0.4060563369935803,-0.6231411579092356,1.982279897238619,0.019074482601706723,0.31756741904640384,-1.1701023270116069,0.0,0.0,0.0,0.0,0.0,0.0,0.289800859769339,0.1695360961195303,0.23503627472285524
36.25,0.0,0.0,0.0,-0.6998270019431176,-0.7290028835361064,1.0705932083269833,0.3929056934427666,-0.6539812280810462,2.0004049677574316,0.01659027418031727,0.2715568002691301,-1.1824884251449084,0.0,0.0,0.0,0.0,0.0,0.0,0.3936896947697628,0.22635462100858614,0.3221104799846915
36.5,0.0,0.0,0.0,-0.4193746156739475,-0.7981837383539165,1.0641418901191777,0.3424824285726053,-0.6770663054094166,2.016618820886174,0.0139867425560782,0.22878239125609234,-1.232006671402797,0.0,0.0,0.0,0.0,0.0,0.0,0.5053345545346165,0.28286174686522775,0.41875081393001623
36.75,0.0,0.0,0.0,-0.6877684166610274,-0.73782255069881,1.0576457877405834,0.26379448844971976,-0.6899018071404137,2.0326682533804488,0.011551889062746117,0.19468004922121074,-1.3097399731125428,0.0,0.0,0.0,0.0,0.0,0.0,0.6554411379290072,0.2846286016366959,0.5904148070805905
37.0,0.0,0.0,0.0,-0.6957333098941636,-0.7048958669938867,1.0513133404769324,0.17422335154398727,-0.6943976205270783,2.048194710571828,0.009605737668800789,0.1717099786148074,-1.3985278116782462,0.0,0.0,0.0,0.0,0.0,0.0,0.7988051521965709,0.35363520538908555,0.716262390947065
37.25,0.0,0.0,0.0,-0.7030702703777143,-0.6719134211374574,1.0458462582153907,0.08563112741635247,-0.6942026538580748,2.061495268267812,0.008354506416676531,0.15978993580129341,-1.486724629794931,0.0,0.0,0.0,0.0,0.0,0.0,0.913701272323432,0.403452539697847,0.8198024538001918
37.5,0.0,0.0,0.0,-0.7084971481565523,-0.6408729852999067,1.0418896833348168,0.004107184939914965,-0.6909363931499983,2.070956978037074,0.007795707137222489,0.15782225389956805,-1.5682839456558537,0.0,0.0,0.0,0.0,0.0,0.0,1.0018992475245188,0.4223435441779301,0.9085307000214256
37.75,0.0,0.0,0.0,-0.49966086997526116,-0.6716400931674225,1.0382515921709956,-0.13198507342338509,-0.6836086777932813,2.0793293917981335,0.008084731369743269,0.1704774452659198,-1.7052668243868427,0.0,0.0,0.0,0.0,0.0,0.0,1.081552749821055,0.4182202758125927,0.9974207495058064
38.0,0.0,0.0,0.0,-0.7144968438288746,-0.5449622477188354,1.0389484706576426,-0.23486988600110964,-0.6685661161960497,2.076557263893361,0.009142840128016853,0.19594902942342485,-1.8094626034486123,0.0,0.0,0.0,0.0,0.0,0.0,1.1906213457345287,0.4178370063323182,1.1148952529533644
38.25,0.0,0.0,0.0,-0.7170680231327513,-0.5282069282833974,1.0413701543566964,-0.2735154943706032,-0.6553208246423876,2.0696833389766875,0.009866854048896,0.21437845182654824,-1.8488543555771435,0.0,0.0,0.0,0.0,0.0,0.0,1.247982543223744,0.36842005267369243,1.1923619806833485
38.5,0.0,0.0,0.0,-0.7222219085396591,-0.5143989852280164,1.045900023540119,-0.3021862730718943,-0.6369357300157465,2.0573010905197084,0.01075619702021801,0.23807927141946117,-1.878341919294392,0.0,0.0,0.0,0.0,0.0,0.0,1.3559845601536054,0.3021357786232001,1.3218956459005073
38.75,0.0,0.0,0.0,-0.7288717549561881,-0.503836141549325,1.052570543677997,-0.3212647877935134,-0.6159792889173767,2.039630192289376,0.011853751651392345,0.2660417697117389,-1.8983293368589185,0.0,0.0,0.0,0.0,0.0,0.0,1.4741613237946005,0.23741515172198427,1.4549177482953033
39.0,0.0,0.0,0.0,-0.5562134089846515,-0.5649049142005398,1.0693109034724537,-0.34028826044707355,-0.5760575441466982,1.9968627163527892,0.014471774315832554,0.32542592765045575,-1.9193263124456619,0.0,0.0,0.0,0.0,0.0,0.0,1.577143752509038,0.17417287888914573,1.5674968020183506
39.25,0.0,0.0,0.0,-0.7637022868793588,-0.3982366350922987,1.0879736209987918,-0.34150938121710395,-0.5372479037196938,1.950304083962838,0.01720703991754035,0.38387624935396525,-1.9224734588672483,0.0,0.0,0.0,0.0,0.0,0.0,1.6782175068516898,0.17229500547186669,1.6693497031457942
39.5,0.0,0.0,0.0,-0.7728898087927858,-0.3985129947575454,1.098313549653831,-0.3343425297281221,-0.5165570168575899,1.9247812894942489,0.018605390651140963,0.4134783270227226,-1.9162439770148578,0.0,0.0,0.0,0.0,0.0,0.0,1.6610010070563201,0.12068179477091906,1.6566110738048865
39.75,0.0,0.0,0.0,-0.7836024481052373,-0.40197642843141657,1.1096388031338271,-0.32005159439513764,-0.49466089757433385,1.897042307290849,0.020065769073907565,0.44387040864369276,-1.9028964940689304,0.0,0.0,0.0,0.0,0.0,0.0,1.5777272045560233,0.06825297635204038,1.5762501905520114
40.0,0.0,0.0,0.0,-0.7945978995582257,-0.4089241591523822,1.1214121348539272,-0.29924862130167795,-0.4736439253438458,1.8685753974178447,0.021621939507443073,0.47383279452988003,-1.8830653537658624,0.0,0.0,0.0,0.0,0.0,0.0,1.4554218142356445,0.03266646183381835,1.455055174082493
40.25,0.0,0.0,0.0,-0.3885351289212753,-0.5147680532527463,1.1329059523129839,-0.27252905370607416,-0.45471872300107363,1.8411349457626671,0.023240675365057587,0.5020767874154312,-1.8573318460509287,0.0,0.0,0.0,0.0,0.0,0.0,1.3003743399168934,0.02018483434232759,1.300217672690565
40.5,0.0,0.0,0.0,-0.8032517719979613,-0.33561066360566405,1.1434356764475235,-0.24559671859947838,-0.4381646647582267,1.816201152478818,0.02486832422679942,0.527591787037153,-1.8313823252740933,0.0,0.0,0.0,0.0,0.0,0.0,1.113170768055149,0.33013893684765616,1.063088632819291
40.75,0.0,0.0,0.0,-0.8118677500393834,-0.35012267392341745,1.1525948415668126,-0.2133490630776405,-0.42401914444613764,1.7946045873024166,0.02640858874976759,0.5498683444535726,-1.8000305060788744,0.0,0.0,0.0,0.0,0.0,0.0,0.9752088553051312,0.331722507766774,0.9170564264572093
41.0,0.0,0.0,0.0,-0.8190522637318087,-0.36752112712927687,1.1598150388686235,-0.17667294789469717,-0.4133569757533919,1.7776931829894447,0.027812905219725566,0.5679488033864408,-1.764102400376932,0.0,0.0,0.0,0.0,0.0,0.0,0.8454379131533616,0.33315500051967234,0.7770283203499394
41.25,0.0,0.0,0.0,-0.8242542234348373,-0.3876634566673397,1.1646046459452424,-0.13576951249643993,-0.4069330837158547,1.7666049368025196,0.029012063706108992,0.5809711361461718,-1.723698421893413,0.0,0.0,0.0,0.0,0.0,0.0,0.724236958089791,0.33423852084721173,0.6424980798765253
41.5,0.0,0.0,0.0,-0.3507038425567566,-0.5950061761241817,1.1666867838653636,-0.09118805191700008,-0.4048114283033699,1.7619109206223729,0.029933987530512487,0.5884204297719577,-1.6792385810219812,0.0,0.0,0.0,0.0,0.0,0.0,0.6130084172440531,0.33452444503172396,0.5136854244460087
41.75,0.0,0.0,0.0,-0.8585027111722559,-0.42627166600409816,1.1659865369983298,-0.043482272581318135,-0.4068614160078723,1.7637329258100984,0.030535445701202545,0.590023560614667,-1.6311566762832297,0.0,0.0,0.0,0.0,0.0,0.0,0.4754296055748202,0.35758028607414855,0.3133203614005307
42.0,0.0,0.0,0.0,-0.8565130136646553,-0.4517379179314748,1.1626132879059488,0.006772486487574184,-0.4130127156803034,1.7718286387038362,0.0308133671090907,0.5856833830577829,-1.579982724457734,0.0,0.0,0.0,0.0,0.0,0.0,0.4464791868054526,0.35610915690339967,0.269313818100758
42.25,0.0,0.0,0.0,-0.8516109973382613,-0.4778278399490249,1.1568172575835463,0.05895331631858361,-0.4232829335742443,1.7856838225216909,0.030783157080130182,0.5754173520901018,-1.5264245513650534,0.0,0.0,0.0,0.0,0.0,0.0,0.42691863066747526,0.35476647066587974,0.23748740703933688
42.5,0.0,0.0,0.0,-0.8434849420054962,-0.5038170119832994,1.1489538446050231,0.11234912691199075,-0.4377772109065181,1.8045782287096528,0.030450326087383264,0.5593099666238892,-1.4714024510117802,0.0,0.0,0.0,0.0,0.0,0.0,0.4097314098765644,0.3536550411304561,0.20690079778109285
42.75,0.0,0.0,0.0,-0.5346304744605763,-0.6560283019685669,1.1393783601254084,0.16630160287931522,-0.456982188671754,1.827839433287505,0.029789461592437356,0.5371754996291032,-1.415815209239133,0.0,0.0,0.0,0.0,0.0,0.0,0.40089171562912185,0.3532744029839206,0.18950293891234307
43.0,0.0,0.0,0.0,-0.8628233189697552,-0.6209513874061432,1.128672715127554,0.2193918479315784,-0.48038199555856353,1.8541253927051167,0.02876661574975826,0.5094560816479737,-1.3612657203350433,0.0,0.0,0.0,0.0,0.0,0.0,0.08184272949526714,0.020670824051413815,0.07918932632792731
43.25,0.0,0.0,0.0,-0.8448288311249164,-0.641002832738114,1.1173894614431967,0.26997820611289264,-0.5076874929038184,1.8821586319812114,0.027352715044918395,0.4762787930245943,-1.309467610420503,0.0,0.0,0.0,0.0,0.0,0.0,0.1175725131454889,0.08413895118172308,0.08212145116463651
43.5,0.0,0.0,0.0,-0.824788111826483,-0.6567020926474861,1.1061480530418177,0.31550523110173156,-0.5383749936277793,1.9104352365146569,0.025543456157191072,0.4378057615719627,-1.2629565105452347,0.0,0.0,0.0,0.0,0.0,0.0,0.17502081849316797,0.14629859110928334,0.09606773207199787
43.75,0.0,0.0,0.0,-0.8041877673267419,-0.6664736394853724,1.0955942435064794,0.3516653818006099,-0.5714246740020092,1.9372798169440038,0.02335762181550182,0.3943760023225579,-1.2259631153634514,0.0,0.0,0.0,0.0,0.0,0.0,0.245900903739415,0.21356708969762175,0.12188663855381784
44.0,0.0,0.0,0.0,-0.26364352463442664,-0.827504520686896,1.0862774999225129,0.3708765246374709,-0.6051008715065707,1.9611377038963815,0.020846986759332775,0.3469285281437028,-1.205970018237656,0.0,0.0,0.0,0.0,0.0,0.0,0.32128245421533036,0.2774670478652877,0.16197053045399334
44.25,0.0,0.0,0.0,-0.757542138301909,-0.7372829183597364,1.0708200650811743,0.3525744662385856,-0.657937641628151,2.0000252620241112,0.015324960741642892,0.25390928414179637,-1.222493178164699,0.0,0.0,0.0,0.0,0.0,0.0,0.43362777971738753,0.27715762569049324,0.3334916818516462
44.5,0.0,0.0,0.0,-0.7541550617430202,-0.7172452009422826,1.0642740281698861,0.30618432408884244,-0.6789954610209041,2.01635368851506,0.01278299963639868,0.212900261237721,-1.2679288919783238,0.0,0.0,0.0,0.0,0.0,0.0,0.5470944255931589,0.34139804313056704,0.4275040194685051
44.75,0.0,0.0,0.0,-0.7565221475136168,-0.6884831102468044,1.0578125109738155,0.23112619441433319,-0.6932180758154365,2.032344012508181,0.01056919911339365,0.18039767369417115,-1.3420844573422441,0.0,0.0,0.0,0.0,0.0,0.0,0.6806995226765682,0.4128280046719683,0.5412253493053233
45.0,0.0,0.0,0.0,-0.7628891309331334,-0.6567196451986889,1.0514991932941338,0.14482188691213937,-0.6981607521320141,2.0478569366035626,0.008777412976170622,0.1588615050722636,-1.4276473978853697,0.0,0.0,0.0,0.0,0.0,0.0,0.8146449507387199,0.4881533561219895,0.6521906904203169
45.25,0.0,0.0,0.0,-0.6432153986751423,-0.6044179657143305,1.0413774346308924,-0.017917060650315675,-0.704049518955602,2.0728189733106652,0.006933122878784746,0.13867399873146768,-1.5899417257884814,0.0,0.0,0.0,0.0,0.0,0.0,0.9263879673441673,0.5494399046497453,0.7458622240189784
45.5,0.0,0.0,0.0,-0.7657497533700317,-0.594330230855664,1.0380397446284402,-0.08908618432008635,-0.7032535706528509,2.0809615144439593,0.006694477762158778,0.13882335940107293,-1.6613004291018345,0.0,0.0,0.0,0.0,0.0,0.0,0.9598764902283188,0.5702951773739936,0.7720921493947475
45.75,0.0,0.0,0.0,-0.7691263352438014,-0.5698870591385612,1.0363657267264468,-0.15139435179582306,-0.6941420218157419,2.084561902453141,0.006754611056011044,0.14737835925277498,-1.7239606159752876,0.0,0.0,0.0,0.0,0.0,0.0,1.013940900296798,0.5711045300619079,0.8378041328600908
46.0,0.0,0.0,0.0,-0.7732799596861979,-0.5484492822781679,1.0367263681131116,-0.20360332531527642,-0.6806002759619343,2.0828008717340034,0.007200775095927835,0.16308750734747612,-1.7767437010886733,0.0,0.0,0.0,0.0,0.0,0.0,1.0761790218672345,0.5385834381064301,0.9317130284076608
46.25,0.0,0.0,0.0,-0.7777199560261367,-0.5303676830678217,1.03930614827498,-0.24537558975335327,-0.6644755901732049,2.0753709791926336,0.008018784747323114,0.18479893789375057,-1.8193063820132975,0.0,0.0,0.0,0.0,0.0,0.0,1.1619071150319098,0.47417981919837343,1.0607457956677337
46.5,0.0,0.0,0.0,-0.5857291887618632,-0.5078498364697427,1.0486061141820633,-0.3051966511630839,-0.6323760333754014,2.050530025282734,0.010277228385027252,0.23545749882857614,-1.881046691246349,0.0,0.0,0.0,0.0,0.0,0.0,1.2820824033515374,0.38812481936758253,1.2219224253505359
46.75,0.0,0.0,0.0,-0.799877194366684,-0.44306198499525196,1.0551438376858,-0.3239741280755841,-0.613700814095441,2.033451766890185,0.01151509838867048,0.2636866938902719,-1.9008195864130084,0.0,0.0,0.0,0.0,0.0,0.0,1.4233772863611673,0.35714896530780826,1.3778416149574098
47.0,0.0,0.0,0.0,-0.8082768657713479,-0.43574426877827643,1.063546959632221,-0.3337155480755666,-0.5907157633571569,2.011655170869249,0.012797842743084216,0.2951791477579969,-1.9115517821440178,0.0,0.0,0.0,0.0,0.0,0.0,1.488727949351998,0.29080022086948326,1.4600500466504787
47.25,0.0,0.0,0.0,-0.8182006067184395,-0.4316686827205739,1.0736993275040445,-0.3350155144548385,-0.566171502359047,1.985778707169461,0.014201388562556781,0.32897760523109054,-1.9138795047390682,0.0,0.0,0.0,0.0,0.0,0.0,1.5197297966007586,0.23048692267038762,1.5021499369750404
47.5,0.0,0.0,0.0,-0.8289794409137095,-0.4310463449890828,1.0853043977514387,-0.32849804964208323,-0.5414581234115516,1.9567567398820809,0.015739002291511588,0.36408706958495884,-1.9084366591246344,0.0,0.0,0.0,0.0,0.0,0.0,1.5074541436015714,0.16229306034286953,1.498692415950015
47.75,0.0,0.0,0.0,-0.5560981256409985,-0.517396604161453,1.1094011384646962,-0.3024557237257601,-0.4969246312552138,1.8978973964718633,0.019050142903145686,0.43123399838464416,-1.8846094721356588,0.0,0.0,0.0,0.0,0.0,0.0,1.4376111773256155,0.0732811483428008,1.4357422367782813
48.0,0.0,0.0,0.0,-0.850727491748076,-0.33780399171027353,1.1212508465468634,-0.2834123376992381,-0.47616862322171993,1.8693210416624244,0.020722543743913004,0.46246115655453857,-1.8666541143207318,0.0,0.0,0.0,0.0,0.0,0.0,1.39201876011863,0.11976679164625378,1.3868569299466225
48.25,0.0,0.0,0.0,-0.8613840637519803,-0.34755079454387783,1.1327065101349612,-0.25827639846387834,-0.4564085840886918,1.8418366037568998,0.022380782197866364,0.4918439210285098,-1.8425697735814632,0.0,0.0,0.0,0.0,0.0,0.0,1.2696597375911012,0.10027375825300858,1.2656938897955228
48.5,0.0,0.0,0.0,-0.8707034224425492,-0.35816826462912565,1.1432121661782546,-0.23276932888150215,-0.4392509547276464,1.8168562255599423,0.02405330560844171,0.5183844417992435,-1.8181006118949656,0.0,0.0,0.0,0.0,0.0,0.0,1.120913722700222,0.09764465347927494,1.1166526296859656
48.75,0.0,0.0,0.0,-0.8790618187222745,-0.3721405146221015,1.1523912860186976,-0.2018044123314619,-0.4249690075294794,1.7951966839002904,0.025661960721568185,0.541584262004762,-1.7880861596673778,0.0,0.0,0.0,0.0,0.0,0.0,0.9512767675620903,0.09807489524608357,0.9462075900276055
49.0,0.0,0.0,0.0,-0.8859362715325241,-0.38904994491248546,1.1596376518473146,-0.16628276222313643,-0.41426069265160237,1.7782243836708722,0.02713517422952319,0.5604960323152808,-1.7533532739137616,0.0,0.0,0.0,0.0,0.0,0.0,0.7755455754323265,0.0987742117165607,0.7692298711519401
49.25,0.0,0.0,0.0,-0.9011020372432017,-0.36556754869558705,1.1644381721373562,-0.12641834539203523,-0.40768411518148273,1.767086525091837,0.0283920855400277,0.5742668840078721,-1.7140058889766419,0.0,0.0,0.0,0.0,0.0,0.0,0.461876352949697,0.02434775977627858,0.4612341617963588
49.5,0.0,0.0,0.0,-0.9039059224786801,-0.3875856300538405,1.1665243521893627,-0.08277200152303586,-0.40537165866912916,1.7623491835596075,0.029367316192513787,0.5823898246603928,-1.670479020053371,0.0,0.0,0.0,0.0,0.0,0.0,0.3561489535228593,0.02406322335245082,0.35533510715565086
49.75,0.0,0.0,0.0,-0.9043334373321124,-0.4114337900020556,1.1658314858399916,-0.035907827226750344,-0.407275790447978,1.7641289621083893,0.030024310271268145,0.5845987766954704,-1.6232267738454613,0.0,0.0,0.0,0.0,0.0,0.0,0.28302699723074776,0.02085005959928966,0.2822579603415283
50.0,0.0,0.0,0.0,-0.9021413052806357,-0.43656187654171275,1.1624695539350012,0.013589487306685188,-0.4133310617754833,1.7721835921910958,0.03035883242144234,0.5808031049051754,-1.5728003028707527,0.0,0.0,0.0,0.0,0.0,0.0,0.21800674065302736,0.016476282443192006,0.21738323552428895
50.25,0.0,0.0,0.0,-0.6160554846121984,-0.5831886843206154,1.1566865309937862,0.0650886170557835,-0.4235392805764515,1.786000618609862,0.030381833114425078,0.5710264000004093,-1.5199267126220277,0.0,0.0,0.0,0.0,0.0,0.0,0.16026990749147832,0.0117177871147784,0.15984097319667367
50.5,0.0,0.0,0.0,-0.9187470046074797,-0.5336771347238437,1.148837043097357,0.11787089757547067,-0.4380030010560052,1.8048606457877594,0.030095631477426478,0.5553589622976928,-1.4655377647650265,0.0,0.0,0.0,0.0,0.0,0.0,0.11369529031802035,0.03268417471637579,0.10889611454780357
50.75,0.0,0.0,0.0,-0.9067677281258064,-0.5585309487381439,1.1392754507233684,0.17127119647644717,-0.45720163432747674,1.8280914282109966,0.029473854750661277,0.5336203387277159,-1.4105341226036214,0.0,0.0,0.0,0.0,0.0,0.0,0.10124419894328753,0.049070623633877306,0.08855767451695164
51.0,0.0,0.0,0.0,-0.8915074102360121,-0.5814173226999532,1.1285822556809626,0.22386448216899715,-0.4806034303266711,1.8543508200490328,0.028483313896705678,0.5062572274741505,-1.3565166667031496,0.0,0.0,0.0,0.0,0.0,0.0,0.11474559657286001,0.08482880574783609,0.07726982365877014
51.25,0.0,0.0,0.0,-0.873408728122395,-0.6012415720074699,1.1173092949222037,0.2740035769265695,-0.5079070056879966,1.8823608875367248,0.02709674643285891,0.4734005956614403,-1.3051988506723093,0.0,0.0,0.0,0.0,0.0,0.0,0.15495896964901734,0.1352762539631086,0.07558185885775513
51.5,0.0,0.0,0.0,-0.4073865233544909,-0.759886366479023,1.106076401376091,0.31912806483404077,-0.53858786959636,1.9106169930960424,0.025311732953053084,0.43521597802134127,-1.2591189336594995,0.0,0.0,0.0,0.0,0.0,0.0,0.2122845793025825,0.19559391930402714,0.08250915913378436
51.75,0.0,0.0,0.0,-0.840830283972342,-0.7173439254627322,1.0955299095848594,0.3549259321596882,-0.5716299804589648,1.9374431481171617,0.02314829698855317,0.39204547193076345,-1.2225118563392627,0.0,0.0,0.0,0.0,0.0,0.0,0.24849386202432328,0.19292699152114137,0.15661537410600804
52.0,0.0,0.0,0.0,-0.8220955292417611,-0.718824782552695,1.086219570640856,0.37381101996064137,-0.6052997235810738,1.9612843862048348,0.020658682873694996,0.34483093871318926,-1.2028648915294364,0.0,0.0,0.0,0.0,0.0,0.0,0.3553077743657478,0.28468454291413325,0.21259897824428073
52.25,0.0,0.0,0.0,-0.8087072567541673,-0.709326066132106,1.0782668228574954,0.3638849081131215,-0.6367345839178844,1.9815594303435282,0.017947382743421586,0.296096682452183,-1.2119861196028825,0.0,0.0,0.0,0.0,0.0,0.0,0.4701459338903672,0.3687827292679152,0.2916101811448857
52.5,0.0,0.0,0.0,-0.8037651870987719,-0.6877078251835235,1.0710325519886115,0.31636372177592476,-0.6616001932437618,1.9996503800163414,0.015190532014244806,0.2508784258699427,-1.2586111357257688,0.0,0.0,0.0,0.0,0.0,0.0,0.5947496680159449,0.4515575065289026,0.38706974294366747
52.75,0.0,0.0,0.0,-0.3992974192786427,-0.7251677731645574,1.0573923811185815,0.17181918983381153,-0.6901765451881534,2.0332906492074447,0.01040404611781183,0.18191768574450984,-1.4013109396991652,0.0,0.0,0.0,0.0,0.0,0.0,0.7234301811766878,0.5344289834269259,0.48758269935529674
53.0,0.0,0.0,0.0,-0.7915852761065669,-0.6533730746831263,1.0512070392219324,0.09144558278966988,-0.698102569324675,2.048568472078117,0.008767602384480891,0.16024399823397617,-1.481050888253154,0.0,0.0,0.0,0.0,0.0,0.0,0.8177835557873857,0.5357276620954037,0.6178720063104116
53.25,0.0,0.0,0.0,-0.7959239961272995,-0.6231911143862697,1.0457964519029284,0.011131135537466821,-0.698343013959124,2.0617845078476082,0.00765116155281266,0.14947519666475884,-1.5610275795504391,0.0,0.0,0.0,0.0,0.0,0.0,0.9209531301309963,0.5953859167511706,0.7026167362313881
53.5,0.0,0.0,0.0,-0.8000844990483205,-0.5947837310090553,1.0418260623813895,-0.0629428077510821,-0.6937886386962737,2.071258294588731,0.007123097283844401,0.14853625156669892,-1.6351284053436932,0.0,0.0,0.0,0.0,0.0,0.0,0.9912361085878559,0.6084125577044156,0.7825491566642744
53.75,0.0,0.0,0.0,-0.8034636546534033,-0.569201380226688,1.0397690506649195,-0.12786531288371927,-0.6860307139223552,2.0758162491943213,0.007159433555069747,0.15611947343140986,-1.700412044922132,0.0,0.0,0.0,0.0,0.0,0.0,1.0458124766780577,0.5923287828105094,0.8618992687255939
54.0,0.0,0.0,0.0,-0.4289621574580458,-0.6698959489547337,1.0398516835662996,-0.18242719029438298,-0.674761140454974,2.0748647885575005,0.007638052645699153,0.1709545155158535,-1.755589586734674,0.0,0.0,0.0,0.0,0.0,0.0,1.1023230495890561,0.545379784137549,0.9579545901082144
54.25,0.0,0.0,0.0,-0.818290699349062,-0.4964920947989605,1.044409997385183,-0.26581795838069877,-0.6501636548172991,2.062041368776002,0.00937175629370994,0.2107155118417764,-1.8406530894832331,0.0,0.0,0.0,0.0,0.0,0.0,1.3065515259534237,0.544129621254878,1.1878551448910943
54.5,0.0,0.0,0.0,-0.8221737238581088,-0.4826915408370588,1.0487818530966317,-0.2952584906809803,-0.634435979311625,2.0503217747747153,0.010418640384290731,0.23478499218177207,-1.871019055769827,0.0,0.0,0.0,0.0,0.0,0.0,1.3809155442668877,0.46729767267332417,1.299446276500883
54.75,0.0,0.0,0.0,-0.8290484555656057,-0.4717582588290019,1.0551769390350307,-0.3150297836416909,-0.613554070917457,2.033359773017105,0.011542950732686727,0.26307592465375584,-1.8917348660858648,0.0,0.0,0.0,0.0,0.0,0.0,1.4668589044116966,0.39804260462158847,1.411820502173681
55.0,0.0,0.0,0.0,-0.8375408034141136,-0.46407141171800814,1.0635656596578895,-0.32566563808506266,-0.590423846792663,2.0115784268345345,0.012817332272379744,0.29462666332050313,-1.9033716690844367,0.0,0.0,0.0,0.0,0.0,0.0,1.5470393991555582,0.3228927087177666,1.5129676801559555
55.25,0.0,0.0,0.0,-0.39953776264016416,-0.5830796473461485,1.0831914173148578,-0.3296650571038751,-0.5476688347301448,1.9622588414383917,0.015738062437707673,0.35893815907404136,-1.9095008519415477,0.0,0.0,0.0,0.0,0.0,0.0,1.6007027600286559,0.24009234358260634,1.5825943866058567
55.5,0.0,0.0,0.0,-0.876061354681835,-0.3574649353781252,1.0940116058968674,-0.32368263802621616,-0.5261598163067722,1.9355280230372247,0.017255258895757443,0.3910404928764951,-1.9045768760739885,0.0,0.0,0.0,0.0,0.0,0.0,1.6393079055024495,0.26001681400208887,1.6185554255196302
55.75,0.0,0.0,0.0,-0.8871420344698095,-0.36030246439428504,1.1057279933246285,-0.31045769186342226,-0.503035067201719,1.9067315965506997,0.01879192386927834,0.42368258136527437,-1.8923912630155588,0.0,0.0,0.0,0.0,0.0,0.0,1.5653572703402165,0.1807928641592744,1.5548817717357355
56.0,0.0,0.0,0.0,-0.8984958185503324,-0.36666695471004884,1.1178416700037312,-0.2906141090231341,-0.4808125457457657,1.8773233292733154,0.020407374134700937,0.455670080517128,-1.8736013452404334,0.0,0.0,0.0,0.0,0.0,0.0,1.457181227533233,0.1310939159530911,1.4512723779757346
56.25,0.0,0.0,0.0,-0.9091052796784691,-0.3767374717322728,1.1296589282855949,-0.26475799265538474,-0.46099211022615316,1.8490305008675718,0.022088639280110255,0.4857368092759168,-1.8488088015467579,0.0,0.0,0.0,0.0,0.0,0.0,1.3198434632705314,0.1080261678414964,1.315415187155535
56.5,0.0,0.0,0.0,-0.9184151944919621,-0.38762217861583104,1.1404968033261385,-0.23860276365385788,-0.443787788811675,1.823324718737393,0.02378112745654134,0.5128922730673106,-1.823708193494864,0.0,0.0,0.0,0.0,0.0,0.0,1.1573814906679922,0.10017727514821119,1.153037912856617
56.75,0.0,0.0,0.0,-0.9270147787044576,-5.183390015394397,1.1499376371009693,-0.20705450362658206,-0.4290758107703978,1.8010333496062274,0.025383815346319345,0.5366449390791828,-1.7931191765790369,0.0,0.0,0.0,0.0,0.0,0.0,0.7766316953320277,0.0077529343554972865,0.776592996493774
57.0,0.0,0.0,0.0,-0.9370459984569806,-0.3335019514135883,1.1574114354767804,-0.17100784438874456,-0.41789008278007356,1.783497023453569,0.026847864152050642,0.5560534210994389,-1.7578746153608371,0.0,0.0,0.0,0.0,0.0,0.0,27.03227883521556,0.006338185305564752,27.03227809216697
57.25,0.0,0.0,0.0,-0.94214177211565,-0.3534247666255307,1.162431428313617,-0.13067091934108258,-0.41100265533101243,1.7718443521861373,0.028107578924332237,0.5702702360014416,-1.7180839337939686,0.0,0.0,0.0,0.0,0.0,0.0,27.02962484458763,0.006822793983465344,27.029623983485806
57.5,0.0,0.0,0.0,-0.9449831701101521,-0.3756912216425422,1.164724429902351,-0.08659931807717848,-0.4084813260116922,1.7666389254991004,0.02909265565735037,0.5787935538785247,-1.6741761019456818,0.0,0.0,0.0,0.0,0.0,0.0,27.027554636404997,0.006831380201927062,27.02755377306836
57.75,0.0,0.0,0.0,-0.5300042037120023,-0.5791113154903451,1.164216544205737,-0.0393524121254787,-0.41018004738768576,1.7679974619860075,0.029758832343906826,0.5813621162762435,-1.6265939232219357,0.0,0.0,0.0,0.0,0.0,0.0,27.02612666593293,0.0062021377888235776,27.026125954278722
58.0,0.0,0.0,0.0,-0.9542140270729793,-0.46442975080766846,1.1610183167000223,0.010489360897829668,-0.41602009644894666,1.775673468366835,0.030100907335789025,0.577889645138539,-1.5758769394933894,0.0,0.0,0.0,0.0,0.0,0.0,27.025884920156233,0.1417323173143081,27.025513272975164
58.25,0.0,0.0,0.0,-0.9491051139938897,-0.4904557485879123,1.155382049139346,0.062298503287813556,-0.42602294973493393,1.7891487513229483,0.030132120655526444,0.5684036464980682,-1.5227406225826619,0.0,0.0,0.0,0.0,0.0,0.0,0.2232883207943946,0.1420259410062426,0.17229714531724477
58.5,0.0,0.0,0.0,-0.9407651453991381,-0.5164045762311436,1.1476645536991172,0.1153597951842977,-0.4402936852057744,1.80769957490689,0.029856178354686368,0.5529978665733774,-1.46810750910027,0.0,0.0,0.0,0.0,0.0,0.0,0.20540142117574942,0.14443234925489914,0.1460446517669457
58.75,0.0,0.0,0.0,-0.9287864600890958,-0.5414717464204903,1.1382211353146217,0.16901120432439148,-0.45930591800212417,1.8306504853172982,0.029246960450436794,0.5314948375368966,-1.4128742629120967,0.0,0.0,0.0,0.0,0.0,0.0,0.20240800119585597,0.15315412106850831,0.13233598961671134
59.0,0.0,0.0,0.0,-0.913529153112318,-0.564559279951568,1.1276340532935007,0.22183048923214704,-0.4825289248225184,1.8566564709550621,0.028271134603217424,0.5043438865661842,-1.3586414374150304,0.0,0.0,0.0,0.0,0.0,0.0,0.21411825899746822,0.17250068249980408,0.1268469289072805
59.25,0.0,0.0,0.0,-0.9214123881884984,-0.7698829777602146,1.116456757633844,0.2721729832834044,-0.5096656697383963,1.8844371169252176,0.026900938223599565,0.4716783298750087,-1.307123098598144,0.0,0.0,0.0,0.0,0.0,0.0,0.15902305561394614,0.15094902414420175,0.050027235849179244
59.5,0.0,0.0,0.0,-0.901333636499781,-0.7855050761410171,1.1053100930446211,0.3174805305551921,-0.5401925835922707,1.9124857740878851,0.02513315515310397,0.4336658077152764,-1.2608576883546614,0.0,0.0,0.0,0.0,0.0,0.0,0.2698914831985483,0.231880615598749,0.13810428238348532
59.75,0.0,0.0,0.0,-0.880750801852519,-0.7951982438678582,1.0948410552617953,0.3534431513087244,-0.5730912227591953,1.9391247597782706,0.022986984550757712,0.39065029893877634,-1.2240797935475638,0.0,0.0,0.0,0.0,0.0,0.0,0.38409970936602444,0.3189048869430107,0.21408470244024916
60.0,0.0,0.0,0.0,-0.8620649199916277,-0.7967729934458172,1.0856000958277423,0.3724765171947739,-0.6066245661728207,1.9627975417963088,0.020514013366738755,0.3435753421756407,-1.204276050839904,0.0,0.0,0.0,0.0,0.0,0.0,0.5033580761627527,0.40349721420389933,0.3009308076085933
60.25,0.0,0.0,0.0,-0.61642028470299,-0.8462442554574438,1.077709754652828,0.36268385562384087,-0.6379268761422789,1.9829212867237502,0.017818279220281133,0.2949667368753741,-1.2132539195582872,0.0,0.0,0.0,0.0,0.0,0.0,0.6312255589793531,0.48532759746824716,0.4036122265795423
60.5,0.0,0.0,0.0,-0.8173452058573925,-0.8461976500295316,1.0705325527519165,0.3152827745355722,-0.6626642165371468,2.000876425310684,0.015075631118292451,0.2498615527360557,-1.2597487312185078,0.0,0.0,0.0,0.0,0.0,0.0,0.745838591172729,0.4836435102244294,0.5677712207397565
60.75,0.0,0.0,0.0,-0.8208772934295372,-0.7899014209844868,1.0569923331445938,0.17094362256912596,-0.6910248675745412,2.034284515376793,0.010313039854866549,0.18109406897759128,-1.4022272624383492,0.0,0.0,0.0,0.0,0.0,0.0,0.9235449856191499,0.5554252333995561,0.7378605224331523
61.0,0.0,0.0,0.0,-0.823451396923714,-0.7596442738712748,1.0508496797933407,0.09065757225145286,-0.6988621819676024,2.0494631339229703,0.008686309673210421,0.15950274380206797,-1.4818746500001576,0.0,0.0,0.0,0.0,0.0,0.0,1.0794418213127124,0.6330321314266539,0.8743368722525277
61.25,0.0,0.0,0.0,-0.8278632857953945,-0.7294677185573359,1.0454774660616037,0.010421926053071476,-0.6990266815065067,2.0625896382166666,0.007578378373610042,0.14880807454629807,-1.5617689184595844,0.0,0.0,0.0,0.0,0.0,0.0,1.2071699292766276,0.6874961690122785,0.992274284531842
61.5,0.0,0.0,0.0,-1.3589505753263884,-0.6173607458053384,1.0382883365726234,-0.13018381639313642,-0.6974332647818571,2.080062797085614,0.006953051211931141,0.1471627975667491,-1.7026582175803264,0.0,0.0,0.0,0.0,0.0,0.0,1.3023256537212302,0.7073828057535466,1.0934631564276274
61.75,0.0,0.0,0.0,-0.817269314700831,-0.6381452182962695,1.035408395471639,-0.2407607845031567,-0.6899023344060184,2.086623864146706,0.007473306314455849,0.1618509036403044,-1.8141507949938849,0.0,0.0,0.0,0.0,0.0,0.0,1.7295433599600887,1.319240104981287,1.1184479332499102
62.0,0.0,0.0,0.0,-0.8188413079410455,-0.6200921172236968,1.0359711653023058,-0.28403311475187665,-0.6793113226505936,2.084525611842881,0.007986290920097408,0.17612417985083506,-1.8580086437089092,0.0,0.0,0.0,0.0,0.0,0.0,1.7568054372950381,1.298750005648626,1.1830527322723632
62.25,0.0,0.0,0.0,-0.8231281654210021,-0.6046060014717994,1.0385874538987019,-0.3177624002462935,-0.662877463664513,2.0769476440187797,0.008710343489826619,0.19654100957057152,-1.8924286238823298,0.0,0.0,0.0,0.0,0.0,0.0,1.8293426625173421,1.2596378363879819,1.326577211490474
62.5,0.0,0.0,0.0,-0.8288397778056535,-0.5921424798250665,1.0433892246179346,-0.3420084883600156,-0.6435711254643501,2.063834732088107,0.009696375257834414,0.22203606555704192,-1.917497393960453,0.0,0.0,0.0,0.0,0.0,0.0,1.9332013527488363,1.2163587452079712,1.5025774100611322
62.75,0.0,0.0,0.0,-1.459716255491021,-0.5428752124643904,1.0568141956882482,-0.37069144542634896,-0.6065608083546374,2.028831104588613,0.01218190858585401,0.2782416035368074,-1.9480550999091022,0.0,0.0,0.0,0.0,0.0,0.0,2.0438109346778153,1.178320865481626,1.669947027506932
63.0,0.0,0.0,0.0,-0.8508131339880936,-0.5124275781897222,1.0651917475333483,-0.37576113369125497,-0.586350674712723,2.007409564400082,0.01350718494810521,0.3082912120041994,-1.9540739316672915,0.0,0.0,0.0,0.0,0.0,0.0,2.0203418714792396,0.9058385361318111,1.8058897596782628
63.25,0.0,0.0,0.0,-0.8609408031484567,-0.5097984383876161,1.0752089028135983,-0.3728565415089581,-0.5626040141745294,1.981949440034302,0.014862630941498672,0.3407880231823648,-1.9521075827573073,0.0,0.0,0.0,0.0,0.0,0.0,2.05869973086887,0.8779643567857094,1.8621018151791306
63.5,0.0,0.0,0.0,-0.8724074287860544,-0.5103580016991196,1.0866426221310024,-0.36255497399079084,-0.5379620346661884,1.953330144573267,0.016324780959808168,0.37472424040327934,-1.9427774174504402,0.0,0.0,0.0,0.0,0.0,0.0,2.029842544382112,0.8545498458568392,1.841196707559977
63.75,0.0,0.0,0.0,-0.8843798872998605,-0.5143670940040057,1.0990700562159754,-0.3454427942315395,-0.5139040727154334,1.9227516404691678,0.017909432248965438,0.409017264202548,-1.9266838658336738,0.0,0.0,0.0,0.0,0.0,0.0,1.9525619308848028,0.8377392022675976,1.7637151478979365
64.0,0.0,0.0,0.0,-0.8986517376427425,-0.44095725370736216,1.1235537319331548,-0.3010928173850497,-0.47178907715460117,1.863724267688744,0.021276543519090373,0.47259116261603684,-1.8844518725150698,0.0,0.0,0.0,0.0,0.0,0.0,1.8383427288648382,0.8283253819944436,1.6411523543882143
64.25,0.0,0.0,0.0,-0.9227304760462789,-0.3910261346423558,1.1348515969693436,-0.2741888301811088,-0.4530807946042028,1.8367603424745247,0.02294299004887938,0.5009606460936789,-1.8585852736429678,0.0,0.0,0.0,0.0,0.0,0.0,1.4831298901350842,0.05051582550717245,1.482269348797794
64.5,0.0,0.0,0.0,-0.9323148488855133,-0.4023437974594063,1.1451440861260775,-0.24709051742700952,-0.43617738532993244,1.8122825191269398,0.02457869685705581,0.5265884563256777,-1.8324981279904284,0.0,0.0,0.0,0.0,0.0,0.0,1.296559350766364,0.015949346827055285,1.2964612483200126
64.75,0.0,0.0,0.0,-0.9409825751394885,-0.41698871543849236,1.1541167574436926,-0.21469348202241856,-0.42201198338569834,1.791080815228073,0.02614447415119742,0.5489661818395196,-1.8010319830545745,0.0,0.0,0.0,0.0,0.0,0.0,1.0915975569450476,0.005730115709651235,1.0915825173125258
65.0,0.0,0.0,0.0,-0.9479928937038915,-0.4345880684876151,1.1611962378864467,-0.1778829249449974,-0.41159679437528585,1.7745112699579706,0.027587990321890177,0.5671373329743499,-1.765011340037899,0.0,0.0,0.0,0.0,0.0,0.0,0.8606652032095637,0.0042422468104452065,0.860654748059731
65.25,0.0,0.0,0.0,-0.9530089161340647,-0.45494916944506136,1.1658551242424346,-0.13685849184171012,-0.405372690635899,1.763733123527072,0.02881826915472194,0.5802411963812347,-1.7245228993482289,0.0,0.0,0.0,0.0,0.0,0.0,0.6103353597486427,0.004503844364993372,0.6103187419254312
65.5,0.0,0.0,0.0,-0.9549887712798397,-0.43420039880319916,1.1678080745398276,-0.09216813332774326,-0.4033426335421306,1.7593242803610436,0.02975938288231191,0.5877638600810282,-1.679981058062385,0.0,0.0,0.0,0.0,0.0,0.0,0.444576548682588,0.004483129829165965,0.4445539440669224
65.75,0.0,0.0,0.0,-0.9554420641112853,-0.4586775134902452,1.1669896811165705,-0.044364345850986996,-0.40546750435479284,1.7614043646002542,0.03037574729945432,0.5894329351209863,-1.6318210696204623,0.0,0.0,0.0,0.0,0.0,0.0,0.35322525031393137,0.003970049223889285,0.35320293907115125
66.0,0.0,0.0,0.0,-0.9532385398569734,-0.48441151065415455,1.16351320970845,0.005978620544872207,-0.4117192988564118,1.7697313185579184,0.03066843344001294,0.5851519982009062,-1.5805732909898145,0.0,0.0,0.0,0.0,0.0,0.0,0.2943172418171868,0.003646573264310835,0.2942946505363366
66.25,0.0,0.0,0.0,-0.9480985121538645,-0.5107759190737842,1.1576252001531646,0.058238836970151836,-0.42209247944168116,1.7837944849147083,0.030652194840029418,0.5749391957353369,-1.52694439917191,0.0,0.0,0.0,0.0,0.0,0.0,0.23464309678243445,0.010588621902952752,0.23440406129981456
66.5,0.0,0.0,0.0,-0.7042443394828626,-0.5452148148464608,1.149677907250106,0.11170609549840216,-0.43667201781041753,1.8028768031499323,0.03033189593417669,0.5588796137090057,-1.4718556066894877,0.0,0.0,0.0,0.0,0.0,0.0,0.16499449148421433,0.026857696868904192,0.16279387684748015
66.75,0.0,0.0,0.0,-0.9436887217169783,-0.694636433366781,1.1400264746073212,0.1657228746070855,-0.45595037123650495,1.8263076162673602,0.029682673075943754,0.5367880597118719,-1.4162081925987788,0.0,0.0,0.0,0.0,0.0,0.0,0.10614444388102988,0.026857057034598595,0.10269051297103067
67.0,0.0,0.0,0.0,-0.92838105662712,-0.7179497862131673,1.1292529832467744,0.21887099248657166,-0.4794225644041059,1.8527463296856772,0.02867095235239008,0.5091071873419133,-1.361606845872141,0.0,0.0,0.0,0.0,0.0,0.0,0.14276519268683308,0.08966795473825633,0.1110925656196966
67.25,0.0,0.0,0.0,-0.9102093947696226,-0.7381546502309746,1.1179092930202332,0.26950943621238654,-0.5068018210110392,1.8809171349180578,0.027267373298112563,0.4759645724231063,-1.3097654075578735,0.0,0.0,0.0,0.0,0.0,0.0,0.20893230104702878,0.15962962558181315,0.13480018196358792
67.5,0.0,0.0,0.0,-0.890022006541265,-0.7539709742197319,1.1066138352606971,0.3150833381912761,-0.5375615785168046,1.9093177501519123,0.025467247982501613,0.4375227833702904,-1.2632187247023454,0.0,0.0,0.0,0.0,0.0,0.0,0.2939426090318057,0.23757524238460587,0.17309032789361958
67.75,0.0,0.0,0.0,-0.363946389556167,-0.7634817010234922,1.086042346937353,0.3838677841721315,-0.5941048172563346,1.96084495098895,0.020949457957983034,0.3550463773435981,-1.1928556436863729,0.0,0.0,0.0,0.0,0.0,0.0,0.38928213291938446,0.3190214865754712,0.2230826530984464
68.0,0.0,0.0,0.0,-0.853046745270803,-0.8595816793887603,1.0775570753738457,0.3998586867718404,-0.623272049183891,1.9824605007423748,0.018550406203837872,0.3115224543609425,-1.1761386247041614,0.0,0.0,0.0,0.0,0.0,0.0,0.42999539782018764,0.3190213833289642,0.2883078200906377
68.25,0.0,0.0,0.0,-0.8403352376576472,-0.8488166625335593,1.0705342834717384,0.3873278082432007,-0.6542998339270849,2.0005579319928244,0.016131319585132354,0.2661175683004613,-1.1879178052189683,0.0,0.0,0.0,0.0,0.0,0.0,0.6073295255197465,0.41406351995114865,0.4442978213020014
68.5,0.0,0.0,0.0,-0.8363468521296087,-0.8265564607432098,1.0641239601702837,0.33746233189299596,-0.6784757857733636,2.0167012516378713,0.013635158364401326,0.22389222879029202,-1.236911315246284,0.0,0.0,0.0,0.0,0.0,0.0,0.7897979958458285,0.5054927909612416,0.6068425763971262
68.75,0.0,0.0,0.0,-0.8408421244048168,-0.7968240345878674,1.0576360679431156,0.2592764014380714,-0.6914065220154308,2.0327302505308933,0.011251978067089361,0.19028030793253548,-1.3141526569490483,0.0,0.0,0.0,0.0,0.0,0.0,0.9777519525993588,0.5999227852613268,0.7720696422837454
69.0,0.0,0.0,0.0,-0.6973468628526804,-0.699572863327796,1.0512976850423963,0.17015707323350376,-0.6954295861661943,2.04826610683796,0.009323403199350603,0.16774939135144784,-1.4024837188840946,0.0,0.0,0.0,0.0,0.0,0.0,1.1527773784495505,0.6948914043265143,0.9197943359567632
69.25,0.0,0.0,0.0,-0.8544732304555858,-0.7480269737025007,1.0458275746204693,0.0819714769369173,-0.6948976917934775,2.061570120928932,0.00809150450063623,0.15622488973933724,-1.4902764316590857,0.0,0.0,0.0,0.0,0.0,0.0,1.241401829246674,0.7357174111103743,0.9998991912418155
69.5,0.0,0.0,0.0,-0.8600614001769729,-0.7169971724789475,1.0418754502638372,0.0008134995084232988,-0.6915492023430405,2.0710237154683555,0.007559669871898992,0.15461376164143692,-1.5714818599879934,0.0,0.0,0.0,0.0,0.0,0.0,1.3352829197831337,0.7694334350391001,1.0913077773517887
69.75,0.0,0.0,0.0,-0.8644646618900995,-0.6890472721655899,1.0398378900676135,-0.0704846363501644,-0.6847587478679757,2.0755710802290186,0.007586118360754932,0.16159150364056662,-1.6431599628909737,0.0,0.0,0.0,0.0,0.0,0.0,1.4078518035017122,0.7640967163133986,1.1824563031005018
70.0,0.0,0.0,0.0,-0.8688621889253951,-0.6646283540501268,1.0399135445163497,-0.1307845814141836,-0.6737437534877226,2.0746424901677414,0.008024864204126934,0.1758784274080636,-1.7040762008058201,0.0,0.0,0.0,0.0,0.0,0.0,1.48266939730494,0.7228338378189593,1.2945345822373802
70.25,0.0,0.0,0.0,-0.9751005954135561,-0.5840345161020325,1.044448633158837,-0.22398744518773725,-0.6492741028798357,2.061871115917716,0.00968121615325113,0.21469507323673964,-1.7989637819678377,0.0,0.0,0.0,0.0,0.0,0.0,1.5873523930633369,0.6464866354212058,1.4497388213004683
70.5,0.0,0.0,0.0,-0.8774012231528496,-0.588505430946511,1.048818206655246,-0.25761102880731496,-0.6337098427678003,2.0501663528631204,0.010704068965636419,0.23835976633305433,-1.8335332700437201,0.0,0.0,0.0,0.0,0.0,0.0,1.7458466324143174,0.6848724963765207,1.6059047691626689
70.75,0.0,0.0,0.0,-0.8842710819417168,-0.5762429414746475,1.0552114387141054,-0.28114706795539207,-0.6129672092417018,2.033217177488996,0.011807918664193204,0.26628547026618454,-1.8580369678436053,0.0,0.0,0.0,0.0,0.0,0.0,1.8459075571001,0.608385944997163,1.7427682724014595
71.0,0.0,0.0,0.0,-0.8926381172710696,-0.5673861636524367,1.0635972218523675,-0.2951711939673938,-0.5899289707474435,2.0114484867467453,0.013063232340470968,0.2975067224356558,-1.8730849851590177,0.0,0.0,0.0,0.0,0.0,0.0,1.9293724389728621,0.5359384525053504,1.8534421985576621
71.25,0.0,0.0,0.0,-0.901975702616614,-0.5620812743173687,1.073783033077527,-0.300325595757483,-0.5659720716632346,1.9855661180138315,0.014476072311292821,0.33106191153828424,-1.8793214434829875,0.0,0.0,0.0,0.0,0.0,0.0,1.9768217814969342,0.4655690982457335,1.9212157012057152
71.5,0.0,0.0,0.0,-0.9495251819715245,-0.43996200943559227,1.096091309458457,-0.2945334971657455,-0.5215910931767087,1.9303420981009007,0.017577192154978688,0.39734173107966675,-1.8757585824673795,0.0,0.0,0.0,0.0,0.0,0.0,1.9648887257708965,0.3916964332882022,1.925451014388805
71.75,0.0,0.0,0.0,-0.9387583883921338,-0.41572402655036655,1.1077056790943118,-0.2842234650889987,-0.49997779039899126,1.9020082703379795,0.0191667137450502,0.42934345002909,-1.8665420796992207,0.0,0.0,0.0,0.0,0.0,0.0,1.850672457988408,0.21075825558211164,1.8386325093560272
72.0,0.0,0.0,0.0,-0.9495332491282862,-0.4211970977764097,1.1196338286155652,-0.26700330492615293,-0.4780585908958541,1.8730657363713292,0.020770659054363313,0.46075545282636177,-1.8503880537927067,0.0,0.0,0.0,0.0,0.0,0.0,1.6847199286610937,0.12491873184394954,1.6800823040739228
72.25,0.0,0.0,0.0,-0.9597598568767793,-0.4304020405630282,1.131247210352093,-0.24350826896810165,-0.45816126905881505,1.8452074521749844,0.0224219042620503,0.49030561293085717,-1.8279465786880102,0.0,0.0,0.0,0.0,0.0,0.0,1.4823579114350267,0.0719077631204322,1.4806127958372606
72.5,0.0,0.0,0.0,-0.9685941997948904,-0.4404882178313977,1.141920746317881,-0.21947801233530312,-0.4411038819176969,1.819880115532039,0.02410235891982748,0.5169978177526737,-1.8049575185246471,0.0,0.0,0.0,0.0,0.0,0.0,1.2355518035901578,0.039403514270647075,1.2349233265340869
72.75,0.0,0.0,0.0,-0.9766071366451246,-0.453952695692568,1.1512285566518754,-0.18984222743988277,-0.4266770893716749,1.7979204329661065,0.025704517889923045,0.5403352261560519,-1.7762584441043918,0.0,0.0,0.0,0.0,0.0,0.0,0.9379261583904988,0.02267100872951348,0.9376521231012839
73.0,0.0,0.0,0.0,-0.9931856687395899,-0.32915791063181843,1.1585773299612223,-0.1555167958207152,-0.41570371601535117,1.780684191000654,0.027165748996226025,0.5593718275874698,-1.742692171963818,0.0,0.0,0.0,0.0,0.0,0.0,0.766922340322656,0.003097719416981778,0.7669160842102567
73.25,0.0,0.0,0.0,-0.9978376992665696,-0.348459224519972,1.1634754008727646,-0.11672897562985614,-0.40892437489067834,1.7693051425943698,0.028418749595801488,0.5732557629056896,-1.7043824060181447,0.0,0.0,0.0,0.0,0.0,0.0,0.6188453812347191,0.000351411816778386,0.6188452814599784
73.5,0.0,0.0,0.0,-1.0002827988103147,-0.3701537258121851,1.1656560937509377,-0.07405156873707469,-0.4064747798517865,1.764346214018587,0.029398861774351418,0.5814809760268574,-1.6617792069320885,0.0,0.0,0.0,0.0,0.0,0.0,0.4825626651866349,0.0006612098771627177,0.4825622121898135
73.75,0.0,0.0,0.0,-1.0003560034726502,-0.39373268587833576,1.1650488830670498,-0.028059437719385294,-0.40824843927387766,1.765925055875282,0.030064604345374477,0.5837821938432975,-1.6153523165895791,0.0,0.0,0.0,0.0,0.0,0.0,0.35700187478947965,0.0030907458162478816,0.3569884954637932
74.0,0.0,0.0,0.0,-0.8135488467179111,-0.43371603248158686,1.1617637252783695,0.020653037863313732,-0.4141747716174662,1.773798374598107,0.030408925855444625,0.5800694650139355,-1.5656735537538462,0.0,0.0,0.0,0.0,0.0,0.0,0.24768593863691443,0.009184961618316796,0.24751557663815704
74.25,0.0,0.0,0.0,-0.9957460452624605,-0.5177243884016177,1.1560524305990252,0.0714458125567492,-0.424287579928043,1.7874513854358391,0.03044111605249589,0.5703671754156027,-1.5134892251199643,0.0,0.0,0.0,0.0,0.0,0.0,0.120667694124921,0.009340875057688866,0.1203056127476276
74.5,0.0,0.0,0.0,-0.9871098297170957,-0.5432368350491863,1.1482709486625284,0.12359237352633978,-0.4387008138115853,1.80616336954636,0.030160983317297354,0.5547666024617659,-1.45973962403822,0.0,0.0,0.0,0.0,0.0,0.0,0.09748491641813273,0.04104545550477344,0.0884227318705772
74.75,0.0,0.0,0.0,-0.9748657222332706,-0.5678866627220451,1.138771736928172,0.17642052483222936,-0.45787260863374657,1.8292615819165383,0.029540280701244464,0.533088211132129,-1.405324252214983,0.0,0.0,0.0,0.0,0.0,0.0,0.10657738289998932,0.08303742358270946,0.06680961630301901
75.0,0.0,0.0,0.0,-0.9593925398882037,-0.5905788732378385,1.128133749024947,0.22849887768920113,-0.4812477953727565,1.8554028520083246,0.02854621769758821,0.5057793760144679,-1.3518406802900553,0.0,0.0,0.0,0.0,0.0,0.0,0.14984806489913885,0.13794632786167382,0.05852566260621165
75.25,0.0,0.0,0.0,-0.6540400081129134,-0.6010780155170289,1.1169091012230263,0.2781745328947531,-0.5085166859116625,1.8833074827663974,0.027153631056139625,0.47297151931415693,-1.3010021754914463,0.0,0.0,0.0,0.0,0.0,0.0,0.21158615907664408,0.20246316107165796,0.06146032152274197
75.5,0.0,0.0,0.0,-0.9682435025671594,-0.8143549360624918,1.1057188425737108,0.32288192520540593,-0.5391582644704209,1.911468980132295,0.025362174956093407,0.43483054800767873,-1.2553500955278585,0.0,0.0,0.0,0.0,0.0,0.0,0.21514356028391754,0.2036354397976612,0.06942160463467241
75.75,0.0,0.0,0.0,-0.9476075071132608,-0.8237196774629723,1.0952102517802014,0.35830440649391687,-0.5721604269795935,1.9382099443598864,0.023193006872826077,0.39169893444533266,-1.2191242577533732,0.0,0.0,0.0,0.0,0.0,0.0,0.3981430101581816,0.34659289337775,0.19593678265669656
76.0,0.0,0.0,0.0,-0.9289286638677985,-0.8249984607075526,1.0859336056072855,0.3768516468614472,-0.60579022161576,1.961974445335502,0.020698657030539087,0.34451895883896977,-1.1998172684679727,0.0,0.0,0.0,0.0,0.0,0.0,0.5617494970458934,0.46937771754136587,0.30862121720155916
76.25,0.0,0.0,0.0,-0.915674233736008,-0.815310278759628,1.0780108362414142,0.3666214723238468,-0.6371843973139881,1.9821804502638964,0.017983491175904753,0.2958154141535766,-1.209242349517618,0.0,0.0,0.0,0.0,0.0,0.0,0.7277040417848714,0.5832992342634908,0.4351036379274058
76.5,0.0,0.0,0.0,-0.8627866056860278,-0.6633879668772085,1.06415278164373,0.27581127108313513,-0.6797021715583973,2.016664259334783,0.012545231448241406,0.20994124237484135,-1.298132902351442,0.0,0.0,0.0,0.0,0.0,0.0,0.8938368591106923,0.691021044134353,0.5669517151119099
76.75,0.0,0.0,0.0,-0.9334793256834819,-0.8089492561521783,1.057684630722656,0.2037904467091966,-0.6931929020645147,2.0326545903868634,0.010326575769025806,0.1777378691403032,-1.369245498308477,0.0,0.0,0.0,0.0,0.0,0.0,1.0073223440818855,0.7900205089581904,0.6249527184612178
77.0,0.0,0.0,0.0,-0.9386821622080161,-0.7778437480510065,1.051405857955118,0.12021971397751643,-0.6987658773755732,2.048101970357686,0.008595119065367321,0.15647271963560383,-1.4521135594236028,0.0,0.0,0.0,0.0,0.0,0.0,1.200924399036913,0.905926454026265,0.7883632868783073
77.25,0.0,0.0,0.0,-0.9446280866160603,-0.7466820345020742,1.0459490255430703,0.037027853606528716,-0.6981455661461291,2.061404494960876,0.007458197149574894,0.14607828110076004,-1.5349541269013116,0.0,0.0,0.0,0.0,0.0,0.0,1.355075450115811,0.9927092720966728,0.9223653162385616
77.5,0.0,0.0,0.0,-0.9494645791033778,-0.7173037910033451,1.0419765580025369,-0.03963576148892642,-0.6939282739274437,2.07089912015137,0.006966059675469663,0.14548019951411095,-1.6116761994084943,0.0,0.0,0.0,0.0,0.0,0.0,1.463801303577316,1.0385088247998853,1.0316073270229384
77.75,0.0,0.0,0.0,-2.2094955575445496,-0.8605948696813458,1.0383199643110546,-0.16741686003074657,-0.6856128554618344,2.079294954155761,0.007393198865233472,0.16048010551503455,-1.7403893734587499,0.0,0.0,0.0,0.0,0.0,0.0,1.5468588831206047,1.0462273520099155,1.1393773440767747
78.0,0.0,0.0,0.0,-0.9558761263676967,-0.6577368179608282,1.0386453229197379,-0.21802358272670755,-0.676465256150357,2.0778850001044638,0.007960181250286288,0.17488550297891414,-1.7916592202133943,0.0,0.0,0.0,0.0,0.0,0.0,3.928088867922459,3.6308439584116226,1.4989510679012066
78.25,0.0,0.0,0.0,-0.960627335750448,-0.6399095124588992,1.0410049126700056,-0.25835382142364127,-0.6602744270166945,2.070977538894749,0.008684427309943413,0.1954174403169454,-1.8327337410859834,0.0,0.0,0.0,0.0,0.0,0.0,3.956897473023356,3.6096058819170795,1.6210437962153412
78.5,0.0,0.0,0.0,-0.9667069461019329,-0.6253212373780279,1.045556960727184,-0.2885407674196286,-0.6408358120836828,2.0584840525187977,0.00965631402655888,0.22101326531241117,-1.863794707968865,0.0,0.0,0.0,0.0,0.0,0.0,4.009661346018402,3.5843866182363735,1.797096736617735
78.75,0.0,0.0,0.0,-0.9737116046654652,-0.6141598839038078,1.0522857951103781,-0.30898383270647434,-0.6196198158753712,2.040678682495241,0.010864052718567344,0.2506829444350783,-1.8852307339159828,0.0,0.0,0.0,0.0,0.0,0.0,4.068129565185403,3.5608471916094273,1.9672431057555737
79.0,0.0,0.0,0.0,-1.5514256493729097,-0.4980618729638969,1.0690752248368174,-0.3303406868265719,-0.57867071660916,1.99771338720138,0.013639297420858718,0.3129868656425979,-1.908711444569771,0.0,0.0,0.0,0.0,0.0,0.0,4.120503553228899,3.5404882762748824,2.1079592732621983
79.25,0.0,0.0,0.0,-0.9927704872816823,-0.4946948060417633,1.0788409358672726,-0.3319781393307433,-0.557156055664138,1.9731536992134315,0.015080196417400785,0.3450004326731896,-1.9114011756276066,0.0,0.0,0.0,0.0,0.0,0.0,2.23779902320912,1.009464717885618,1.9971793739220818
79.5,0.0,0.0,0.0,-1.0034470622463711,-0.49399754136978746,1.0899479544127297,-0.3257644120303976,-0.533175175332482,1.9454058274205601,0.01655072954294011,0.3785009918276191,-1.9062240643236439,0.0,0.0,0.0,0.0,0.0,0.0,2.178524290399641,0.9492393468813785,1.9608449062058617
79.75,0.0,0.0,0.0,-1.0149002223000592,-0.4967670574414478,1.1020345124872164,-0.31233128846718555,-0.5092029945691883,1.9156327468813754,0.018117728240527264,0.4124024855132683,-1.8938503283876988,0.0,0.0,0.0,0.0,0.0,0.0,2.048685411905543,0.9019823819757846,1.8394400505479576
80.0,0.0,0.0,0.0,-1.0262817557011155,-0.5031635171705288,1.1145269932217843,-0.2923003459665211,-0.48668462610177143,1.8853272853746552,0.019784119243940773,0.4455236171788376,-1.8749074840845432,0.0,0.0,0.0,0.0,0.0,0.0,1.885693201335653,0.8701248010164166,1.6729380383683208
80.25,0.0,0.0,0.0,-0.8490689950602259,-0.43561881823987947,1.1266651683665565,-0.266275605904433,-0.4663467575873368,1.8562429575178254,0.021494583580831436,0.47661026849251764,-1.8499713118073047,0.0,0.0,0.0,0.0,0.0,0.0,1.6902932769250192,0.8522928684348472,1.4596877160656725
80.5,0.0,0.0,0.0,-1.06636581150104,-0.3217541970830633,1.1377766513176202,-0.2399686155780013,-0.44850082246282064,1.8298361748441967,0.02320138876494878,0.5046832474572626,-1.8247357311759451,0.0,0.0,0.0,0.0,0.0,0.0,1.3013953054686993,0.08408410456791307,1.2986760968212905
80.75,0.0,0.0,0.0,-1.075160594948796,-0.33592292843044746,1.147472272654752,-0.20828377035831114,-0.4332711826722069,1.8069115918308767,0.024822671182781447,0.5292610635156759,-1.7940298690545218,0.0,0.0,0.0,0.0,0.0,0.0,1.1002198003163774,0.04503405631770138,1.0992977498293097
81.0,0.0,0.0,0.0,-1.082389900747577,-0.35306557074118505,1.1551879090743833,-0.17211418444730073,-0.4217166565195041,1.7888001940324734,0.026312717922444245,0.5494114241928384,-1.7586887457520588,0.0,0.0,0.0,0.0,0.0,0.0,0.8926586838127276,0.02874297653846685,0.8921958120760152
81.25,0.0,0.0,0.0,-1.0875439998182972,-0.3730293002857322,1.1604295215919251,-0.1316666253937831,-0.41451835178498553,1.776628037177407,0.0276008026747961,0.5642951034725215,-1.7188196262179958,0.0,0.0,0.0,0.0,0.0,0.0,0.6651604281299168,0.02154870739816128,0.6648112877798049
81.5,0.0,0.0,0.0,-0.9802815143975874,-0.3398511685738006,1.1629215118704324,-0.08749545352460894,-0.41170103889001886,1.7709546171365989,0.028614076600347454,0.5734177279877816,-1.6748499750314831,0.0,0.0,0.0,0.0,0.0,0.0,0.41906802601289117,0.022997156720541437,0.4184365438260766
81.75,0.0,0.0,0.0,-1.0917746872967498,-0.41638961223285864,1.1625933612488886,-0.04015893402816611,-0.4131286179471343,1.7718906605311422,0.02930878882913525,0.576524812520465,-1.6272216727458315,0.0,0.0,0.0,0.0,0.0,0.0,0.23669850750339214,0.01907895673434292,0.2359283299314909
82.0,0.0,0.0,0.0,-1.0895889517297723,-0.4418480846314876,1.159558607850564,0.009763491185411005,-0.41873144987257094,1.7791845426211714,0.029679799362292897,0.5735363240094706,-1.5764709778352457,0.0,0.0,0.0,0.0,0.0,0.0,0.1837312742611484,0.0398381995956115,0.17936024920423574
82.25,0.0,0.0,0.0,-1.0844623449448094,-0.4679687416576235,1.154070382554473,0.06164522054663675,-0.42852264194870204,1.792314360338739,0.02973941172654461,0.5644855069456978,-1.5233074887668134,0.0,0.0,0.0,0.0,0.0,0.0,0.15094295013700018,0.06983918610018407,0.1338142827986788
82.5,0.0,0.0,0.0,-1.076100302430497,-0.4940175860971041,1.1464859740710114,0.11477184071723857,-0.44259617565353393,1.810553093006154,0.02949079629953498,0.5494712669054401,-1.468648093525244,0.0,0.0,0.0,0.0,0.0,0.0,0.14460688639437516,0.11257324669644897,0.09076571886398613
82.75,0.0,0.0,0.0,-0.8251336640771223,-0.5810435792394705,1.1371618509176575,0.16848204530403826,-0.46142221712336307,1.83322194378368,0.02890817600577529,0.5283206796379911,-1.4133862732617688,0.0,0.0,0.0,0.0,0.0,0.0,0.1765171036534761,0.1685847662309874,0.05232078436964954
83.0,0.0,0.0,0.0,-1.073774621922646,-0.723853733658897,1.1266820701835232,0.22135424611382915,-0.48447119722479925,1.8589727922256345,0.02795873384278022,0.501487054340318,-1.3591216096176004,0.0,0.0,0.0,0.0,0.0,0.0,0.1791547769335004,0.17115556125598294,0.05293588526927414
83.25,0.0,0.0,0.0,-1.0557007525374815,-0.7438761722644843,1.1156013432553884,0.2717443644769183,-0.5114459315638742,1.8865226747682615,0.02661481692519103,0.469107202903813,-1.3075686403362317,0.0,0.0,0.0,0.0,0.0,0.0,0.31453701939274126,0.2966566636529639,0.10453879891581849
83.5,0.0,0.0,0.0,-1.035645533164888,-0.7595426386561528,1.1045414389405928,0.3170947736293547,-0.5418215654983864,1.9143628360668692,0.024872961199060205,0.4313518726426122,-1.261266827547671,0.0,0.0,0.0,0.0,0.0,0.0,0.4517719306033256,0.4250857615815858,0.15297049578810712
83.75,0.0,0.0,0.0,-1.0150995721326983,-0.769273893758114,1.0941501705337788,0.3530959700754707,-0.5745782066292979,1.9408137603073112,0.022751975912099737,0.3885678323456916,-1.2244518277783807,0.0,0.0,0.0,0.0,0.0,0.0,0.5951828955490202,0.5564140303049916,0.21129625182163472
84.0,0.0,0.0,0.0,-0.9447907908316746,-0.7264608078299974,1.0763167501020123,0.3893253296932831,-0.6309680639329387,1.9858107206385252,0.01772404590112965,0.29949651371370334,-1.1866218387373724,0.0,0.0,0.0,0.0,0.0,0.0,0.7343033561616399,0.6773405973587224,0.2835685702611929
84.25,0.0,0.0,0.0,-1.0156517410859016,-0.8738702681786509,1.0692429575507927,0.3778477868724991,-0.6574990437829262,2.0037518983538454,0.015203138591048618,0.2552809150540134,-1.1972540947707895,0.0,0.0,0.0,0.0,0.0,0.0,0.8485169494557817,0.7744101507010089,0.34679955594692763
84.5,0.0,0.0,0.0,-1.0114139154983022,-0.8520461832931436,1.0629682825303026,0.32893031265936457,-0.6815044023951042,2.019567529491509,0.012817604098733629,0.2141406777117454,-1.2452963745598211,0.0,0.0,0.0,0.0,0.0,0.0,1.0619160621539043,0.9061791240560524,0.553629043842048
84.75,0.0,0.0,0.0,-1.0151002498438366,-0.8225123203384656,1.0566350951933983,0.2515975841278031,-0.695192844681185,2.0352552726180817,0.0105808346674795,0.18150858853000718,-1.3217120245641159,0.0,0.0,0.0,0.0,0.0,0.0,1.2812224793028553,1.0393410555799982,0.7492003815113888
85.0,0.0,0.0,0.0,-1.023062298294684,-0.7901219623585687,1.0504170300638616,0.16324613765426227,-0.6990634860374403,2.0505258249702893,0.008739149204030322,0.15985585668523927,-1.4092843124514856,0.0,0.0,0.0,0.0,0.0,0.0,1.493970450282345,1.1743990850062778,0.9234362433071656
85.25,0.0,0.0,0.0,-1.2387897206457952,-0.6009878172665892,1.0405110475370403,-0.0029934175491961312,-0.7048918421513708,2.0749775274328486,0.006904255602161624,0.1394789533066374,-1.575069566738895,0.0,0.0,0.0,0.0,0.0,0.0,1.6706552113213464,1.2868504285281843,1.06541297613273
85.5,0.0,0.0,0.0,-1.0389034215632642,-0.7281486543900993,1.0372691052294192,-0.07565490552907875,-0.704196558662892,2.0828944765499906,0.006677311583721507,0.13954844473586525,-1.647923376559333,0.0,0.0,0.0,0.0,0.0,0.0,1.9181296894939373,1.5664695768937358,1.1069754154381513
85.75,0.0,0.0,0.0,-1.0428527701586772,-0.7030708081298306,1.035673330467863,-0.1393062008839162,-0.695023433100594,2.0862994284622967,0.006740503055500863,0.14803104788064414,-1.7119257523673728,0.0,0.0,0.0,0.0,0.0,0.0,1.9768195975808098,1.5679857204937078,1.2038423907253737
86.0,0.0,0.0,0.0,-1.0475151408847596,-0.6810509457647882,1.0361009264988847,-0.19272398949456024,-0.681381325464943,2.0843645874234515,0.007187228905896292,0.16367452318032139,-1.7659172448181908,0.0,0.0,0.0,0.0,0.0,0.0,2.030748615792856,1.5293941575741976,1.3359990461532933
86.25,0.0,0.0,0.0,-1.052371062726579,-0.6624363869456401,1.038740961849802,-0.23558418751470872,-0.6651859237422229,2.0767770877891683,0.008006815310161647,0.18532632683110717,-1.8095699083629209,0.0,0.0,0.0,0.0,0.0,0.0,2.1002932581520652,1.454636983988908,1.5150125461693942
86.5,0.0,0.0,0.0,-1.1411390846555145,-0.5298124990471644,1.0481450458128647,-0.2972656153497818,-0.6329841696063814,2.0516656814926093,0.01026925776701465,0.23588180056392294,-1.8731779605973709,0.0,0.0,0.0,0.0,0.0,0.0,2.1850294445052696,1.3592041641061867,1.7108236944908755
86.75,0.0,0.0,0.0,-1.0601415510700773,-0.5800077534164882,1.0547264016206117,-0.3168361958436122,-0.6142534138803764,2.034472844075274,0.011508391186930034,0.2640667234017642,-1.893747378690861,0.0,0.0,0.0,0.0,0.0,0.0,2.1250698172860227,1.0568355968230283,1.8436432001956786
87.0,0.0,0.0,0.0,-1.068700482827055,-0.5723567298403504,1.0631682535926499,-0.3272914090667919,-0.5912137312854546,2.012573548587056,0.012792015707889792,0.29551925684072944,-1.9051961517203153,0.0,0.0,0.0,0.0,0.0,0.0,2.1607643633778295,0.9470078015769882,1.942184043234811
87.25,0.0,0.0,0.0,-1.0787266813560028,-0.5680002996083922,1.0733552187821311,-0.3292337893469413,-0.5666166900973431,1.9866050970337006,0.014196033758096999,0.32928175000371995,-1.9081684314231147,0.0,0.0,0.0,0.0,0.0,0.0,2.150173719668334,0.8312000539325416,1.9830162619340517
87.5,0.0,0.0,0.0,-1.0895510857230017,-0.5671444539331507,1.0849914107031977,-0.32329449704497576,-0.5418538065217247,1.9575007271787173,0.015733803506226912,0.3643588939932272,-1.9033051701091093,0.0,0.0,0.0,0.0,0.0,0.0,2.0828751718211644,0.7023492769230293,1.9608861452401423
87.75,0.0,0.0,0.0,-1.2020674087769718,-0.44838719871401445,1.1091425833974926,-0.29824084612210305,-0.49723754094116,1.8985011082099708,0.019045028149198423,0.4314510828016276,-1.8804667557994643,0.0,0.0,0.0,0.0,0.0,0.0,1.9660357209550174,0.5721643533989236,1.8809371092013436
88.0,0.0,0.0,0.0,-1.1363785044799593,-0.4011460677813219,1.1318073492217668,-0.2628592394164062,-0.45817502330835236,1.8440266296796062,0.022381667821057417,0.49071954616177504,-1.8472404906427284,0.0,0.0,0.0,0.0,0.0,0.0,1.8288943522153853,0.36221606128690653,1.792666749987608
88.25,0.0,0.0,0.0,-1.1456345780395836,-0.4106000136707466,1.1422886346288672,-0.2397786100093296,-0.440507680921729,1.819006871026232,0.024022912258639062,0.517258057637727,-1.8251829875830463,0.0,0.0,0.0,0.0,0.0,0.0,1.6221978160370545,0.25894084124823685,1.6013979502575382
88.5,0.0,0.0,0.0,-1.1540412333180967,-0.4207851015305043,1.1518645401108103,-0.21612131927240824,-0.4247903731385776,1.7962619383911345,0.02565280475840028,0.5412412138479035,-1.8025135290527174,0.0,0.0,0.0,0.0,0.0,0.0,1.3860202113789497,0.19580353456890162,1.3721198935228922
88.75,0.0,0.0,0.0,-1.1615707354684148,-0.4343893527051632,1.1601855750901882,-0.18682120368327737,-0.41167542124703105,1.7766194968877485,0.027208140968319132,0.5621421596098365,-1.7740906653953874,0.0,0.0,0.0,0.0,0.0,0.0,1.1074894209609851,0.15515507272403625,1.0965672441526317
89.0,0.0,0.0,0.0,-0.9874373442610334,-0.35350673525942145,1.1666610116708485,-0.15279787443977033,-0.40207907247581764,1.761460050955606,0.028629112646969997,0.5789880072261009,-1.7407596549402629,0.0,0.0,0.0,0.0,0.0,0.0,0.7854748518425304,0.1325008723430242,0.7742184844766901
89.25,0.0,0.0,0.0,-1.1819476957195283,-0.3717762661064097,1.1707658786767594,-0.11428194638700576,-0.3965229046234797,1.7519555755900948,0.029830243980844544,0.5909029468098314,-1.7026323121396314,0.0,0.0,0.0,0.0,0.0,0.0,0.5800006394735079,0.06800028860150334,0.5760006098432451
89.5,0.0,0.0,0.0,-1.1839673320161297,-0.3936097368802348,1.172217457111251,-0.07184924241850935,-0.39508305608962724,1.748694693931418,0.0307424569224719,0.5973590021521206,-1.6601544755364253,0.0,0.0,0.0,0.0,0.0,0.0,0.4457474687734849,0.06789042132789268,0.44054704244823856
89.75,0.0,0.0,0.0,-1.183665797329395,-0.41732200592596136,1.1709472740611886,-0.026077344032676475,-0.39774018569640357,1.7518091719060158,0.03133284354423104,0.5980706113279736,-1.6138041732372879,0.0,0.0,0.0,0.0,0.0,0.0,0.3487214477350465,0.08429334716962028,0.33838037728770365
90.0,0.0,0.0,0.0,-1.180766561202652,-0.44235739429844856,1.1670655916825587,0.02243692218135168,-0.40448835390870674,1.7610687065987753,0.03160184372607427,0.5929291506306034,-1.5641690239952066,0.0,0.0,0.0,0.0,0.0,0.0,0.26886132596065015,0.11195761645557556,0.24444202730894132
90.25,0.0,0.0,0.0,-1.174963611721696,-0.4680775492375219,1.1608180408638948,0.07305130844298337,-0.4153668719423065,1.7759733198105896,0.03156058154792724,0.5819419833423765,-1.5120142831383472,0.0,0.0,0.0,0.0,0.0,0.0,0.20879780628544378,0.1521771626031256,0.14296375446831117
