Suke0811/REMS/test_robot.csv
timestamp,x,y,z,d_x,d_y,d_z,j.0,j.1,j.2,j.3,j.4,j.5,d_j.0,d_j.1,d_j.2,d_j.3,d_j.4,d_j.5,h2_norm,h2_norm_x,h2_norm_y
0.0,0.24999999526593206,0.01911586312977478,-0.2499999999997122,8.330897244407616,0.6368005601979146,-8.33333333332374,0.07631495594978333,0.3739679327402332,1.6182877662630093,9.561228556065932e-17,0.7617632254885983,-1.4944813708451132,0.0,0.0,0.0,0.0,0.0,0.0,0,0,0
0.03,0.24999999526593206,0.01911586312977478,-0.2499999999997122,-0.0027514190279730897,-0.0012376909986606514,0.0,0.07631495594978333,0.3739679327402332,1.6182877662630093,9.561228556065932e-17,0.7617632254885983,-1.4944813708451132,0.0,0.0,0.0,0.0,0.0,0.0,0,0,0
0.06,0.24999999526593206,0.01911586312977478,-0.2499999999997122,-0.0027514190279730897,-0.0012376909986606514,0.0,0.07631495594978333,0.3739679327402332,1.6182877662630093,9.561228556065932e-17,0.7617632254885983,-1.4944813708451132,0.0,0.0,0.0,0.0,0.0,0.0,0,0,0
0.09,0.24999999526593206,0.01911586312977478,-0.2499999999997122,-0.0027514190279730897,-0.0012376909986606514,0.0,0.07631495594978333,0.3739679327402332,1.6182877662630093,9.561228556065932e-17,0.7617632254885983,-1.4944813708451132,0.0,0.0,0.0,0.0,0.0,0.0,0,0,0
0.12,0.24999999526593206,0.01911586312977478,-0.2499999999997122,-0.0027514190279730897,-0.0012376909986606514,0.0,0.07631495594978333,0.3739679327402332,1.6182877662630093,9.561228556065932e-17,0.7617632254885983,-1.4944813708451132,0.0,0.0,0.0,0.0,0.0,0.0,0,0,0
0.15,0.24999999526593206,0.01911586312977478,-0.2499999999997122,-0.0027514190279730897,-0.0012376909986606514,0.0,0.07631495594978333,0.3739679327402332,1.6182877662630093,9.561228556065932e-17,0.7617632254885983,-1.4944813708451132,0.0,0.0,0.0,0.0,0.0,0.0,0,0,0
0.18,0.24999999526593206,0.01911586312977478,-0.2499999999997122,-0.0027514190279730897,-0.0012376909986606514,0.0,0.07631495594978333,0.3739679327402332,1.6182877662630093,9.561228556065932e-17,0.7617632254885983,-1.4944813708451132,0.0,0.0,0.0,0.0,0.0,0.0,0,0,0
0.21,0.24999999526593206,0.01911586312977478,-0.2499999999997122,-0.0027514190279730897,-0.0012376909986606514,0.0,0.07631495594978333,0.3739679327402332,1.6182877662630093,9.561228556065932e-17,0.7617632254885983,-1.4944813708451132,0.0,0.0,0.0,0.0,0.0,0.0,0,0,0
0.24,0.24999999526593206,0.01911586312977478,-0.2499999999997122,-0.0027514190279730897,-0.0012376909986606514,0.0,0.07631495594978333,0.3739679327402332,1.6182877662630093,9.561228556065932e-17,0.7617632254885983,-1.4944813708451132,0.0,0.0,0.0,0.0,0.0,0.0,0,0,0
0.27,0.24999999526593206,0.01911586312977478,-0.2499999999997122,-0.0027514190279730897,-0.0012376909986606514,0.0,0.07631495594978333,0.3739679327402332,1.6182877662630093,9.561228556065932e-17,0.7617632254885983,-1.4944813708451132,0.0,0.0,0.0,0.0,0.0,0.0,0,0,0
0.30000000000000004,0.24999999526593206,0.01911586312977478,-0.2499999999997122,-0.0027514190279730897,-0.0012376909986606514,0.0,0.07631495594978333,0.3739679327402332,1.6182877662630093,9.561228556065932e-17,0.7617632254885983,-1.4944813708451132,0.0,0.0,0.0,0.0,0.0,0.0,0,0,0
0.33000000000000007,0.24999999526593206,0.01911586312977478,-0.2499999999997122,-0.0027514190279730897,-0.0012376909986606514,0.0,0.07631495594978333,0.3739679327402332,1.6182877662630093,9.561228556065932e-17,0.7617632254885983,-1.4944813708451132,0.0,0.0,0.0,0.0,0.0,0.0,0,0,0
0.3600000000000001,0.24999999526593206,0.01911586312977478,-0.2499999999997122,-0.0027514190279730897,-0.0012376909986606514,0.0,0.07631495594978333,0.3739679327402332,1.6182877662630093,9.561228556065932e-17,0.7617632254885983,-1.4944813708451132,0.0,0.0,0.0,0.0,0.0,0.0,0,0,0
0.3900000000000001,0.24999999526593206,0.01911586312977478,-0.2499999999997122,-0.0027514190279730897,-0.0012376909986606514,0.0,0.07631495594978333,0.3739679327402332,1.6182877662630093,9.561228556065932e-17,0.7617632254885983,-1.4944813708451132,0.0,0.0,0.0,0.0,0.0,0.0,0,0,0
0.42000000000000015,0.24999999526593206,0.01911586312977478,-0.2499999999997122,-0.0027514190279730897,-0.0012376909986606514,0.0,0.07631495594978333,0.3739679327402332,1.6182877662630093,9.561228556065932e-17,0.7617632254885983,-1.4944813708451132,0.0,0.0,0.0,0.0,0.0,0.0,0,0,0
0.4500000000000002,0.24999999526593206,0.01911586312977478,-0.2499999999997122,-0.0027514190279730897,-0.0012376909986606514,0.0,0.07631495594978333,0.3739679327402332,1.6182877662630093,9.561228556065932e-17,0.7617632254885983,-1.4944813708451132,0.0,0.0,0.0,0.0,0.0,0.0,0,0,0
0.4800000000000002,0.24999999526593206,0.01911586312977478,-0.2499999999997122,-0.0027514190279730897,-0.0012376909986606514,0.0,0.07631495594978333,0.3739679327402332,1.6182877662630093,9.561228556065932e-17,0.7617632254885983,-1.4944813708451132,0.0,0.0,0.0,0.0,0.0,0.0,0,0,0
0.5100000000000002,0.30670960494535743,-0.04390930165473733,-0.1664983127573265,1.8859435277032484,-2.1054290685001424,2.7833895747461908,-0.14219625294208527,1.1299072033979758,1.4596503788193096,2.9002874206745167e-16,1.315943908127533,-1.7129925797369816,0.0,0.0,0.0,0.0,0.0,0.0,0,0,0
0.5400000000000003,0.30670960494535743,-0.04390930165473733,-0.1664983127573265,-0.0027514190279730897,-0.0012376909986606514,0.0,-0.14219625294208527,1.1299072033979758,1.4596503788193096,2.9002874206745167e-16,1.315943908127533,-1.7129925797369816,0.0,0.0,0.0,0.0,0.0,0.0,0,0,0
0.5700000000000003,0.30670960494535743,-0.04390930165473733,-0.1664983127573265,-0.0027514190279730897,-0.0012376909986606514,0.0,-0.14219625294208527,1.1299072033979758,1.4596503788193096,2.9002874206745167e-16,1.315943908127533,-1.7129925797369816,0.0,0.0,0.0,0.0,0.0,0.0,0,0,0
0.6000000000000003,0.30670960494535743,-0.04390930165473733,-0.1664983127573265,-0.0027514190279730897,-0.0012376909986606514,0.0,-0.14219625294208527,1.1299072033979758,1.4596503788193096,2.9002874206745167e-16,1.315943908127533,-1.7129925797369816,0.0,0.0,0.0,0.0,0.0,0.0,0,0,0
0.6300000000000003,0.30670960494535743,-0.04390930165473733,-0.1664983127573265,-0.0027514190279730897,-0.0012376909986606514,0.0,-0.14219625294208527,1.1299072033979758,1.4596503788193096,2.9002874206745167e-16,1.315943908127533,-1.7129925797369816,0.0,0.0,0.0,0.0,0.0,0.0,0,0,0
0.6600000000000004,0.30670960494535743,-0.04390930165473733,-0.1664983127573265,-0.0027514190279730897,-0.0012376909986606514,0.0,-0.14219625294208527,1.1299072033979758,1.4596503788193096,2.9002874206745167e-16,1.315943908127533,-1.7129925797369816,0.0,0.0,0.0,0.0,0.0,0.0,0,0,0
0.6900000000000004,0.30670960494535743,-0.04390930165473733,-0.1664983127573265,-0.0027514190279730897,-0.0012376909986606514,0.0,-0.14219625294208527,1.1299072033979758,1.4596503788193096,2.9002874206745167e-16,1.315943908127533,-1.7129925797369816,0.0,0.0,0.0,0.0,0.0,0.0,0,0,0
0.7200000000000004,0.30670960494535743,-0.04390930165473733,-0.1664983127573265,-0.0027514190279730897,-0.0012376909986606514,0.0,-0.14219625294208527,1.1299072033979758,1.4596503788193096,2.9002874206745167e-16,1.315943908127533,-1.7129925797369816,0.0,0.0,0.0,0.0,0.0,0.0,0,0,0
0.7500000000000004,0.29379779647390597,-0.04062953321244498,-0.2080273633160664,-0.43334430705134735,0.10787237548974442,-1.3843016852913301,-0.1374192088842392,1.00969253805201,1.3977164807850349,1.667256383138105e-16,1.1450445653162462,-1.7082155356791358,0.0,0.0,0.0,0.0,0.0,0.0,0,0,0
0.7800000000000005,0.29379779647390597,-0.04062953321244498,-0.2080273633160664,-0.0027514190279730897,-0.0012376909986606514,0.0,-0.1374192088842392,1.00969253805201,1.3977164807850349,1.667256383138105e-16,1.1450445653162462,-1.7082155356791358,0.0,0.0,0.0,0.0,0.0,0.0,0,0,0
0.8100000000000005,0.29379779647390597,-0.04062953321244498,-0.2080273633160664,-0.0027514190279730897,-0.0012376909986606514,0.0,-0.1374192088842392,1.00969253805201,1.3977164807850349,1.667256383138105e-16,1.1450445653162462,-1.7082155356791358,0.0,0.0,0.0,0.0,0.0,0.0,0,0,0
0.8400000000000005,0.29379779647390597,-0.04062953321244498,-0.2080273633160664,-0.0027514190279730897,-0.0012376909986606514,0.0,-0.1374192088842392,1.00969253805201,1.3977164807850349,1.667256383138105e-16,1.1450445653162462,-1.7082155356791358,0.0,0.0,0.0,0.0,0.0,0.0,0,0,0
0.8700000000000006,0.29379779647390597,-0.04062953321244498,-0.2080273633160664,-0.0027514190279730897,-0.0012376909986606514,0.0,-0.1374192088842392,1.00969253805201,1.3977164807850349,1.667256383138105e-16,1.1450445653162462,-1.7082155356791358,0.0,0.0,0.0,0.0,0.0,0.0,0,0,0
0.9000000000000006,0.29379779647390597,-0.04062953321244498,-0.2080273633160664,-0.0027514190279730897,-0.0012376909986606514,0.0,-0.1374192088842392,1.00969253805201,1.3977164807850349,1.667256383138105e-16,1.1450445653162462,-1.7082155356791358,0.0,0.0,0.0,0.0,0.0,0.0,0,0,0
0.9300000000000006,0.29379779647390597,-0.04062953321244498,-0.2080273633160664,-0.0027514190279730897,-0.0012376909986606514,0.0,-0.1374192088842392,1.00969253805201,1.3977164807850349,1.667256383138105e-16,1.1450445653162462,-1.7082155356791358,0.0,0.0,0.0,0.0,0.0,0.0,0,0,0
0.9600000000000006,0.29379779647390597,-0.04062953321244498,-0.2080273633160664,-0.0027514190279730897,-0.0012376909986606514,0.0,-0.1374192088842392,1.00969253805201,1.3977164807850349,1.667256383138105e-16,1.1450445653162462,-1.7082155356791358,0.0,0.0,0.0,0.0,0.0,0.0,0,0,0
0.9900000000000007,0.29379779647390597,-0.04062953321244498,-0.2080273633160664,-0.0027514190279730897,-0.0012376909986606514,0.0,-0.1374192088842392,1.00969253805201,1.3977164807850349,1.667256383138105e-16,1.1450445653162462,-1.7082155356791358,0.0,0.0,0.0,0.0,0.0,0.0,0,0,0
1.0200000000000007,0.2942513797709761,-0.02823701242121845,-0.2104836545171877,0.012746424242473586,0.4115651468447803,-0.08187637337071045,-0.09566926211118698,1.0084781386521187,1.3933219336459568,1.3349071297492986e-16,1.1349765067774027,-1.6664655889060835,0.0,0.0,0.0,0.0,0.0,0.0,0,0,0
1.0500000000000007,0.2942513797709761,-0.02823701242121845,-0.2104836545171877,-0.0027514190279730897,-0.0012376909986606514,0.0,-0.09566926211118698,1.0084781386521187,1.3933219336459568,1.3349071297492986e-16,1.1349765067774027,-1.6664655889060835,0.0,0.0,0.0,0.0,0.0,0.0,0,0,0
1.0800000000000007,0.2942513797709761,-0.02823701242121845,-0.2104836545171877,-0.0027514190279730897,-0.0012376909986606514,0.0,-0.09566926211118698,1.0084781386521187,1.3933219336459568,1.3349071297492986e-16,1.1349765067774027,-1.6664655889060835,0.0,0.0,0.0,0.0,0.0,0.0,0,0,0
1.1100000000000008,0.2942513797709761,-0.02823701242121845,-0.2104836545171877,-0.0027514190279730897,-0.0012376909986606514,0.0,-0.09566926211118698,1.0084781386521187,1.3933219336459568,1.3349071297492986e-16,1.1349765067774027,-1.6664655889060835,0.0,0.0,0.0,0.0,0.0,0.0,0,0,0
1.1400000000000008,0.2942513797709761,-0.02823701242121845,-0.2104836545171877,-0.0027514190279730897,-0.0012376909986606514,0.0,-0.09566926211118698,1.0084781386521187,1.3933219336459568,1.3349071297492986e-16,1.1349765067774027,-1.6664655889060835,0.0,0.0,0.0,0.0,0.0,0.0,0,0,0
1.1700000000000008,0.2942513797709761,-0.02823701242121845,-0.2104836545171877,-0.0027514190279730897,-0.0012376909986606514,0.0,-0.09566926211118698,1.0084781386521187,1.3933219336459568,1.3349071297492986e-16,1.1349765067774027,-1.6664655889060835,0.0,0.0,0.0,0.0,0.0,0.0,0,0,0
1.2000000000000008,0.2942513797709761,-0.02823701242121845,-0.2104836545171877,-0.0027514190279730897,-0.0012376909986606514,0.0,-0.09566926211118698,1.0084781386521187,1.3933219336459568,1.3349071297492986e-16,1.1349765067774027,-1.6664655889060835,0.0,0.0,0.0,0.0,0.0,0.0,0,0,0
1.2300000000000009,0.2942513797709761,-0.02823701242121845,-0.2104836545171877,-0.0027514190279730897,-0.0012376909986606514,0.0,-0.09566926211118698,1.0084781386521187,1.3933219336459568,1.3349071297492986e-16,1.1349765067774027,-1.6664655889060835,0.0,0.0,0.0,0.0,0.0,0.0,0,0,0
1.260000000000001,0.29345575602669094,-0.015874937907748347,-0.2145962852863937,-0.02902648953917147,0.4105332539103624,-0.13708769230686702,-0.05404385179281235,0.9909157729123338,1.3859641859872216,1.4242088720681853e-16,1.1180076735995503,-1.624840178587709,0.0,0.0,0.0,0.0,0.0,0.0,0,0,0
1.290000000000001,0.29345575602669094,-0.015874937907748347,-0.2145962852863937,-0.0027514190279730897,-0.0012376909986606514,0.0,-0.05404385179281235,0.9909157729123338,1.3859641859872216,1.4242088720681853e-16,1.1180076735995503,-1.624840178587709,0.0,0.0,0.0,0.0,0.0,0.0,0,0,0
1.320000000000001,0.29345575602669094,-0.015874937907748347,-0.2145962852863937,-0.0027514190279730897,-0.0012376909986606514,0.0,-0.05404385179281235,0.9909157729123338,1.3859641859872216,1.4242088720681853e-16,1.1180076735995503,-1.624840178587709,0.0,0.0,0.0,0.0,0.0,0.0,0,0,0
1.350000000000001,0.29345575602669094,-0.015874937907748347,-0.2145962852863937,-0.0027514190279730897,-0.0012376909986606514,0.0,-0.05404385179281235,0.9909157729123338,1.3859641859872216,1.4242088720681853e-16,1.1180076735995503,-1.624840178587709,0.0,0.0,0.0,0.0,0.0,0.0,0,0,0
1.380000000000001,0.29345575602669094,-0.015874937907748347,-0.2145962852863937,-0.0027514190279730897,-0.0012376909986606514,0.0,-0.05404385179281235,0.9909157729123338,1.3859641859872216,1.4242088720681853e-16,1.1180076735995503,-1.624840178587709,0.0,0.0,0.0,0.0,0.0,0.0,0,0,0
1.410000000000001,0.29345575602669094,-0.015874937907748347,-0.2145962852863937,-0.0027514190279730897,-0.0012376909986606514,0.0,-0.05404385179281235,0.9909157729123338,1.3859641859872216,1.4242088720681853e-16,1.1180076735995503,-1.624840178587709,0.0,0.0,0.0,0.0,0.0,0.0,0,0,0
1.440000000000001,0.29345575602669094,-0.015874937907748347,-0.2145962852863937,-0.0027514190279730897,-0.0012376909986606514,0.0,-0.05404385179281235,0.9909157729123338,1.3859641859872216,1.4242088720681853e-16,1.1180076735995503,-1.624840178587709,0.0,0.0,0.0,0.0,0.0,0.0,0,0,0
1.470000000000001,0.29345575602669094,-0.015874937907748347,-0.2145962852863937,-0.0027514190279730897,-0.0012376909986606514,0.0,-0.05404385179281235,0.9909157729123338,1.3859641859872216,1.4242088720681853e-16,1.1180076735995503,-1.624840178587709,0.0,0.0,0.0,0.0,0.0,0.0,0,0,0
1.500000000000001,0.29158159449567006,-0.0057043812746358355,-0.21975031775453466,-0.0649068315552424,0.3375232460292596,-0.17180108227136487,-0.01956108957529068,0.9829441969643282,1.376358592958245,1.3183914989622968e-16,1.0967561197722073,-1.5903574163701872,0.0,0.0,0.0,0.0,0.0,0.0,0,0,0
1.5300000000000011,0.29158159449567006,-0.0057043812746358355,-0.21975031775453466,-0.0027514190279730897,-0.0012376909986606514,0.0,-0.01956108957529068,0.9829441969643282,1.376358592958245,1.3183914989622968e-16,1.0967561197722073,-1.5903574163701872,0.0,0.0,0.0,0.0,0.0,0.0,0,0,0
1.5600000000000012,0.29158159449567006,-0.0057043812746358355,-0.21975031775453466,-0.0027514190279730897,-0.0012376909986606514,0.0,-0.01956108957529068,0.9829441969643282,1.376358592958245,1.3183914989622968e-16,1.0967561197722073,-1.5903574163701872,0.0,0.0,0.0,0.0,0.0,0.0,0,0,0
1.5900000000000012,0.29158159449567006,-0.0057043812746358355,-0.21975031775453466,-0.0027514190279730897,-0.0012376909986606514,0.0,-0.01956108957529068,0.9829441969643282,1.376358592958245,1.3183914989622968e-16,1.0967561197722073,-1.5903574163701872,0.0,0.0,0.0,0.0,0.0,0.0,0,0,0
1.6200000000000012,0.29158159449567006,-0.0057043812746358355,-0.21975031775453466,-0.0027514190279730897,-0.0012376909986606514,0.0,-0.01956108957529068,0.9829441969643282,1.376358592958245,1.3183914989622968e-16,1.0967561197722073,-1.5903574163701872,0.0,0.0,0.0,0.0,0.0,0.0,0,0,0
1.6500000000000012,0.29158159449567006,-0.0057043812746358355,-0.21975031775453466,-0.0027514190279730897,-0.0012376909986606514,0.0,-0.01956108957529068,0.9829441969643282,1.376358592958245,1.3183914989622968e-16,1.0967561197722073,-1.5903574163701872,0.0,0.0,0.0,0.0,0.0,0.0,0,0,0
1.6800000000000013,0.29158159449567006,-0.0057043812746358355,-0.21975031775453466,-0.0027514190279730897,-0.0012376909986606514,0.0,-0.01956108957529068,0.9829441969643282,1.376358592958245,1.3183914989622968e-16,1.0967561197722073,-1.5903574163701872,0.0,0.0,0.0,0.0,0.0,0.0,0,0,0
1.7100000000000013,0.29158159449567006,-0.0057043812746358355,-0.21975031775453466,-0.0027514190279730897,-0.0012376909986606514,0.0,-0.01956108957529068,0.9829441969643282,1.376358592958245,1.3183914989622968e-16,1.0967561197722073,-1.5903574163701872,0.0,0.0,0.0,0.0,0.0,0.0,0,0,0
1.7400000000000013,0.29158159449567006,-0.0057043812746358355,-0.21975031775453466,-0.0027514190279730897,-0.0012376909986606514,0.0,-0.01956108957529068,0.9829441969643282,1.376358592958245,1.3183914989622968e-16,1.0967561197722073,-1.5903574163701872,0.0,0.0,0.0,0.0,0.0,0.0,0,0,0
1.7700000000000014,0.2889449412086399,0.002369149202303902,-0.22559204269681937,-0.09045452657369826,0.2676420399744273,-0.19472416474282384,0.008199126459658146,0.9643277965005486,1.3651505257943022,1.2913969898942337e-16,1.0725596996246227,-1.5625972003352384,0.0,0.0,0.0,0.0,0.0,0.0,0,0,0
1.8000000000000014,0.2889449412086399,0.002369149202303902,-0.22559204269681937,-0.0027514190279730897,-0.0012376909986606514,0.0,0.008199126459658146,0.9643277965005486,1.3651505257943022,1.2913969898942337e-16,1.0725596996246227,-1.5625972003352384,0.0,0.0,0.0,0.0,0.0,0.0,0,0,0
1.8300000000000014,0.2889449412086399,0.002369149202303902,-0.22559204269681937,-0.0027514190279730897,-0.0012376909986606514,0.0,0.008199126459658146,0.9643277965005486,1.3651505257943022,1.2913969898942337e-16,1.0725596996246227,-1.5625972003352384,0.0,0.0,0.0,0.0,0.0,0.0,0,0,0
1.8600000000000014,0.2889449412086399,0.002369149202303902,-0.22559204269681937,-0.0027514190279730897,-0.0012376909986606514,0.0,0.008199126459658146,0.9643277965005486,1.3651505257943022,1.2913969898942337e-16,1.0725596996246227,-1.5625972003352384,0.0,0.0,0.0,0.0,0.0,0.0,0,0,0
1.8900000000000015,0.2889449412086399,0.002369149202303902,-0.22559204269681937,-0.0027514190279730897,-0.0012376909986606514,0.0,0.008199126459658146,0.9643277965005486,1.3651505257943022,1.2913969898942337e-16,1.0725596996246227,-1.5625972003352384,0.0,0.0,0.0,0.0,0.0,0.0,0,0,0
1.9200000000000015,0.2889449412086399,0.002369149202303902,-0.22559204269681937,-0.0027514190279730897,-0.0012376909986606514,0.0,0.008199126459658146,0.9643277965005486,1.3651505257943022,1.2913969898942337e-16,1.0725596996246227,-1.5625972003352384,0.0,0.0,0.0,0.0,0.0,0.0,0,0,0
1.9500000000000015,0.2889449412086399,0.002369149202303902,-0.22559204269681937,-0.0027514190279730897,-0.0012376909986606514,0.0,0.008199126459658146,0.9643277965005486,1.3651505257943022,1.2913969898942337e-16,1.0725596996246227,-1.5625972003352384,0.0,0.0,0.0,0.0,0.0,0.0,0,0,0
1.9800000000000015,0.2889449412086399,0.002369149202303902,-0.22559204269681937,-0.0027514190279730897,-0.0012376909986606514,0.0,0.008199126459658146,0.9643277965005486,1.3651505257943022,1.2913969898942337e-16,1.0725596996246227,-1.5625972003352384,0.0,0.0,0.0,0.0,0.0,0.0,0,0,0
2.0100000000000016,0.28563950261868887,0.007810824679037637,-0.23219589997308557,-0.11280225974440222,0.17993884754741998,-0.22012857587553986,0.02733823098242283,0.9437159682101788,1.3520161807601556,1.2254168908380559e-16,1.045072671110709,-1.5434580958124737,0.0,0.0,0.0,0.0,0.0,0.0,0,0,0
2.0400000000000014,0.28563950261868887,0.007810824679037637,-0.23219589997308557,-0.0027514190279730897,-0.0012376909986606514,0.0,0.02733823098242283,0.9437159682101788,1.3520161807601556,1.2254168908380559e-16,1.045072671110709,-1.5434580958124737,0.0,0.0,0.0,0.0,0.0,0.0,0,0,0
2.070000000000001,0.28563950261868887,0.007810824679037637,-0.23219589997308557,-0.0027514190279730897,-0.0012376909986606514,0.0,0.02733823098242283,0.9437159682101788,1.3520161807601556,1.2254168908380559e-16,1.045072671110709,-1.5434580958124737,0.0,0.0,0.0,0.0,0.0,0.0,0,0,0
2.100000000000001,0.28563950261868887,0.007810824679037637,-0.23219589997308557,-0.0027514190279730897,-0.0012376909986606514,0.0,0.02733823098242283,0.9437159682101788,1.3520161807601556,1.2254168908380559e-16,1.045072671110709,-1.5434580958124737,0.0,0.0,0.0,0.0,0.0,0.0,0,0,0
2.130000000000001,0.28563950261868887,0.007810824679037637,-0.23219589997308557,-0.0027514190279730897,-0.0012376909986606514,0.0,0.02733823098242283,0.9437159682101788,1.3520161807601556,1.2254168908380559e-16,1.045072671110709,-1.5434580958124737,0.0,0.0,0.0,0.0,0.0,0.0,0,0,0
2.1600000000000006,0.28563950261868887,0.007810824679037637,-0.23219589997308557,-0.0027514190279730897,-0.0012376909986606514,0.0,0.02733823098242283,0.9437159682101788,1.3520161807601556,1.2254168908380559e-16,1.045072671110709,-1.5434580958124737,0.0,0.0,0.0,0.0,0.0,0.0,0,0,0
2.1900000000000004,0.28563950261868887,0.007810824679037637,-0.23219589997308557,-0.0027514190279730897,-0.0012376909986606514,0.0,0.02733823098242283,0.9437159682101788,1.3520161807601556,1.2254168908380559e-16,1.045072671110709,-1.5434580958124737,0.0,0.0,0.0,0.0,0.0,0.0,0,0,0
2.22,0.28563950261868887,0.007810824679037637,-0.23219589997308557,-0.0027514190279730897,-0.0012376909986606514,0.0,0.02733823098242283,0.9437159682101788,1.3520161807601556,1.2254168908380559e-16,1.045072671110709,-1.5434580958124737,0.0,0.0,0.0,0.0,0.0,0.0,0,0,0
2.25,0.2815995245325495,0.01001573637600943,-0.23986889301524889,-0.13736104260070717,0.07205540001757527,-0.25576643473877725,0.03555231913924217,0.9200210075867868,1.3361242554240955,1.111318147922748e-16,1.0129239579836704,-1.5352440076556544,0.0,0.0,0.0,0.0,0.0,0.0,0,0,0
2.28,0.2815995245325495,0.01001573637600943,-0.23986889301524889,-0.0027514190279730897,-0.0012376909986606514,0.0,0.03555231913924217,0.9200210075867868,1.3361242554240955,1.111318147922748e-16,1.0129239579836704,-1.5352440076556544,0.0,0.0,0.0,0.0,0.0,0.0,0,0,0
2.3099999999999996,0.2815995245325495,0.01001573637600943,-0.23986889301524889,-0.0027514190279730897,-0.0012376909986606514,0.0,0.03555231913924217,0.9200210075867868,1.3361242554240955,1.111318147922748e-16,1.0129239579836704,-1.5352440076556544,0.0,0.0,0.0,0.0,0.0,0.0,0,0,0
2.3399999999999994,0.2815995245325495,0.01001573637600943,-0.23986889301524889,-0.0027514190279730897,-0.0012376909986606514,0.0,0.03555231913924217,0.9200210075867868,1.3361242554240955,1.111318147922748e-16,1.0129239579836704,-1.5352440076556544,0.0,0.0,0.0,0.0,0.0,0.0,0,0,0
2.369999999999999,0.2815995245325495,0.01001573637600943,-0.23986889301524889,-0.0027514190279730897,-0.0012376909986606514,0.0,0.03555231913924217,0.9200210075867868,1.3361242554240955,1.111318147922748e-16,1.0129239579836704,-1.5352440076556544,0.0,0.0,0.0,0.0,0.0,0.0,0,0,0
2.399999999999999,0.2815995245325495,0.01001573637600943,-0.23986889301524889,-0.0027514190279730897,-0.0012376909986606514,0.0,0.03555231913924217,0.9200210075867868,1.3361242554240955,1.111318147922748e-16,1.0129239579836704,-1.5352440076556544,0.0,0.0,0.0,0.0,0.0,0.0,0,0,0
2.429999999999999,0.2815995245325495,0.01001573637600943,-0.23986889301524889,-0.0027514190279730897,-0.0012376909986606514,0.0,0.03555231913924217,0.9200210075867868,1.3361242554240955,1.111318147922748e-16,1.0129239579836704,-1.5352440076556544,0.0,0.0,0.0,0.0,0.0,0.0,0,0,0
2.4599999999999986,0.2815995245325495,0.01001573637600943,-0.23986889301524889,-0.0027514190279730897,-0.0012376909986606514,0.0,0.03555231913924217,0.9200210075867868,1.3361242554240955,1.111318147922748e-16,1.0129239579836704,-1.5352440076556544,0.0,0.0,0.0,0.0,0.0,0.0,0,0,0
2.4899999999999984,0.2815995245325495,0.01001573637600943,-0.23986889301524889,-0.0027514190279730897,-0.0012376909986606514,0.0,0.03555231913924217,0.9200210075867868,1.3361242554240955,1.111318147922748e-16,1.0129239579836704,-1.5352440076556544,0.0,0.0,0.0,0.0,0.0,0.0,0,0,0
2.5199999999999982,0.27696521783651235,0.008348287184488044,-0.2483280480820785,-0.15731323753610002,-0.05702303260030032,-0.28197183556098737,0.030132882297039032,0.8939821589590783,1.3178007453554583,1.1305577923601228e-16,0.9771649673550994,-1.5406634444978575,0.0,0.0,0.0,0.0,0.0,0.0,0,0,0
2.549999999999998,0.27696521783651235,0.008348287184488044,-0.2483280480820785,-0.0027514190279730897,-0.0012376909986606514,0.0,0.030132882297039032,0.8939821589590783,1.3178007453554583,1.1305577923601228e-16,0.9771649673550994,-1.5406634444978575,0.0,0.0,0.0,0.0,0.0,0.0,0,0,0
2.579999999999998,0.27696521783651235,0.008348287184488044,-0.2483280480820785,-0.0027514190279730897,-0.0012376909986606514,0.0,0.030132882297039032,0.8939821589590783,1.3178007453554583,1.1305577923601228e-16,0.9771649673550994,-1.5406634444978575,0.0,0.0,0.0,0.0,0.0,0.0,0,0,0
2.6099999999999977,0.27696521783651235,0.008348287184488044,-0.2483280480820785,-0.0027514190279730897,-0.0012376909986606514,0.0,0.030132882297039032,0.8939821589590783,1.3178007453554583,1.1305577923601228e-16,0.9771649673550994,-1.5406634444978575,0.0,0.0,0.0,0.0,0.0,0.0,0,0,0
2.6399999999999975,0.27696521783651235,0.008348287184488044,-0.2483280480820785,-0.0027514190279730897,-0.0012376909986606514,0.0,0.030132882297039032,0.8939821589590783,1.3178007453554583,1.1305577923601228e-16,0.9771649673550994,-1.5406634444978575,0.0,0.0,0.0,0.0,0.0,0.0,0,0,0
2.6699999999999973,0.27696521783651235,0.008348287184488044,-0.2483280480820785,-0.0027514190279730897,-0.0012376909986606514,0.0,0.030132882297039032,0.8939821589590783,1.3178007453554583,1.1305577923601228e-16,0.9771649673550994,-1.5406634444978575,0.0,0.0,0.0,0.0,0.0,0.0,0,0,0
2.699999999999997,0.27696521783651235,0.008348287184488044,-0.2483280480820785,-0.0027514190279730897,-0.0012376909986606514,0.0,0.030132882297039032,0.8939821589590783,1.3178007453554583,1.1305577923601228e-16,0.9771649673550994,-1.5406634444978575,0.0,0.0,0.0,0.0,0.0,0.0,0,0,0
2.729999999999997,0.27696521783651235,0.008348287184488044,-0.2483280480820785,-0.0027514190279730897,-0.0012376909986606514,0.0,0.030132882297039032,0.8939821589590783,1.3178007453554583,1.1305577923601228e-16,0.9771649673550994,-1.5406634444978575,0.0,0.0,0.0,0.0,0.0,0.0,0,0,0
2.7599999999999967,0.2585021300287278,0.0017635310022388068,-0.250000000001466,-0.6177618464652759,-0.2203125807734213,-0.05573173064624959,0.006822008173912764,0.45637287974725227,1.5501230535300294,9.062021581170095e-17,0.8123250884003573,-1.5639743186209838,0.0,0.0,0.0,0.0,0.0,0.0,0,0,0
2.7899999999999965,0.2585021300287278,0.0017635310022388068,-0.250000000001466,-0.0027514190279730897,-0.0012376909986606514,0.0,0.006822008173912764,0.45637287974725227,1.5501230535300294,9.062021581170095e-17,0.8123250884003573,-1.5639743186209838,0.0,0.0,0.0,0.0,0.0,0.0,0,0,0
2.8199999999999963,0.2585021300287278,0.0017635310022388068,-0.250000000001466,-0.0027514190279730897,-0.0012376909986606514,0.0,0.006822008173912764,0.45637287974725227,1.5501230535300294,9.062021581170095e-17,0.8123250884003573,-1.5639743186209838,0.0,0.0,0.0,0.0,0.0,0.0,0,0,0
2.849999999999996,0.2585021300287278,0.0017635310022388068,-0.250000000001466,-0.0027514190279730897,-0.0012376909986606514,0.0,0.006822008173912764,0.45637287974725227,1.5501230535300294,9.062021581170095e-17,0.8123250884003573,-1.5639743186209838,0.0,0.0,0.0,0.0,0.0,0.0,0,0,0
2.879999999999996,0.2585021300287278,0.0017635310022388068,-0.250000000001466,-0.0027514190279730897,-0.0012376909986606514,0.0,0.006822008173912764,0.45637287974725227,1.5501230535300294,9.062021581170095e-17,0.8123250884003573,-1.5639743186209838,0.0,0.0,0.0,0.0,0.0,0.0,0,0,0
2.9099999999999957,0.2585021300287278,0.0017635310022388068,-0.250000000001466,-0.0027514190279730897,-0.0012376909986606514,0.0,0.006822008173912764,0.45637287974725227,1.5501230535300294,9.062021581170095e-17,0.8123250884003573,-1.5639743186209838,0.0,0.0,0.0,0.0,0.0,0.0,0,0,0
2.9399999999999955,0.2585021300287278,0.0017635310022388068,-0.250000000001466,-0.0027514190279730897,-0.0012376909986606514,0.0,0.006822008173912764,0.45637287974725227,1.5501230535300294,9.062021581170095e-17,0.8123250884003573,-1.5639743186209838,0.0,0.0,0.0,0.0,0.0,0.0,0,0,0
2.9699999999999953,0.2585021300287278,0.0017635310022388068,-0.250000000001466,-0.0027514190279730897,-0.0012376909986606514,0.0,0.006822008173912764,0.45637287974725227,1.5501230535300294,9.062021581170095e-17,0.8123250884003573,-1.5639743186209838,0.0,0.0,0.0,0.0,0.0,0.0,0,0,0
2.999999999999995,0.2585021300287278,0.0017635310022388068,-0.250000000001466,-0.0027514190279730897,-0.0012376909986606514,0.0,0.006822008173912764,0.45637287974725227,1.5501230535300294,9.062021581170095e-17,0.8123250884003573,-1.5639743186209838,0.0,0.0,0.0,0.0,0.0,0.0,0,0,0
3.029999999999995,0.24123236209443757,-0.008503133439271494,-0.2500000000000015,-0.5780516371509833,-0.3438596269904615,4.881650639276813e-11,-0.03523413836956024,0.2884975951384017,1.6880586009238565,9.122654488831078e-17,0.7072521455380206,-1.6060304651644568,0.0,0.0,0.0,0.0,0.0,0.0,0,0,0
3.0599999999999947,0.24123236209443757,-0.008503133439271494,-0.2500000000000015,-0.0027514190279730897,-0.0012376909986606514,0.0,-0.03523413836956024,0.2884975951384017,1.6880586009238565,9.122654488831078e-17,0.7072521455380206,-1.6060304651644568,0.0,0.0,0.0,0.0,0.0,0.0,0,0,0
3.0899999999999945,0.24123236209443757,-0.008503133439271494,-0.2500000000000015,-0.0027514190279730897,-0.0012376909986606514,0.0,-0.03523413836956024,0.2884975951384017,1.6880586009238565,9.122654488831078e-17,0.7072521455380206,-1.6060304651644568,0.0,0.0,0.0,0.0,0.0,0.0,0,0,0
3.1199999999999943,0.24123236209443757,-0.008503133439271494,-0.2500000000000015,-0.0027514190279730897,-0.0012376909986606514,0.0,-0.03523413836956024,0.2884975951384017,1.6880586009238565,9.122654488831078e-17,0.7072521455380206,-1.6060304651644568,0.0,0.0,0.0,0.0,0.0,0.0,0,0,0
3.149999999999994,0.24123236209443757,-0.008503133439271494,-0.2500000000000015,-0.0027514190279730897,-0.0012376909986606514,0.0,-0.03523413836956024,0.2884975951384017,1.6880586009238565,9.122654488831078e-17,0.7072521455380206,-1.6060304651644568,0.0,0.0,0.0,0.0,0.0,0.0,0,0,0
3.179999999999994,0.24123236209443757,-0.008503133439271494,-0.2500000000000015,-0.0027514190279730897,-0.0012376909986606514,0.0,-0.03523413836956024,0.2884975951384017,1.6880586009238565,9.122654488831078e-17,0.7072521455380206,-1.6060304651644568,0.0,0.0,0.0,0.0,0.0,0.0,0,0,0
3.2099999999999937,0.24123236209443757,-0.008503133439271494,-0.2500000000000015,-0.0027514190279730897,-0.0012376909986606514,0.0,-0.03523413836956024,0.2884975951384017,1.6880586009238565,9.122654488831078e-17,0.7072521455380206,-1.6060304651644568,0.0,0.0,0.0,0.0,0.0,0.0,0,0,0
3.2399999999999936,0.24123236209443757,-0.008503133439271494,-0.2500000000000015,-0.0027514190279730897,-0.0012376909986606514,0.0,-0.03523413836956024,0.2884975951384017,1.6880586009238565,9.122654488831078e-17,0.7072521455380206,-1.6060304651644568,0.0,0.0,0.0,0.0,0.0,0.0,0,0,0
3.2699999999999934,0.22556935060217978,-0.022176465107555686,-0.2500000000000027,-0.52433660630162,-0.45744776910202134,-4.0708177569589075e-14,-0.09799836575984955,0.16999921470805815,1.780407095987058,8.546410593641985e-17,0.6300265637926102,-1.668794692554746,0.0,0.0,0.0,0.0,0.0,0.0,0,0,0
3.299999999999993,0.22556935060217978,-0.022176465107555686,-0.2500000000000027,-0.0027514190279730897,-0.0012376909986606514,0.0,-0.09799836575984955,0.16999921470805815,1.780407095987058,8.546410593641985e-17,0.6300265637926102,-1.668794692554746,0.0,0.0,0.0,0.0,0.0,0.0,0,0,0
3.329999999999993,0.22556935060217978,-0.022176465107555686,-0.2500000000000027,-0.0027514190279730897,-0.0012376909986606514,0.0,-0.09799836575984955,0.16999921470805815,1.780407095987058,8.546410593641985e-17,0.6300265637926102,-1.668794692554746,0.0,0.0,0.0,0.0,0.0,0.0,0,0,0
3.3599999999999928,0.22556935060217978,-0.022176465107555686,-0.2500000000000027,-0.0027514190279730897,-0.0012376909986606514,0.0,-0.09799836575984955,0.16999921470805815,1.780407095987058,8.546410593641985e-17,0.6300265637926102,-1.668794692554746,0.0,0.0,0.0,0.0,0.0,0.0,0,0,0
3.3899999999999926,0.22556935060217978,-0.022176465107555686,-0.2500000000000027,-0.0027514190279730897,-0.0012376909986606514,0.0,-0.09799836575984955,0.16999921470805815,1.780407095987058,8.546410593641985e-17,0.6300265637926102,-1.668794692554746,0.0,0.0,0.0,0.0,0.0,0.0,0,0,0
3.4199999999999924,0.22556935060217978,-0.022176465107555686,-0.2500000000000027,-0.0027514190279730897,-0.0012376909986606514,0.0,-0.09799836575984955,0.16999921470805815,1.780407095987058,8.546410593641985e-17,0.6300265637926102,-1.668794692554746,0.0,0.0,0.0,0.0,0.0,0.0,0,0,0
3.449999999999992,0.22556935060217978,-0.022176465107555686,-0.2500000000000027,-0.0027514190279730897,-0.0012376909986606514,0.0,-0.09799836575984955,0.16999921470805815,1.780407095987058,8.546410593641985e-17,0.6300265637926102,-1.668794692554746,0.0,0.0,0.0,0.0,0.0,0.0,0,0,0
3.479999999999992,0.22556935060217978,-0.022176465107555686,-0.2500000000000027,-0.0027514190279730897,-0.0012376909986606514,0.0,-0.09799836575984955,0.16999921470805815,1.780407095987058,8.546410593641985e-17,0.6300265637926102,-1.668794692554746,0.0,0.0,0.0,0.0,0.0,0.0,0,0,0
3.509999999999992,0.21294133157960074,-0.038693430762735945,-0.2500000000097472,-0.42350981287471406,-0.5523986615150864,-3.2481609994287436e-10,-0.17974814772605896,0.09438461451890674,1.8356124361800916,9.797272635292144e-17,0.580471609033197,-1.7505444745209555,0.0,0.0,0.0,0.0,0.0,0.0,0,0,0
3.5399999999999916,0.21294133157960074,-0.038693430762735945,-0.2500000000097472,-0.0027514190279730897,-0.0012376909986606514,0.0,-0.17974814772605896,0.09438461451890674,1.8356124361800916,9.797272635292144e-17,0.580471609033197,-1.7505444745209555,0.0,0.0,0.0,0.0,0.0,0.0,0,0,0
3.5699999999999914,0.21294133157960074,-0.038693430762735945,-0.2500000000097472,-0.0027514190279730897,-0.0012376909986606514,0.0,-0.17974814772605896,0.09438461451890674,1.8356124361800916,9.797272635292144e-17,0.580471609033197,-1.7505444745209555,0.0,0.0,0.0,0.0,0.0,0.0,0,0,0
3.599999999999991,0.21294133157960074,-0.038693430762735945,-0.2500000000097472,-0.0027514190279730897,-0.0012376909986606514,0.0,-0.17974814772605896,0.09438461451890674,1.8356124361800916,9.797272635292144e-17,0.580471609033197,-1.7505444745209555,0.0,0.0,0.0,0.0,0.0,0.0,0,0,0
3.629999999999991,0.21294133157960074,-0.038693430762735945,-0.2500000000097472,-0.0027514190279730897,-0.0012376909986606514,0.0,-0.17974814772605896,0.09438461451890674,1.8356124361800916,9.797272635292144e-17,0.580471609033197,-1.7505444745209555,0.0,0.0,0.0,0.0,0.0,0.0,0,0,0
3.659999999999991,0.21294133157960074,-0.038693430762735945,-0.2500000000097472,-0.0027514190279730897,-0.0012376909986606514,0.0,-0.17974814772605896,0.09438461451890674,1.8356124361800916,9.797272635292144e-17,0.580471609033197,-1.7505444745209555,0.0,0.0,0.0,0.0,0.0,0.0,0,0,0
3.6899999999999906,0.21294133157960074,-0.038693430762735945,-0.2500000000097472,-0.0027514190279730897,-0.0012376909986606514,0.0,-0.17974814772605896,0.09438461451890674,1.8356124361800916,9.797272635292144e-17,0.580471609033197,-1.7505444745209555,0.0,0.0,0.0,0.0,0.0,0.0,0,0,0
3.7199999999999904,0.21294133157960074,-0.038693430762735945,-0.2500000000097472,-0.0027514190279730897,-0.0012376909986606514,0.0,-0.17974814772605896,0.09438461451890674,1.8356124361800916,9.797272635292144e-17,0.580471609033197,-1.7505444745209555,0.0,0.0,0.0,0.0,0.0,0.0,0,0,0
3.7499999999999902,0.21294133157960074,-0.038693430762735945,-0.2500000000097472,-0.0027514190279730897,-0.0012376909986606514,0.0,-0.17974814772605896,0.09438461451890674,1.8356124361800916,9.797272635292144e-17,0.580471609033197,-1.7505444745209555,0.0,0.0,0.0,0.0,0.0,0.0,0,0,0
3.77999999999999,0.20385354729381208,-0.05739324308158794,-0.24999999999998332,-0.30603523789563597,-0.6249932929300814,3.254628048547185e-10,-0.2744376063346863,0.06118060984506454,1.8587921857534508,6.301738753811988e-17,0.5587441541638644,-1.8452339331295828,0.0,0.0,0.0,0.0,0.0,0.0,0,0,0
3.80999999999999,0.20385354729381208,-0.05739324308158794,-0.24999999999998332,-0.0027514190279730897,-0.0012376909986606514,0.0,-0.2744376063346863,0.06118060984506454,1.8587921857534508,6.301738753811988e-17,0.5587441541638644,-1.8452339331295828,0.0,0.0,0.0,0.0,0.0,0.0,0,0,0
3.8399999999999896,0.20385354729381208,-0.05739324308158794,-0.24999999999998332,-0.0027514190279730897,-0.0012376909986606514,0.0,-0.2744376063346863,0.06118060984506454,1.8587921857534508,6.301738753811988e-17,0.5587441541638644,-1.8452339331295828,0.0,0.0,0.0,0.0,0.0,0.0,0,0,0
3.8699999999999894,0.20385354729381208,-0.05739324308158794,-0.24999999999998332,-0.0027514190279730897,-0.0012376909986606514,0.0,-0.2744376063346863,0.06118060984506454,1.8587921857534508,6.301738753811988e-17,0.5587441541638644,-1.8452339331295828,0.0,0.0,0.0,0.0,0.0,0.0,0,0,0
3.8999999999999893,0.20385354729381208,-0.05739324308158794,-0.24999999999998332,-0.0027514190279730897,-0.0012376909986606514,0.0,-0.2744376063346863,0.06118060984506454,1.8587921857534508,6.301738753811988e-17,0.5587441541638644,-1.8452339331295828,0.0,0.0,0.0,0.0,0.0,0.0,0,0,0
3.929999999999989,0.20385354729381208,-0.05739324308158794,-0.24999999999998332,-0.0027514190279730897,-0.0012376909986606514,0.0,-0.2744376063346863,0.06118060984506454,1.8587921857534508,6.301738753811988e-17,0.5587441541638644,-1.8452339331295828,0.0,0.0,0.0,0.0,0.0,0.0,0,0,0
3.959999999999989,0.20385354729381208,-0.05739324308158794,-0.24999999999998332,-0.0027514190279730897,-0.0012376909986606514,0.0,-0.2744376063346863,0.06118060984506454,1.8587921857534508,6.301738753811988e-17,0.5587441541638644,-1.8452339331295828,0.0,0.0,0.0,0.0,0.0,0.0,0,0,0
3.9899999999999887,0.20385354729381208,-0.05739324308158794,-0.24999999999998332,-0.0027514190279730897,-0.0012376909986606514,0.0,-0.2744376063346863,0.06118060984506454,1.8587921857534508,6.301738753811988e-17,0.5587441541638644,-1.8452339331295828,0.0,0.0,0.0,0.0,0.0,0.0,0,0,0
4.019999999999989,0.19866957470274588,-0.07752769815998266,-0.2500000000000929,-0.17623955264273766,-0.6727845913811867,-3.6535589368706196e-12,-0.37205949425697327,0.07169871696423637,1.851522851352489,1.531323499643998e-16,0.5656223948726714,-1.9428558210518698,0.0,0.0,0.0,0.0,0.0,0.0,0,0,0
4.049999999999989,0.19866957470274588,-0.07752769815998266,-0.2500000000000929,-0.0027514190279730897,-0.0012376909986606514,0.0,-0.37205949425697327,0.07169871696423637,1.851522851352489,1.531323499643998e-16,0.5656223948726714,-1.9428558210518698,0.0,0.0,0.0,0.0,0.0,0.0,0,0,0
4.079999999999989,0.19866957470274588,-0.07752769815998266,-0.2500000000000929,-0.0027514190279730897,-0.0012376909986606514,0.0,-0.37205949425697327,0.07169871696423637,1.851522851352489,1.531323499643998e-16,0.5656223948726714,-1.9428558210518698,0.0,0.0,0.0,0.0,0.0,0.0,0,0,0
4.10999999999999,0.19866957470274588,-0.07752769815998266,-0.2500000000000929,-0.0027514190279730897,-0.0012376909986606514,0.0,-0.37205949425697327,0.07169871696423637,1.851522851352489,1.531323499643998e-16,0.5656223948726714,-1.9428558210518698,0.0,0.0,0.0,0.0,0.0,0.0,0,0,0
4.13999999999999,0.19866957470274588,-0.07752769815998266,-0.2500000000000929,-0.0027514190279730897,-0.0012376909986606514,0.0,-0.37205949425697327,0.07169871696423637,1.851522851352489,1.531323499643998e-16,0.5656223948726714,-1.9428558210518698,0.0,0.0,0.0,0.0,0.0,0.0,0,0,0
4.16999999999999,0.19866957470274588,-0.07752769815998266,-0.2500000000000929,-0.0027514190279730897,-0.0012376909986606514,0.0,-0.37205949425697327,0.07169871696423637,1.851522851352489,1.531323499643998e-16,0.5656223948726714,-1.9428558210518698,0.0,0.0,0.0,0.0,0.0,0.0,0,0,0
4.19999999999999,0.19866957470274588,-0.07752769815998266,-0.2500000000000929,-0.0027514190279730897,-0.0012376909986606514,0.0,-0.37205949425697327,0.07169871696423637,1.851522851352489,1.531323499643998e-16,0.5656223948726714,-1.9428558210518698,0.0,0.0,0.0,0.0,0.0,0.0,0,0,0
4.229999999999991,0.19866957470274588,-0.07752769815998266,-0.2500000000000929,-0.0027514190279730897,-0.0012376909986606514,0.0,-0.37205949425697327,0.07169871696423637,1.851522851352489,1.531323499643998e-16,0.5656223948726714,-1.9428558210518698,0.0,0.0,0.0,0.0,0.0,0.0,0,0,0
4.259999999999991,0.19759682910732015,-0.09829127857259527,-0.24999999999556138,-0.03920772991290216,-0.6938687160837931,1.5105139361537567e-10,-0.46159228682518005,0.12543267593641,1.8133383891175034,6.025350899848639e-17,0.6008156011441473,-2.0323886136200766,0.0,0.0,0.0,0.0,0.0,0.0,0,0,0
4.289999999999991,0.19759682910732015,-0.09829127857259527,-0.24999999999556138,-0.0027514190279730897,-0.0012376909986606514,0.0,-0.46159228682518005,0.12543267593641,1.8133383891175034,6.025350899848639e-17,0.6008156011441473,-2.0323886136200766,0.0,0.0,0.0,0.0,0.0,0.0,0,0,0
4.319999999999991,0.19759682910732015,-0.09829127857259527,-0.24999999999556138,-0.0027514190279730897,-0.0012376909986606514,0.0,-0.46159228682518005,0.12543267593641,1.8133383891175034,6.025350899848639e-17,0.6008156011441473,-2.0323886136200766,0.0,0.0,0.0,0.0,0.0,0.0,0,0,0
4.349999999999992,0.19759682910732015,-0.09829127857259527,-0.24999999999556138,-0.0027514190279730897,-0.0012376909986606514,0.0,-0.46159228682518005,0.12543267593641,1.8133383891175034,6.025350899848639e-17,0.6008156011441473,-2.0323886136200766,0.0,0.0,0.0,0.0,0.0,0.0,0,0,0
4.379999999999992,0.19759682910732015,-0.09829127857259527,-0.24999999999556138,-0.0027514190279730897,-0.0012376909986606514,0.0,-0.46159228682518005,0.12543267593641,1.8133383891175034,6.025350899848639e-17,0.6008156011441473,-2.0323886136200766,0.0,0.0,0.0,0.0,0.0,0.0,0,0,0
4.409999999999992,0.19759682910732015,-0.09829127857259527,-0.24999999999556138,-0.0027514190279730897,-0.0012376909986606514,0.0,-0.46159228682518005,0.12543267593641,1.8133383891175034,6.025350899848639e-17,0.6008156011441473,-2.0323886136200766,0.0,0.0,0.0,0.0,0.0,0.0,0,0,0
4.439999999999992,0.19759682910732015,-0.09829127857259527,-0.24999999999556138,-0.0027514190279730897,-0.0012376909986606514,0.0,-0.46159228682518005,0.12543267593641,1.8133383891175034,6.025350899848639e-17,0.6008156011441473,-2.0323886136200766,0.0,0.0,0.0,0.0,0.0,0.0,0,0,0
4.469999999999993,0.19759682910732015,-0.09829127857259527,-0.24999999999556138,-0.0027514190279730897,-0.0012376909986606514,0.0,-0.46159228682518005,0.12543267593641,1.8133383891175034,6.025350899848639e-17,0.6008156011441473,-2.0323886136200766,0.0,0.0,0.0,0.0,0.0,0.0,0,0,0
4.499999999999993,0.19759682910732015,-0.09829127857259527,-0.24999999999556138,-0.0027514190279730897,-0.0012376909986606514,0.0,-0.46159228682518005,0.12543267593641,1.8133383891175034,6.025350899848639e-17,0.6008156011441473,-2.0323886136200766,0.0,0.0,0.0,0.0,0.0,0.0,0,0,0
4.529999999999993,0.2006782505446763,-0.11885324066417052,-0.25000000000000394,0.09945417688683451,-0.6873564234067701,-1.4808524776791881e-10,-0.5347071886062622,0.2211460618526256,1.7413284908308018,1.2124862281415895e-16,0.6634882336298107,-2.1055035154011588,0.0,0.0,0.0,0.0,0.0,0.0,0,0,0
4.559999999999993,0.2006782505446763,-0.11885324066417052,-0.25000000000000394,-0.0027514190279730897,-0.0012376909986606514,0.0,-0.5347071886062622,0.2211460618526256,1.7413284908308018,1.2124862281415895e-16,0.6634882336298107,-2.1055035154011588,0.0,0.0,0.0,0.0,0.0,0.0,0,0,0
4.589999999999994,0.2006782505446763,-0.11885324066417052,-0.25000000000000394,-0.0027514190279730897,-0.0012376909986606514,0.0,-0.5347071886062622,0.2211460618526256,1.7413284908308018,1.2124862281415895e-16,0.6634882336298107,-2.1055035154011588,0.0,0.0,0.0,0.0,0.0,0.0,0,0,0
4.619999999999994,0.2006782505446763,-0.11885324066417052,-0.25000000000000394,-0.0027514190279730897,-0.0012376909986606514,0.0,-0.5347071886062622,0.2211460618526256,1.7413284908308018,1.2124862281415895e-16,0.6634882336298107,-2.1055035154011588,0.0,0.0,0.0,0.0,0.0,0.0,0,0,0
4.649999999999994,0.2006782505446763,-0.11885324066417052,-0.25000000000000394,-0.0027514190279730897,-0.0012376909986606514,0.0,-0.5347071886062622,0.2211460618526256,1.7413284908308018,1.2124862281415895e-16,0.6634882336298107,-2.1055035154011588,0.0,0.0,0.0,0.0,0.0,0.0,0,0,0
4.679999999999994,0.2006782505446763,-0.11885324066417052,-0.25000000000000394,-0.0027514190279730897,-0.0012376909986606514,0.0,-0.5347071886062622,0.2211460618526256,1.7413284908308018,1.2124862281415895e-16,0.6634882336298107,-2.1055035154011588,0.0,0.0,0.0,0.0,0.0,0.0,0,0,0
4.709999999999995,0.2006782505446763,-0.11885324066417052,-0.25000000000000394,-0.0027514190279730897,-0.0012376909986606514,0.0,-0.5347071886062622,0.2211460618526256,1.7413284908308018,1.2124862281415895e-16,0.6634882336298107,-2.1055035154011588,0.0,0.0,0.0,0.0,0.0,0.0,0,0,0
4.739999999999995,0.2006782505446763,-0.11885324066417052,-0.25000000000000394,-0.0027514190279730897,-0.0012376909986606514,0.0,-0.5347071886062622,0.2211460618526256,1.7413284908308018,1.2124862281415895e-16,0.6634882336298107,-2.1055035154011588,0.0,0.0,0.0,0.0,0.0,0.0,0,0,0
4.769999999999995,0.20779052704077616,-0.13839094087007311,-0.24999999999978492,0.23415324940633547,-0.6535596851555897,7.30064157276426e-12,-0.587549090385437,0.3635638141515198,1.6268686071013063,1.2690721352498675e-16,0.75521675684617,-2.1583454171803336,0.0,0.0,0.0,0.0,0.0,0.0,0,0,0
4.799999999999995,0.20779052704077616,-0.13839094087007311,-0.24999999999978492,-0.0027514190279730897,-0.0012376909986606514,0.0,-0.587549090385437,0.3635638141515198,1.6268686071013063,1.2690721352498675e-16,0.75521675684617,-2.1583454171803336,0.0,0.0,0.0,0.0,0.0,0.0,0,0,0
4.829999999999996,0.20779052704077616,-0.13839094087007311,-0.24999999999978492,-0.0027514190279730897,-0.0012376909986606514,0.0,-0.587549090385437,0.3635638141515198,1.6268686071013063,1.2690721352498675e-16,0.75521675684617,-2.1583454171803336,0.0,0.0,0.0,0.0,0.0,0.0,0,0,0
4.859999999999996,0.20779052704077616,-0.13839094087007311,-0.24999999999978492,-0.0027514190279730897,-0.0012376909986606514,0.0,-0.587549090385437,0.3635638141515198,1.6268686071013063,1.2690721352498675e-16,0.75521675684617,-2.1583454171803336,0.0,0.0,0.0,0.0,0.0,0.0,0,0,0
4.889999999999996,0.20779052704077616,-0.13839094087007311,-0.24999999999978492,-0.0027514190279730897,-0.0012376909986606514,0.0,-0.587549090385437,0.3635638141515198,1.6268686071013063,1.2690721352498675e-16,0.75521675684617,-2.1583454171803336,0.0,0.0,0.0,0.0,0.0,0.0,0,0,0
4.919999999999996,0.20779052704077616,-0.13839094087007311,-0.24999999999978492,-0.0027514190279730897,-0.0012376909986606514,0.0,-0.587549090385437,0.3635638141515198,1.6268686071013063,1.2690721352498675e-16,0.75521675684617,-2.1583454171803336,0.0,0.0,0.0,0.0,0.0,0.0,0,0,0
4.949999999999997,0.20779052704077616,-0.13839094087007311,-0.24999999999978492,-0.0027514190279730897,-0.0012376909986606514,0.0,-0.587549090385437,0.3635638141515198,1.6268686071013063,1.2690721352498675e-16,0.75521675684617,-2.1583454171803336,0.0,0.0,0.0,0.0,0.0,0.0,0,0,0
4.979999999999997,0.20779052704077616,-0.13839094087007311,-0.24999999999978492,-0.0027514190279730897,-0.0012376909986606514,0.0,-0.587549090385437,0.3635638141515198,1.6268686071013063,1.2690721352498675e-16,0.75521675684617,-2.1583454171803336,0.0,0.0,0.0,0.0,0.0,0.0,0,0,0
5.009999999999997,0.21864911358132724,-0.15612268642192106,-0.2499999999997501,0.35935326076591967,-0.5938552545789618,1.161108246587143e-12,-0.6200821399688721,0.5991704583347247,1.4371005508990427,1.6766894669330183e-16,0.8910032003982566,-2.1908784667637686,0.0,0.0,0.0,0.0,0.0,0.0,0,0,0
5.039999999999997,0.21864911358132724,-0.15612268642192106,-0.2499999999997501,-0.0027514190279730897,-0.0012376909986606514,0.0,-0.6200821399688721,0.5991704583347247,1.4371005508990427,1.6766894669330183e-16,0.8910032003982566,-2.1908784667637686,0.0,0.0,0.0,0.0,0.0,0.0,0,0,0
5.069999999999998,0.21864911358132724,-0.15612268642192106,-0.2499999999997501,-0.0027514190279730897,-0.0012376909986606514,0.0,-0.6200821399688721,0.5991704583347247,1.4371005508990427,1.6766894669330183e-16,0.8910032003982566,-2.1908784667637686,0.0,0.0,0.0,0.0,0.0,0.0,0,0,0
5.099999999999998,0.21864911358132724,-0.15612268642192106,-0.2499999999997501,-0.0027514190279730897,-0.0012376909986606514,0.0,-0.6200821399688721,0.5991704583347247,1.4371005508990427,1.6766894669330183e-16,0.8910032003982566,-2.1908784667637686,0.0,0.0,0.0,0.0,0.0,0.0,0,0,0
5.129999999999998,0.21864911358132724,-0.15612268642192106,-0.2499999999997501,-0.0027514190279730897,-0.0012376909986606514,0.0,-0.6200821399688721,0.5991704583347247,1.4371005508990427,1.6766894669330183e-16,0.8910032003982566,-2.1908784667637686,0.0,0.0,0.0,0.0,0.0,0.0,0,0,0
5.159999999999998,0.21864911358132724,-0.15612268642192106,-0.2499999999997501,-0.0027514190279730897,-0.0012376909986606514,0.0,-0.6200821399688721,0.5991704583347247,1.4371005508990427,1.6766894669330183e-16,0.8910032003982566,-2.1908784667637686,0.0,0.0,0.0,0.0,0.0,0.0,0,0,0
5.189999999999999,0.21864911358132724,-0.15612268642192106,-0.2499999999997501,-0.0027514190279730897,-0.0012376909986606514,0.0,-0.6200821399688721,0.5991704583347247,1.4371005508990427,1.6766894669330183e-16,0.8910032003982566,-2.1908784667637686,0.0,0.0,0.0,0.0,0.0,0.0,0,0,0
5.219999999999999,0.21864911358132724,-0.15612268642192106,-0.2499999999997501,-0.0027514190279730897,-0.0012376909986606514,0.0,-0.6200821399688721,0.5991704583347247,1.4371005508990427,1.6766894669330183e-16,0.8910032003982566,-2.1908784667637686,0.0,0.0,0.0,0.0,0.0,0.0,0,0,0
5.249999999999999,0.21864911358132724,-0.15612268642192106,-0.2499999999997501,-0.0027514190279730897,-0.0012376909986606514,0.0,-0.6200821399688721,0.5991704583347247,1.4371005508990427,1.6766894669330183e-16,0.8910032003982566,-2.1908784667637686,0.0,0.0,0.0,0.0,0.0,0.0,0,0,0
5.279999999999999,0.2248983974829328,-0.1655096522797499,-0.24453086242154576,0.20576340832237058,-0.31515834297124995,0.18230458594014437,-0.6344358325004578,0.905808394727215,1.3261313606385299,1.3721778742584877e-16,0.9932616326344578,-2.2052321592953543,0.0,0.0,0.0,0.0,0.0,0.0,0,0,0
5.31,0.2248983974829328,-0.1655096522797499,-0.24453086242154576,-0.0027514190279730897,-0.0012376909986606514,0.0,-0.6344358325004578,0.905808394727215,1.3261313606385299,1.3721778742584877e-16,0.9932616326344578,-2.2052321592953543,0.0,0.0,0.0,0.0,0.0,0.0,0,0,0
5.34,0.2248983974829328,-0.1655096522797499,-0.24453086242154576,-0.0027514190279730897,-0.0012376909986606514,0.0,-0.6344358325004578,0.905808394727215,1.3261313606385299,1.3721778742584877e-16,0.9932616326344578,-2.2052321592953543,0.0,0.0,0.0,0.0,0.0,0.0,0,0,0
5.37,0.2248983974829328,-0.1655096522797499,-0.24453086242154576,-0.0027514190279730897,-0.0012376909986606514,0.0,-0.6344358325004578,0.905808394727215,1.3261313606385299,1.3721778742584877e-16,0.9932616326344578,-2.2052321592953543,0.0,0.0,0.0,0.0,0.0,0.0,0,0,0
5.4,0.2248983974829328,-0.1655096522797499,-0.24453086242154576,-0.0027514190279730897,-0.0012376909986606514,0.0,-0.6344358325004578,0.905808394727215,1.3261313606385299,1.3721778742584877e-16,0.9932616326344578,-2.2052321592953543,0.0,0.0,0.0,0.0,0.0,0.0,0,0,0
5.430000000000001,0.2248983974829328,-0.1655096522797499,-0.24453086242154576,-0.0027514190279730897,-0.0012376909986606514,0.0,-0.6344358325004578,0.905808394727215,1.3261313606385299,1.3721778742584877e-16,0.9932616326344578,-2.2052321592953543,0.0,0.0,0.0,0.0,0.0,0.0,0,0,0
5.460000000000001,0.2248983974829328,-0.1655096522797499,-0.24453086242154576,-0.0027514190279730897,-0.0012376909986606514,0.0,-0.6344358325004578,0.905808394727215,1.3261313606385299,1.3721778742584877e-16,0.9932616326344578,-2.2052321592953543,0.0,0.0,0.0,0.0,0.0,0.0,0,0,0
5.490000000000001,0.2248983974829328,-0.1655096522797499,-0.24453086242154576,-0.0027514190279730897,-0.0012376909986606514,0.0,-0.6344358325004578,0.905808394727215,1.3261313606385299,1.3721778742584877e-16,0.9932616326344578,-2.2052321592953543,0.0,0.0,0.0,0.0,0.0,0.0,0,0,0
5.520000000000001,0.2285823427505559,-0.1678946499194128,-0.23637539239693886,0.12005328626104368,-0.08076840630474717,0.27184900082022995,-0.6335096955299377,0.9333022470290354,1.3434531407038406,7.409645479470693e-17,1.0275869935693338,-2.2043060223248343,0.0,0.0,0.0,0.0,0.0,0.0,0,0,0
5.550000000000002,0.2285823427505559,-0.1678946499194128,-0.23637539239693886,-0.0027514190279730897,-0.0012376909986606514,0.0,-0.6335096955299377,0.9333022470290354,1.3434531407038406,7.409645479470693e-17,1.0275869935693338,-2.2043060223248343,0.0,0.0,0.0,0.0,0.0,0.0,0,0,0
5.580000000000002,0.2285823427505559,-0.1678946499194128,-0.23637539239693886,-0.0027514190279730897,-0.0012376909986606514,0.0,-0.6335096955299377,0.9333022470290354,1.3434531407038406,7.409645479470693e-17,1.0275869935693338,-2.2043060223248343,0.0,0.0,0.0,0.0,0.0,0.0,0,0,0
5.610000000000002,0.2285823427505559,-0.1678946499194128,-0.23637539239693886,-0.0027514190279730897,-0.0012376909986606514,0.0,-0.6335096955299377,0.9333022470290354,1.3434531407038406,7.409645479470693e-17,1.0275869935693338,-2.2043060223248343,0.0,0.0,0.0,0.0,0.0,0.0,0,0,0
5.640000000000002,0.2285823427505559,-0.1678946499194128,-0.23637539239693886,-0.0027514190279730897,-0.0012376909986606514,0.0,-0.6335096955299377,0.9333022470290354,1.3434531407038406,7.409645479470693e-17,1.0275869935693338,-2.2043060223248343,0.0,0.0,0.0,0.0,0.0,0.0,0,0,0
5.670000000000003,0.2285823427505559,-0.1678946499194128,-0.23637539239693886,-0.0027514190279730897,-0.0012376909986606514,0.0,-0.6335096955299377,0.9333022470290354,1.3434531407038406,7.409645479470693e-17,1.0275869935693338,-2.2043060223248343,0.0,0.0,0.0,0.0,0.0,0.0,0,0,0
5.700000000000003,0.2285823427505559,-0.1678946499194128,-0.23637539239693886,-0.0027514190279730897,-0.0012376909986606514,0.0,-0.6335096955299377,0.9333022470290354,1.3434531407038406,7.409645479470693e-17,1.0275869935693338,-2.2043060223248343,0.0,0.0,0.0,0.0,0.0,0.0,0,0,0
5.730000000000003,0.2285823427505559,-0.1678946499194128,-0.23637539239693886,-0.0027514190279730897,-0.0012376909986606514,0.0,-0.6335096955299377,0.9333022470290354,1.3434531407038406,7.409645479470693e-17,1.0275869935693338,-2.2043060223248343,0.0,0.0,0.0,0.0,0.0,0.0,0,0,0
5.760000000000003,0.23376813740560057,-0.16695446124336893,-0.22911767791304102,0.17019425112094258,0.03006940914525191,0.24192381612992792,-0.6201849579811096,0.95297575708392,1.3582003005299612,1.604276263204625e-16,1.0579041978175425,-2.190981284776006,0.0,0.0,0.0,0.0,0.0,0.0,0,0,0
5.790000000000004,0.23376813740560057,-0.16695446124336893,-0.22911767791304102,-0.0027514190279730897,-0.0012376909986606514,0.0,-0.6201849579811096,0.95297575708392,1.3582003005299612,1.604276263204625e-16,1.0579041978175425,-2.190981284776006,0.0,0.0,0.0,0.0,0.0,0.0,0,0,0
5.820000000000004,0.23376813740560057,-0.16695446124336893,-0.22911767791304102,-0.0027514190279730897,-0.0012376909986606514,0.0,-0.6201849579811096,0.95297575708392,1.3582003005299612,1.604276263204625e-16,1.0579041978175425,-2.190981284776006,0.0,0.0,0.0,0.0,0.0,0.0,0,0,0
5.850000000000004,0.23376813740560057,-0.16695446124336893,-0.22911767791304102,-0.0027514190279730897,-0.0012376909986606514,0.0,-0.6201849579811096,0.95297575708392,1.3582003005299612,1.604276263204625e-16,1.0579041978175425,-2.190981284776006,0.0,0.0,0.0,0.0,0.0,0.0,0,0,0
5.880000000000004,0.23376813740560057,-0.16695446124336893,-0.22911767791304102,-0.0027514190279730897,-0.0012376909986606514,0.0,-0.6201849579811096,0.95297575708392,1.3582003005299612,1.604276263204625e-16,1.0579041978175425,-2.190981284776006,0.0,0.0,0.0,0.0,0.0,0.0,0,0,0
5.910000000000005,0.23376813740560057,-0.16695446124336893,-0.22911767791304102,-0.0027514190279730897,-0.0012376909986606514,0.0,-0.6201849579811096,0.95297575708392,1.3582003005299612,1.604276263204625e-16,1.0579041978175425,-2.190981284776006,0.0,0.0,0.0,0.0,0.0,0.0,0,0,0
5.940000000000005,0.23376813740560057,-0.16695446124336893,-0.22911767791304102,-0.0027514190279730897,-0.0012376909986606514,0.0,-0.6201849579811096,0.95297575708392,1.3582003005299612,1.604276263204625e-16,1.0579041978175425,-2.190981284776006,0.0,0.0,0.0,0.0,0.0,0.0,0,0,0
5.970000000000005,0.23376813740560057,-0.16695446124336893,-0.22911767791304102,-0.0027514190279730897,-0.0012376909986606514,0.0,-0.6201849579811096,0.95297575708392,1.3582003005299612,1.604276263204625e-16,1.0579041978175425,-2.190981284776006,0.0,0.0,0.0,0.0,0.0,0.0,0,0,0
6.000000000000005,0.24020090186630774,-0.1631977151634919,-0.2224922560305884,0.21186767648732102,0.12392162740017834,0.22084739608175438,-0.5967811346054077,0.9725589378258194,1.37114252149045,8.704912366029242e-17,1.0854133406957285,-2.1675774614003043,0.0,0.0,0.0,0.0,0.0,0.0,0,0,0
6.030000000000006,0.24020090186630774,-0.1631977151634919,-0.2224922560305884,-0.0027514190279730897,-0.0012376909986606514,0.0,-0.5967811346054077,0.9725589378258194,1.37114252149045,8.704912366029242e-17,1.0854133406957285,-2.1675774614003043,0.0,0.0,0.0,0.0,0.0,0.0,0,0,0
6.060000000000006,0.24020090186630774,-0.1631977151634919,-0.2224922560305884,-0.0027514190279730897,-0.0012376909986606514,0.0,-0.5967811346054077,0.9725589378258194,1.37114252149045,8.704912366029242e-17,1.0854133406957285,-2.1675774614003043,0.0,0.0,0.0,0.0,0.0,0.0,0,0,0
6.090000000000006,0.24020090186630774,-0.1631977151634919,-0.2224922560305884,-0.0027514190279730897,-0.0012376909986606514,0.0,-0.5967811346054077,0.9725589378258194,1.37114252149045,8.704912366029242e-17,1.0854133406957285,-2.1675774614003043,0.0,0.0,0.0,0.0,0.0,0.0,0,0,0
6.120000000000006,0.24020090186630774,-0.1631977151634919,-0.2224922560305884,-0.0027514190279730897,-0.0012376909986606514,0.0,-0.5967811346054077,0.9725589378258194,1.37114252149045,8.704912366029242e-17,1.0854133406957285,-2.1675774614003043,0.0,0.0,0.0,0.0,0.0,0.0,0,0,0
6.150000000000007,0.24020090186630774,-0.1631977151634919,-0.2224922560305884,-0.0027514190279730897,-0.0012376909986606514,0.0,-0.5967811346054077,0.9725589378258194,1.37114252149045,8.704912366029242e-17,1.0854133406957285,-2.1675774614003043,0.0,0.0,0.0,0.0,0.0,0.0,0,0,0
6.180000000000007,0.24020090186630774,-0.1631977151634919,-0.2224922560305884,-0.0027514190279730897,-0.0012376909986606514,0.0,-0.5967811346054077,0.9725589378258194,1.37114252149045,8.704912366029242e-17,1.0854133406957285,-2.1675774614003043,0.0,0.0,0.0,0.0,0.0,0.0,0,0,0
6.210000000000007,0.24020090186630774,-0.1631977151634919,-0.2224922560305884,-0.0027514190279730897,-0.0012376909986606514,0.0,-0.5967811346054077,0.9725589378258194,1.37114252149045,8.704912366029242e-17,1.0854133406957285,-2.1675774614003043,0.0,0.0,0.0,0.0,0.0,0.0,0,0,0
6.240000000000007,0.24020090186630774,-0.1631977151634919,-0.2224922560305884,-0.0027514190279730897,-0.0012376909986606514,0.0,-0.5967811346054077,0.9725589378258194,1.37114252149045,8.704912366029242e-17,1.0854133406957285,-2.1675774614003043,0.0,0.0,0.0,0.0,0.0,0.0,0,0,0
6.270000000000008,0.2472866715022044,-0.15708620230539497,-0.21674499690432264,0.23372482434689648,0.20237803109286148,0.19157530420885843,-0.5659285187721252,0.9918253247267133,1.3819700805242578,9.418852917989778e-17,1.1091705041023987,-2.136724845567022,0.0,0.0,0.0,0.0,0.0,0.0,0,0,0
6.300000000000008,0.2472866715022044,-0.15708620230539497,-0.21674499690432264,-0.0027514190279730897,-0.0012376909986606514,0.0,-0.5659285187721252,0.9918253247267133,1.3819700805242578,9.418852917989778e-17,1.1091705041023987,-2.136724845567022,0.0,0.0,0.0,0.0,0.0,0.0,0,0,0
6.330000000000008,0.2472866715022044,-0.15708620230539497,-0.21674499690432264,-0.0027514190279730897,-0.0012376909986606514,0.0,-0.5659285187721252,0.9918253247267133,1.3819700805242578,9.418852917989778e-17,1.1091705041023987,-2.136724845567022,0.0,0.0,0.0,0.0,0.0,0.0,0,0,0
6.360000000000008,0.2472866715022044,-0.15708620230539497,-0.21674499690432264,-0.0027514190279730897,-0.0012376909986606514,0.0,-0.5659285187721252,0.9918253247267133,1.3819700805242578,9.418852917989778e-17,1.1091705041023987,-2.136724845567022,0.0,0.0,0.0,0.0,0.0,0.0,0,0,0
6.390000000000009,0.2472866715022044,-0.15708620230539497,-0.21674499690432264,-0.0027514190279730897,-0.0012376909986606514,0.0,-0.5659285187721252,0.9918253247267133,1.3819700805242578,9.418852917989778e-17,1.1091705041023987,-2.136724845567022,0.0,0.0,0.0,0.0,0.0,0.0,0,0,0
6.420000000000009,0.2472866715022044,-0.15708620230539497,-0.21674499690432264,-0.0027514190279730897,-0.0012376909986606514,0.0,-0.5659285187721252,0.9918253247267133,1.3819700805242578,9.418852917989778e-17,1.1091705041023987,-2.136724845567022,0.0,0.0,0.0,0.0,0.0,0.0,0,0,0
6.450000000000009,0.2472866715022044,-0.15708620230539497,-0.21674499690432264,-0.0027514190279730897,-0.0012376909986606514,0.0,-0.5659285187721252,0.9918253247267133,1.3819700805242578,9.418852917989778e-17,1.1091705041023987,-2.136724845567022,0.0,0.0,0.0,0.0,0.0,0.0,0,0,0
6.480000000000009,0.2472866715022044,-0.15708620230539497,-0.21674499690432264,-0.0027514190279730897,-0.0012376909986606514,0.0,-0.5659285187721252,0.9918253247267133,1.3819700805242578,9.418852917989778e-17,1.1091705041023987,-2.136724845567022,0.0,0.0,0.0,0.0,0.0,0.0,0,0,0
6.51000000000001,0.25427747647554666,-0.1486708655530865,-0.21302435486763802,0.23060846344603753,0.27911032408259506,0.12402140122282079,-0.5290783643722534,1.0024815193828465,1.388772298064085,1.5022978287374543e-16,1.1245127846597383,-2.09987469116715,0.0,0.0,0.0,0.0,0.0,0.0,0,0,0
6.54000000000001,0.25427747647554666,-0.1486708655530865,-0.21302435486763802,-0.0027514190279730897,-0.0012376909986606514,0.0,-0.5290783643722534,1.0024815193828465,1.388772298064085,1.5022978287374543e-16,1.1245127846597383,-2.09987469116715,0.0,0.0,0.0,0.0,0.0,0.0,0,0,0
6.57000000000001,0.25427747647554666,-0.1486708655530865,-0.21302435486763802,-0.0027514190279730897,-0.0012376909986606514,0.0,-0.5290783643722534,1.0024815193828465,1.388772298064085,1.5022978287374543e-16,1.1245127846597383,-2.09987469116715,0.0,0.0,0.0,0.0,0.0,0.0,0,0,0
6.60000000000001,0.25427747647554666,-0.1486708655530865,-0.21302435486763802,-0.0027514190279730897,-0.0012376909986606514,0.0,-0.5290783643722534,1.0024815193828465,1.388772298064085,1.5022978287374543e-16,1.1245127846597383,-2.09987469116715,0.0,0.0,0.0,0.0,0.0,0.0,0,0,0
6.6300000000000106,0.25427747647554666,-0.1486708655530865,-0.21302435486763802,-0.0027514190279730897,-0.0012376909986606514,0.0,-0.5290783643722534,1.0024815193828465,1.388772298064085,1.5022978287374543e-16,1.1245127846597383,-2.09987469116715,0.0,0.0,0.0,0.0,0.0,0.0,0,0,0
6.660000000000011,0.25427747647554666,-0.1486708655530865,-0.21302435486763802,-0.0027514190279730897,-0.0012376909986606514,0.0,-0.5290783643722534,1.0024815193828465,1.388772298064085,1.5022978287374543e-16,1.1245127846597383,-2.09987469116715,0.0,0.0,0.0,0.0,0.0,0.0,0,0,0
6.690000000000011,0.25427747647554666,-0.1486708655530865,-0.21302435486763802,-0.0027514190279730897,-0.0012376909986606514,0.0,-0.5290783643722534,1.0024815193828465,1.388772298064085,1.5022978287374543e-16,1.1245127846597383,-2.09987469116715,0.0,0.0,0.0,0.0,0.0,0.0,0,0,0
6.720000000000011,0.25427747647554666,-0.1486708655530865,-0.21302435486763802,-0.0027514190279730897,-0.0012376909986606514,0.0,-0.5290783643722534,1.0024815193828465,1.388772298064085,1.5022978287374543e-16,1.1245127846597383,-2.09987469116715,0.0,0.0,0.0,0.0,0.0,0.0,0,0,0
6.7500000000000115,0.26151350766216785,-0.13870029369092196,-0.2094625146227466,0.2388185562902971,0.33090711319643,0.11872800816304745,-0.4876514971256256,1.011060371896026,1.3951315496272578,1.0647526854632342e-16,1.139177799896211,-2.058447823920522,0.0,0.0,0.0,0.0,0.0,0.0,0,0,0
6.780000000000012,0.26151350766216785,-0.13870029369092196,-0.2094625146227466,-0.0027514190279730897,-0.0012376909986606514,0.0,-0.4876514971256256,1.011060371896026,1.3951315496272578,1.0647526854632342e-16,1.139177799896211,-2.058447823920522,0.0,0.0,0.0,0.0,0.0,0.0,0,0,0
6.810000000000012,0.26151350766216785,-0.13870029369092196,-0.2094625146227466,-0.0027514190279730897,-0.0012376909986606514,0.0,-0.4876514971256256,1.011060371896026,1.3951315496272578,1.0647526854632342e-16,1.139177799896211,-2.058447823920522,0.0,0.0,0.0,0.0,0.0,0.0,0,0,0
6.840000000000012,0.26151350766216785,-0.13870029369092196,-0.2094625146227466,-0.0027514190279730897,-0.0012376909986606514,0.0,-0.4876514971256256,1.011060371896026,1.3951315496272578,1.0647526854632342e-16,1.139177799896211,-2.058447823920522,0.0,0.0,0.0,0.0,0.0,0.0,0,0,0
6.8700000000000125,0.26151350766216785,-0.13870029369092196,-0.2094625146227466,-0.0027514190279730897,-0.0012376909986606514,0.0,-0.4876514971256256,1.011060371896026,1.3951315496272578,1.0647526854632342e-16,1.139177799896211,-2.058447823920522,0.0,0.0,0.0,0.0,0.0,0.0,0,0,0
6.900000000000013,0.26151350766216785,-0.13870029369092196,-0.2094625146227466,-0.0027514190279730897,-0.0012376909986606514,0.0,-0.4876514971256256,1.011060371896026,1.3951315496272578,1.0647526854632342e-16,1.139177799896211,-2.058447823920522,0.0,0.0,0.0,0.0,0.0,0.0,0,0,0
6.930000000000013,0.26151350766216785,-0.13870029369092196,-0.2094625146227466,-0.0027514190279730897,-0.0012376909986606514,0.0,-0.4876514971256256,1.011060371896026,1.3951315496272578,1.0647526854632342e-16,1.139177799896211,-2.058447823920522,0.0,0.0,0.0,0.0,0.0,0.0,0,0,0
6.960000000000013,0.26151350766216785,-0.13870029369092196,-0.2094625146227466,-0.0027514190279730897,-0.0012376909986606514,0.0,-0.4876514971256256,1.011060371896026,1.3951315496272578,1.0647526854632342e-16,1.139177799896211,-2.058447823920522,0.0,0.0,0.0,0.0,0.0,0.0,0,0,0
6.9900000000000135,0.26151350766216785,-0.13870029369092196,-0.2094625146227466,-0.0027514190279730897,-0.0012376909986606514,0.0,-0.4876514971256256,1.011060371896026,1.3951315496272578,1.0647526854632342e-16,1.139177799896211,-2.058447823920522,0.0,0.0,0.0,0.0,0.0,0.0,0,0,0
7.020000000000014,0.268415266566083,-0.1272929415391768,-0.20683325187850854,0.22770416772499402,0.3787577827622933,0.08764209147460178,-0.44282710552215576,1.017187299992034,1.399740847859028,1.681060703926622e-16,1.149985311905642,-2.0136234323170523,0.0,0.0,0.0,0.0,0.0,0.0,0,0,0
7.050000000000014,0.268415266566083,-0.1272929415391768,-0.20683325187850854,-0.0027514190279730897,-0.0012376909986606514,0.0,-0.44282710552215576,1.017187299992034,1.399740847859028,1.681060703926622e-16,1.149985311905642,-2.0136234323170523,0.0,0.0,0.0,0.0,0.0,0.0,0,0,0
7.080000000000014,0.268415266566083,-0.1272929415391768,-0.20683325187850854,-0.0027514190279730897,-0.0012376909986606514,0.0,-0.44282710552215576,1.017187299992034,1.399740847859028,1.681060703926622e-16,1.149985311905642,-2.0136234323170523,0.0,0.0,0.0,0.0,0.0,0.0,0,0,0
7.1100000000000145,0.268415266566083,-0.1272929415391768,-0.20683325187850854,-0.0027514190279730897,-0.0012376909986606514,0.0,-0.44282710552215576,1.017187299992034,1.399740847859028,1.681060703926622e-16,1.149985311905642,-2.0136234323170523,0.0,0.0,0.0,0.0,0.0,0.0,0,0,0
7.140000000000015,0.268415266566083,-0.1272929415391768,-0.20683325187850854,-0.0027514190279730897,-0.0012376909986606514,0.0,-0.44282710552215576,1.017187299992034,1.399740847859028,1.681060703926622e-16,1.149985311905642,-2.0136234323170523,0.0,0.0,0.0,0.0,0.0,0.0,0,0,0
7.170000000000015,0.268415266566083,-0.1272929415391768,-0.20683325187850854,-0.0027514190279730897,-0.0012376909986606514,0.0,-0.44282710552215576,1.017187299992034,1.399740847859028,1.681060703926622e-16,1.149985311905642,-2.0136234323170523,0.0,0.0,0.0,0.0,0.0,0.0,0,0,0
7.200000000000015,0.268415266566083,-0.1272929415391768,-0.20683325187850854,-0.0027514190279730897,-0.0012376909986606514,0.0,-0.44282710552215576,1.017187299992034,1.399740847859028,1.681060703926622e-16,1.149985311905642,-2.0136234323170523,0.0,0.0,0.0,0.0,0.0,0.0,0,0,0
7.2300000000000155,0.268415266566083,-0.1272929415391768,-0.20683325187850854,-0.0027514190279730897,-0.0012376909986606514,0.0,-0.44282710552215576,1.017187299992034,1.399740847859028,1.681060703926622e-16,1.149985311905642,-2.0136234323170523,0.0,0.0,0.0,0.0,0.0,0.0,0,0,0
7.260000000000016,0.2741010910290895,-0.11447114261200889,-0.20689009307150844,0.18712000196479106,0.4258548477713433,-0.0018947064333298589,-0.3956063985824585,1.011191921502556,1.3997451418460147,1.7154745698639328e-16,1.1496932772153023,-1.966402725377355,0.0,0.0,0.0,0.0,0.0,0.0,0,0,0
7.290000000000016,0.2741010910290895,-0.11447114261200889,-0.20689009307150844,-0.0027514190279730897,-0.0012376909986606514,0.0,-0.3956063985824585,1.011191921502556,1.3997451418460147,1.7154745698639328e-16,1.1496932772153023,-1.966402725377355,0.0,0.0,0.0,0.0,0.0,0.0,0,0,0
7.320000000000016,0.2741010910290895,-0.11447114261200889,-0.20689009307150844,-0.0027514190279730897,-0.0012376909986606514,0.0,-0.3956063985824585,1.011191921502556,1.3997451418460147,1.7154745698639328e-16,1.1496932772153023,-1.966402725377355,0.0,0.0,0.0,0.0,0.0,0.0,0,0,0
7.3500000000000165,0.2741010910290895,-0.11447114261200889,-0.20689009307150844,-0.0027514190279730897,-0.0012376909986606514,0.0,-0.3956063985824585,1.011191921502556,1.3997451418460147,1.7154745698639328e-16,1.1496932772153023,-1.966402725377355,0.0,0.0,0.0,0.0,0.0,0.0,0,0,0
7.380000000000017,0.2741010910290895,-0.11447114261200889,-0.20689009307150844,-0.0027514190279730897,-0.0012376909986606514,0.0,-0.3956063985824585,1.011191921502556,1.3997451418460147,1.7154745698639328e-16,1.1496932772153023,-1.966402725377355,0.0,0.0,0.0,0.0,0.0,0.0,0,0,0
7.410000000000017,0.2741010910290895,-0.11447114261200889,-0.20689009307150844,-0.0027514190279730897,-0.0012376909986606514,0.0,-0.3956063985824585,1.011191921502556,1.3997451418460147,1.7154745698639328e-16,1.1496932772153023,-1.966402725377355,0.0,0.0,0.0,0.0,0.0,0.0,0,0,0
7.440000000000017,0.2741010910290895,-0.11447114261200889,-0.20689009307150844,-0.0027514190279730897,-0.0012376909986606514,0.0,-0.3956063985824585,1.011191921502556,1.3997451418460147,1.7154745698639328e-16,1.1496932772153023,-1.966402725377355,0.0,0.0,0.0,0.0,0.0,0.0,0,0,0
7.4700000000000175,0.2741010910290895,-0.11447114261200889,-0.20689009307150844,-0.0027514190279730897,-0.0012376909986606514,0.0,-0.3956063985824585,1.011191921502556,1.3997451418460147,1.7154745698639328e-16,1.1496932772153023,-1.966402725377355,0.0,0.0,0.0,0.0,0.0,0.0,0,0,0
7.500000000000018,0.28050381463995483,-0.10139718585744842,-0.20374693483459203,0.21112088101389567,0.434290957240776,0.104771941230547,-0.34686726331710815,1.028274690817327,1.4050386440152018,1.20730476170229e-16,1.1626663303008908,-1.9176635901120047,0.0,0.0,0.0,0.0,0.0,0.0,0,0,0
7.530000000000018,0.28050381463995483,-0.10139718585744842,-0.20374693483459203,-0.0027514190279730897,-0.0012376909986606514,0.0,-0.34686726331710815,1.028274690817327,1.4050386440152018,1.20730476170229e-16,1.1626663303008908,-1.9176635901120047,0.0,0.0,0.0,0.0,0.0,0.0,0,0,0
7.560000000000018,0.28050381463995483,-0.10139718585744842,-0.20374693483459203,-0.0027514190279730897,-0.0012376909986606514,0.0,-0.34686726331710815,1.028274690817327,1.4050386440152018,1.20730476170229e-16,1.1626663303008908,-1.9176635901120047,0.0,0.0,0.0,0.0,0.0,0.0,0,0,0
7.5900000000000185,0.28050381463995483,-0.10139718585744842,-0.20374693483459203,-0.0027514190279730897,-0.0012376909986606514,0.0,-0.34686726331710815,1.028274690817327,1.4050386440152018,1.20730476170229e-16,1.1626663303008908,-1.9176635901120047,0.0,0.0,0.0,0.0,0.0,0.0,0,0,0
7.620000000000019,0.28050381463995483,-0.10139718585744842,-0.20374693483459203,-0.0027514190279730897,-0.0012376909986606514,0.0,-0.34686726331710815,1.028274690817327,1.4050386440152018,1.20730476170229e-16,1.1626663303008908,-1.9176635901120047,0.0,0.0,0.0,0.0,0.0,0.0,0,0,0
7.650000000000019,0.28050381463995483,-0.10139718585744842,-0.20374693483459203,-0.0027514190279730897,-0.0012376909986606514,0.0,-0.34686726331710815,1.028274690817327,1.4050386440152018,1.20730476170229e-16,1.1626663303008908,-1.9176635901120047,0.0,0.0,0.0,0.0,0.0,0.0,0,0,0
7.680000000000019,0.28050381463995483,-0.10139718585744842,-0.20374693483459203,-0.0027514190279730897,-0.0012376909986606514,0.0,-0.34686726331710815,1.028274690817327,1.4050386440152018,1.20730476170229e-16,1.1626663303008908,-1.9176635901120047,0.0,0.0,0.0,0.0,0.0,0.0,0,0,0
7.7100000000000195,0.28050381463995483,-0.10139718585744842,-0.20374693483459203,-0.0027514190279730897,-0.0012376909986606514,0.0,-0.34686726331710815,1.028274690817327,1.4050386440152018,1.20730476170229e-16,1.1626663303008908,-1.9176635901120047,0.0,0.0,0.0,0.0,0.0,0.0,0,0,0
7.74000000000002,0.28050381463995483,-0.10139718585744842,-0.20374693483459203,-0.0027514190279730897,-0.0012376909986606514,0.0,-0.34686726331710815,1.028274690817327,1.4050386440152018,1.20730476170229e-16,1.1626663303008908,-1.9176635901120047,0.0,0.0,0.0,0.0,0.0,0.0,0,0,0
7.77000000000002,0.28528016260582423,-0.08743865128257929,-0.20345420990223004,0.15688958379872966,0.4637303650830498,0.00975749774539958,-0.2974102795124054,1.0306202833183347,1.4055436491314466,1.8471746168720622e-16,1.1638638673846313,-1.868206606307302,0.0,0.0,0.0,0.0,0.0,0.0,0,0,0
7.80000000000002,0.28528016260582423,-0.08743865128257929,-0.20345420990223004,-0.0027514190279730897,-0.0012376909986606514,0.0,-0.2974102795124054,1.0306202833183347,1.4055436491314466,1.8471746168720622e-16,1.1638638673846313,-1.868206606307302,0.0,0.0,0.0,0.0,0.0,0.0,0,0,0
7.8300000000000205,0.28528016260582423,-0.08743865128257929,-0.20345420990223004,-0.0027514190279730897,-0.0012376909986606514,0.0,-0.2974102795124054,1.0306202833183347,1.4055436491314466,1.8471746168720622e-16,1.1638638673846313,-1.868206606307302,0.0,0.0,0.0,0.0,0.0,0.0,0,0,0
7.860000000000021,0.28528016260582423,-0.08743865128257929,-0.20345420990223004,-0.0027514190279730897,-0.0012376909986606514,0.0,-0.2974102795124054,1.0306202833183347,1.4055436491314466,1.8471746168720622e-16,1.1638638673846313,-1.868206606307302,0.0,0.0,0.0,0.0,0.0,0.0,0,0,0
7.890000000000021,0.28528016260582423,-0.08743865128257929,-0.20345420990223004,-0.0027514190279730897,-0.0012376909986606514,0.0,-0.2974102795124054,1.0306202833183347,1.4055436491314466,1.8471746168720622e-16,1.1638638673846313,-1.868206606307302,0.0,0.0,0.0,0.0,0.0,0.0,0,0,0
7.920000000000021,0.28528016260582423,-0.08743865128257929,-0.20345420990223004,-0.0027514190279730897,-0.0012376909986606514,0.0,-0.2974102795124054,1.0306202833183347,1.4055436491314466,1.8471746168720622e-16,1.1638638673846313,-1.868206606307302,0.0,0.0,0.0,0.0,0.0,0.0,0,0,0
7.9500000000000215,0.28528016260582423,-0.08743865128257929,-0.20345420990223004,-0.0027514190279730897,-0.0012376909986606514,0.0,-0.2974102795124054,1.0306202833183347,1.4055436491314466,1.8471746168720622e-16,1.1638638673846313,-1.868206606307302,0.0,0.0,0.0,0.0,0.0,0.0,0,0,0
7.980000000000022,0.28528016260582423,-0.08743865128257929,-0.20345420990223004,-0.0027514190279730897,-0.0012376909986606514,0.0,-0.2974102795124054,1.0306202833183347,1.4055436491314466,1.8471746168720622e-16,1.1638638673846313,-1.868206606307302,0.0,0.0,0.0,0.0,0.0,0.0,0,0,0
8.010000000000021,0.289090980504182,-0.07320156662338852,-0.20388523252089147,0.12463437645457845,0.4730088619358323,-0.014367420622047693,-0.24800027906894684,1.0250453577887957,1.4048128102210273,1.2425307108181888e-16,1.162093127052394,-1.8187966058638432,0.0,0.0,0.0,0.0,0.0,0.0,0,0,0
8.04000000000002,0.289090980504182,-0.07320156662338852,-0.20388523252089147,-0.0027514190279730897,-0.0012376909986606514,0.0,-0.24800027906894684,1.0250453577887957,1.4048128102210273,1.2425307108181888e-16,1.162093127052394,-1.8187966058638432,0.0,0.0,0.0,0.0,0.0,0.0,0,0,0
8.07000000000002,0.289090980504182,-0.07320156662338852,-0.20388523252089147,-0.0027514190279730897,-0.0012376909986606514,0.0,-0.24800027906894684,1.0250453577887957,1.4048128102210273,1.2425307108181888e-16,1.162093127052394,-1.8187966058638432,0.0,0.0,0.0,0.0,0.0,0.0,0,0,0
8.10000000000002,0.289090980504182,-0.07320156662338852,-0.20388523252089147,-0.0027514190279730897,-0.0012376909986606514,0.0,-0.24800027906894684,1.0250453577887957,1.4048128102210273,1.2425307108181888e-16,1.162093127052394,-1.8187966058638432,0.0,0.0,0.0,0.0,0.0,0.0,0,0,0
8.130000000000019,0.289090980504182,-0.07320156662338852,-0.20388523252089147,-0.0027514190279730897,-0.0012376909986606514,0.0,-0.24800027906894684,1.0250453577887957,1.4048128102210273,1.2425307108181888e-16,1.162093127052394,-1.8187966058638432,0.0,0.0,0.0,0.0,0.0,0.0,0,0,0
8.160000000000018,0.289090980504182,-0.07320156662338852,-0.20388523252089147,-0.0027514190279730897,-0.0012376909986606514,0.0,-0.24800027906894684,1.0250453577887957,1.4048128102210273,1.2425307108181888e-16,1.162093127052394,-1.8187966058638432,0.0,0.0,0.0,0.0,0.0,0.0,0,0,0
8.190000000000017,0.289090980504182,-0.07320156662338852,-0.20388523252089147,-0.0027514190279730897,-0.0012376909986606514,0.0,-0.24800027906894684,1.0250453577887957,1.4048128102210273,1.2425307108181888e-16,1.162093127052394,-1.8187966058638432,0.0,0.0,0.0,0.0,0.0,0.0,0,0,0
8.220000000000017,0.289090980504182,-0.07320156662338852,-0.20388523252089147,-0.0027514190279730897,-0.0012376909986606514,0.0,-0.24800027906894684,1.0250453577887957,1.4048128102210273,1.2425307108181888e-16,1.162093127052394,-1.8187966058638432,0.0,0.0,0.0,0.0,0.0,0.0,0,0,0
8.250000000000016,0.2920075758477971,-0.05901183173846701,-0.2046653590267818,0.09479428520793008,0.4714344403181809,-0.026004216863010726,-0.19940443336963654,1.0162640126119549,1.4036242386731834,1.5563969966474524e-16,1.1588087128617572,-1.770200760164533,0.0,0.0,0.0,0.0,0.0,0.0,0,0,0
8.280000000000015,0.2920075758477971,-0.05901183173846701,-0.2046653590267818,-0.0027514190279730897,-0.0012376909986606514,0.0,-0.19940443336963654,1.0162640126119549,1.4036242386731834,1.5563969966474524e-16,1.1588087128617572,-1.770200760164533,0.0,0.0,0.0,0.0,0.0,0.0,0,0,0
8.310000000000015,0.2920075758477971,-0.05901183173846701,-0.2046653590267818,-0.0027514190279730897,-0.0012376909986606514,0.0,-0.19940443336963654,1.0162640126119549,1.4036242386731834,1.5563969966474524e-16,1.1588087128617572,-1.770200760164533,0.0,0.0,0.0,0.0,0.0,0.0,0,0,0
8.340000000000014,0.2920075758477971,-0.05901183173846701,-0.2046653590267818,-0.0027514190279730897,-0.0012376909986606514,0.0,-0.19940443336963654,1.0162640126119549,1.4036242386731834,1.5563969966474524e-16,1.1588087128617572,-1.770200760164533,0.0,0.0,0.0,0.0,0.0,0.0,0,0,0
8.370000000000013,0.2920075758477971,-0.05901183173846701,-0.2046653590267818,-0.0027514190279730897,-0.0012376909986606514,0.0,-0.19940443336963654,1.0162640126119549,1.4036242386731834,1.5563969966474524e-16,1.1588087128617572,-1.770200760164533,0.0,0.0,0.0,0.0,0.0,0.0,0,0,0
8.400000000000013,0.2920075758477971,-0.05901183173846701,-0.2046653590267818,-0.0027514190279730897,-0.0012376909986606514,0.0,-0.19940443336963654,1.0162640126119549,1.4036242386731834,1.5563969966474524e-16,1.1588087128617572,-1.770200760164533,0.0,0.0,0.0,0.0,0.0,0.0,0,0,0
8.430000000000012,0.2920075758477971,-0.05901183173846701,-0.2046653590267818,-0.0027514190279730897,-0.0012376909986606514,0.0,-0.19940443336963654,1.0162640126119549,1.4036242386731834,1.5563969966474524e-16,1.1588087128617572,-1.770200760164533,0.0,0.0,0.0,0.0,0.0,0.0,0,0,0
8.460000000000012,0.2920075758477971,-0.05901183173846701,-0.2046653590267818,-0.0027514190279730897,-0.0012376909986606514,0.0,-0.19940443336963654,1.0162640126119549,1.4036242386731834,1.5563969966474524e-16,1.1588087128617572,-1.770200760164533,0.0,0.0,0.0,0.0,0.0,0.0,0,0,0
8.49000000000001,0.2920075758477971,-0.05901183173846701,-0.2046653590267818,-0.0027514190279730897,-0.0012376909986606514,0.0,-0.19940443336963654,1.0162640126119549,1.4036242386731834,1.5563969966474524e-16,1.1588087128617572,-1.770200760164533,0.0,0.0,0.0,0.0,0.0,0.0,0,0,0
8.52000000000001,0.2909500383286134,-0.06304314123305162,-0.2052169055598982,-0.03808487788501629,-0.1356570699814773,-0.018384884437213277,-0.21338166296482086,1.0220592848757197,1.4025303616744167,1.5426683580289737e-16,1.156627211154976,-1.7841779897597174,0.0,0.0,0.0,0.0,0.0,0.0,0,0,0
8.55000000000001,0.2909500383286134,-0.06304314123305162,-0.2052169055598982,-0.0027514190279730897,-0.0012376909986606514,0.0,-0.21338166296482086,1.0220592848757197,1.4025303616744167,1.5426683580289737e-16,1.156627211154976,-1.7841779897597174,0.0,0.0,0.0,0.0,0.0,0.0,0,0,0
8.580000000000009,0.2909500383286134,-0.06304314123305162,-0.2052169055598982,-0.0027514190279730897,-0.0012376909986606514,0.0,-0.21338166296482086,1.0220592848757197,1.4025303616744167,1.5426683580289737e-16,1.156627211154976,-1.7841779897597174,0.0,0.0,0.0,0.0,0.0,0.0,0,0,0
8.610000000000008,0.2909500383286134,-0.06304314123305162,-0.2052169055598982,-0.0027514190279730897,-0.0012376909986606514,0.0,-0.21338166296482086,1.0220592848757197,1.4025303616744167,1.5426683580289737e-16,1.156627211154976,-1.7841779897597174,0.0,0.0,0.0,0.0,0.0,0.0,0,0,0
8.640000000000008,0.2909500383286134,-0.06304314123305162,-0.2052169055598982,-0.0027514190279730897,-0.0012376909986606514,0.0,-0.21338166296482086,1.0220592848757197,1.4025303616744167,1.5426683580289737e-16,1.156627211154976,-1.7841779897597174,0.0,0.0,0.0,0.0,0.0,0.0,0,0,0
8.670000000000007,0.2909500383286134,-0.06304314123305162,-0.2052169055598982,-0.0027514190279730897,-0.0012376909986606514,0.0,-0.21338166296482086,1.0220592848757197,1.4025303616744167,1.5426683580289737e-16,1.156627211154976,-1.7841779897597174,0.0,0.0,0.0,0.0,0.0,0.0,0,0,0
8.700000000000006,0.2909500383286134,-0.06304314123305162,-0.2052169055598982,-0.0027514190279730897,-0.0012376909986606514,0.0,-0.21338166296482086,1.0220592848757197,1.4025303616744167,1.5426683580289737e-16,1.156627211154976,-1.7841779897597174,0.0,0.0,0.0,0.0,0.0,0.0,0,0,0
8.730000000000006,0.2909500383286134,-0.06304314123305162,-0.2052169055598982,-0.0027514190279730897,-0.0012376909986606514,0.0,-0.21338166296482086,1.0220592848757197,1.4025303616744167,1.5426683580289737e-16,1.156627211154976,-1.7841779897597174,0.0,0.0,0.0,0.0,0.0,0.0,0,0,0
8.760000000000005,0.29380903616453813,-0.04023173404347037,-0.20813953396623514,0.09298156943156727,0.7585663676649077,-0.09742094687789823,-0.13608524203300476,1.0131400435468019,1.3974650787441232,1.6656583825263318e-16,1.14461467222112,-1.7068815688279013,0.0,0.0,0.0,0.0,0.0,0.0,0,0,0
8.790000000000004,0.29380903616453813,-0.04023173404347037,-0.20813953396623514,-0.0027514190279730897,-0.0012376909986606514,0.0,-0.13608524203300476,1.0131400435468019,1.3974650787441232,1.6656583825263318e-16,1.14461467222112,-1.7068815688279013,0.0,0.0,0.0,0.0,0.0,0.0,0,0,0
8.820000000000004,0.29380903616453813,-0.04023173404347037,-0.20813953396623514,-0.0027514190279730897,-0.0012376909986606514,0.0,-0.13608524203300476,1.0131400435468019,1.3974650787441232,1.6656583825263318e-16,1.14461467222112,-1.7068815688279013,0.0,0.0,0.0,0.0,0.0,0.0,0,0,0
8.850000000000003,0.29380903616453813,-0.04023173404347037,-0.20813953396623514,-0.0027514190279730897,-0.0012376909986606514,0.0,-0.13608524203300476,1.0131400435468019,1.3974650787441232,1.6656583825263318e-16,1.14461467222112,-1.7068815688279013,0.0,0.0,0.0,0.0,0.0,0.0,0,0,0
8.880000000000003,0.29380903616453813,-0.04023173404347037,-0.20813953396623514,-0.0027514190279730897,-0.0012376909986606514,0.0,-0.13608524203300476,1.0131400435468019,1.3974650787441232,1.6656583825263318e-16,1.14461467222112,-1.7068815688279013,0.0,0.0,0.0,0.0,0.0,0.0,0,0,0
8.910000000000002,0.29380903616453813,-0.04023173404347037,-0.20813953396623514,-0.0027514190279730897,-0.0012376909986606514,0.0,-0.13608524203300476,1.0131400435468019,1.3974650787441232,1.6656583825263318e-16,1.14461467222112,-1.7068815688279013,0.0,0.0,0.0,0.0,0.0,0.0,0,0,0
8.940000000000001,0.29380903616453813,-0.04023173404347037,-0.20813953396623514,-0.0027514190279730897,-0.0012376909986606514,0.0,-0.13608524203300476,1.0131400435468019,1.3974650787441232,1.6656583825263318e-16,1.14461467222112,-1.7068815688279013,0.0,0.0,0.0,0.0,0.0,0.0,0,0,0
8.97,0.29380903616453813,-0.04023173404347037,-0.20813953396623514,-0.0027514190279730897,-0.0012376909986606514,0.0,-0.13608524203300476,1.0131400435468019,1.3974650787441232,1.6656583825263318e-16,1.14461467222112,-1.7068815688279013,0.0,0.0,0.0,0.0,0.0,0.0,0,0,0
9.0,0.29403013044562293,-0.028433518148709227,-0.21097352221077123,0.004926746291455956,0.39176727111671517,-0.09446627481786984,-0.09640298038721085,1.0038501697703808,1.3924657252196209,1.1802481694013167e-16,1.1329511997820387,-1.6671993071821074,0.0,0.0,0.0,0.0,0.0,0.0,0,0,0
9.03,0.29403013044562293,-0.028433518148709227,-0.21097352221077123,-0.0027514190279730897,-0.0012376909986606514,0.0,-0.09640298038721085,1.0038501697703808,1.3924657252196209,1.1802481694013167e-16,1.1329511997820387,-1.6671993071821074,0.0,0.0,0.0,0.0,0.0,0.0,0,0,0
9.059999999999999,0.29403013044562293,-0.028433518148709227,-0.21097352221077123,-0.0027514190279730897,-0.0012376909986606514,0.0,-0.09640298038721085,1.0038501697703808,1.3924657252196209,1.1802481694013167e-16,1.1329511997820387,-1.6671993071821074,0.0,0.0,0.0,0.0,0.0,0.0,0,0,0
9.089999999999998,0.29403013044562293,-0.028433518148709227,-0.21097352221077123,-0.0027514190279730897,-0.0012376909986606514,0.0,-0.09640298038721085,1.0038501697703808,1.3924657252196209,1.1802481694013167e-16,1.1329511997820387,-1.6671993071821074,0.0,0.0,0.0,0.0,0.0,0.0,0,0,0
9.119999999999997,0.29403013044562293,-0.028433518148709227,-0.21097352221077123,-0.0027514190279730897,-0.0012376909986606514,0.0,-0.09640298038721085,1.0038501697703808,1.3924657252196209,1.1802481694013167e-16,1.1329511997820387,-1.6671993071821074,0.0,0.0,0.0,0.0,0.0,0.0,0,0,0
9.149999999999997,0.29403013044562293,-0.028433518148709227,-0.21097352221077123,-0.0027514190279730897,-0.0012376909986606514,0.0,-0.09640298038721085,1.0038501697703808,1.3924657252196209,1.1802481694013167e-16,1.1329511997820387,-1.6671993071821074,0.0,0.0,0.0,0.0,0.0,0.0,0,0,0
9.179999999999996,0.29403013044562293,-0.028433518148709227,-0.21097352221077123,-0.0027514190279730897,-0.0012376909986606514,0.0,-0.09640298038721085,1.0038501697703808,1.3924657252196209,1.1802481694013167e-16,1.1329511997820387,-1.6671993071821074,0.0,0.0,0.0,0.0,0.0,0.0,0,0,0
9.209999999999996,0.29403013044562293,-0.028433518148709227,-0.21097352221077123,-0.0027514190279730897,-0.0012376909986606514,0.0,-0.09640298038721085,1.0038501697703808,1.3924657252196209,1.1802481694013167e-16,1.1329511997820387,-1.6671993071821074,0.0,0.0,0.0,0.0,0.0,0.0,0,0,0
9.239999999999995,0.29403013044562293,-0.028433518148709227,-0.21097352221077123,-0.0027514190279730897,-0.0012376909986606514,0.0,-0.09640298038721085,1.0038501697703808,1.3924657252196209,1.1802481694013167e-16,1.1329511997820387,-1.6671993071821074,0.0,0.0,0.0,0.0,0.0,0.0,0,0,0
9.269999999999994,0.29324737250266614,-0.016109741295543444,-0.21505521554408574,-0.028474445864837723,0.40925665821161683,-0.1360564444438171,-0.05488050729036331,0.9992556343702209,1.3851092465360682,1.3464855767252666e-16,1.1161246294472122,-1.6256768340852599,0.0,0.0,0.0,0.0,0.0,0.0,0,0,0
9.299999999999994,0.29324737250266614,-0.016109741295543444,-0.21505521554408574,-0.0027514190279730897,-0.0012376909986606514,0.0,-0.05488050729036331,0.9992556343702209,1.3851092465360682,1.3464855767252666e-16,1.1161246294472122,-1.6256768340852599,0.0,0.0,0.0,0.0,0.0,0.0,0,0,0
9.329999999999993,0.29324737250266614,-0.016109741295543444,-0.21505521554408574,-0.0027514190279730897,-0.0012376909986606514,0.0,-0.05488050729036331,0.9992556343702209,1.3851092465360682,1.3464855767252666e-16,1.1161246294472122,-1.6256768340852599,0.0,0.0,0.0,0.0,0.0,0.0,0,0,0
9.359999999999992,0.29324737250266614,-0.016109741295543444,-0.21505521554408574,-0.0027514190279730897,-0.0012376909986606514,0.0,-0.05488050729036331,0.9992556343702209,1.3851092465360682,1.3464855767252666e-16,1.1161246294472122,-1.6256768340852599,0.0,0.0,0.0,0.0,0.0,0.0,0,0,0
9.389999999999992,0.29324737250266614,-0.016109741295543444,-0.21505521554408574,-0.0027514190279730897,-0.0012376909986606514,0.0,-0.05488050729036331,0.9992556343702209,1.3851092465360682,1.3464855767252666e-16,1.1161246294472122,-1.6256768340852599,0.0,0.0,0.0,0.0,0.0,0.0,0,0,0
9.419999999999991,0.29324737250266614,-0.016109741295543444,-0.21505521554408574,-0.0027514190279730897,-0.0012376909986606514,0.0,-0.05488050729036331,0.9992556343702209,1.3851092465360682,1.3464855767252666e-16,1.1161246294472122,-1.6256768340852599,0.0,0.0,0.0,0.0,0.0,0.0,0,0,0
9.44999999999999,0.29324737250266614,-0.016109741295543444,-0.21505521554408574,-0.0027514190279730897,-0.0012376909986606514,0.0,-0.05488050729036331,0.9992556343702209,1.3851092465360682,1.3464855767252666e-16,1.1161246294472122,-1.6256768340852599,0.0,0.0,0.0,0.0,0.0,0.0,0,0,0
9.47999999999999,0.29324737250266614,-0.016109741295543444,-0.21505521554408574,-0.0027514190279730897,-0.0012376909986606514,0.0,-0.05488050729036331,0.9992556343702209,1.3851092465360682,1.3464855767252666e-16,1.1161246294472122,-1.6256768340852599,0.0,0.0,0.0,0.0,0.0,0.0,0,0,0
9.50999999999999,0.29163908969131586,-0.005979363064304721,-0.21960860531042817,-0.056106490035990046,0.33619595959012855,-0.15177965887808084,-0.020499739795923233,0.9843668948824424,1.3766344896803187,1.3541064169831293e-16,1.0973368040174352,-1.5912960665908198,0.0,0.0,0.0,0.0,0.0,0.0,0,0,0
9.539999999999988,0.29163908969131586,-0.005979363064304721,-0.21960860531042817,-0.0027514190279730897,-0.0012376909986606514,0.0,-0.020499739795923233,0.9843668948824424,1.3766344896803187,1.3541064169831293e-16,1.0973368040174352,-1.5912960665908198,0.0,0.0,0.0,0.0,0.0,0.0,0,0,0
9.569999999999988,0.29163908969131586,-0.005979363064304721,-0.21960860531042817,-0.0027514190279730897,-0.0012376909986606514,0.0,-0.020499739795923233,0.9843668948824424,1.3766344896803187,1.3541064169831293e-16,1.0973368040174352,-1.5912960665908198,0.0,0.0,0.0,0.0,0.0,0.0,0,0,0
9.599999999999987,0.29163908969131586,-0.005979363064304721,-0.21960860531042817,-0.0027514190279730897,-0.0012376909986606514,0.0,-0.020499739795923233,0.9843668948824424,1.3766344896803187,1.3541064169831293e-16,1.0973368040174352,-1.5912960665908198,0.0,0.0,0.0,0.0,0.0,0.0,0,0,0
9.629999999999987,0.29163908969131586,-0.005979363064304721,-0.21960860531042817,-0.0027514190279730897,-0.0012376909986606514,0.0,-0.020499739795923233,0.9843668948824424,1.3766344896803187,1.3541064169831293e-16,1.0973368040174352,-1.5912960665908198,0.0,0.0,0.0,0.0,0.0,0.0,0,0,0
9.659999999999986,0.29163908969131586,-0.005979363064304721,-0.21960860531042817,-0.0027514190279730897,-0.0012376909986606514,0.0,-0.020499739795923233,0.9843668948824424,1.3766344896803187,1.3541064169831293e-16,1.0973368040174352,-1.5912960665908198,0.0,0.0,0.0,0.0,0.0,0.0,0,0,0
9.689999999999985,0.29163908969131586,-0.005979363064304721,-0.21960860531042817,-0.0027514190279730897,-0.0012376909986606514,0.0,-0.020499739795923233,0.9843668948824424,1.3766344896803187,1.3541064169831293e-16,1.0973368040174352,-1.5912960665908198,0.0,0.0,0.0,0.0,0.0,0.0,0,0,0
9.719999999999985,0.29163908969131586,-0.005979363064304721,-0.21960860531042817,-0.0027514190279730897,-0.0012376909986606514,0.0,-0.020499739795923233,0.9843668948824424,1.3766344896803187,1.3541064169831293e-16,1.0973368040174352,-1.5912960665908198,0.0,0.0,0.0,0.0,0.0,0.0,0,0,0
9.749999999999984,0.29163908969131586,-0.005979363064304721,-0.21960860531042817,-0.0027514190279730897,-0.0012376909986606514,0.0,-0.020499739795923233,0.9843668948824424,1.3766344896803187,1.3541064169831293e-16,1.0973368040174352,-1.5912960665908198,0.0,0.0,0.0,0.0,0.0,0.0,0,0,0
9.779999999999983,0.28908040185487077,0.0020689206970014597,-0.22530813757368331,-0.08789052392373718,0.26680237591809025,-0.1899844087751716,0.007156781852245331,0.9614881621706493,1.3657194635854932,1.2950124367901751e-16,1.0737290445101315,-1.5636395449426512,0.0,0.0,0.0,0.0,0.0,0.0,0,0,0
9.809999999999983,0.28908040185487077,0.0020689206970014597,-0.22530813757368331,-0.0027514190279730897,-0.0012376909986606514,0.0,0.007156781852245331,0.9614881621706493,1.3657194635854932,1.2950124367901751e-16,1.0737290445101315,-1.5636395449426512,0.0,0.0,0.0,0.0,0.0,0.0,0,0,0
9.839999999999982,0.28908040185487077,0.0020689206970014597,-0.22530813757368331,-0.0027514190279730897,-0.0012376909986606514,0.0,0.007156781852245331,0.9614881621706493,1.3657194635854932,1.2950124367901751e-16,1.0737290445101315,-1.5636395449426512,0.0,0.0,0.0,0.0,0.0,0.0,0,0,0
9.869999999999981,0.28908040185487077,0.0020689206970014597,-0.22530813757368331,-0.0027514190279730897,-0.0012376909986606514,0.0,0.007156781852245331,0.9614881621706493,1.3657194635854932,1.2950124367901751e-16,1.0737290445101315,-1.5636395449426512,0.0,0.0,0.0,0.0,0.0,0.0,0,0,0
9.89999999999998,0.28908040185487077,0.0020689206970014597,-0.22530813757368331,-0.0027514190279730897,-0.0012376909986606514,0.0,0.007156781852245331,0.9614881621706493,1.3657194635854932,1.2950124367901751e-16,1.0737290445101315,-1.5636395449426512,0.0,0.0,0.0,0.0,0.0,0.0,0,0,0
9.92999999999998,0.28908040185487077,0.0020689206970014597,-0.22530813757368331,-0.0027514190279730897,-0.0012376909986606514,0.0,0.007156781852245331,0.9614881621706493,1.3657194635854932,1.2950124367901751e-16,1.0737290445101315,-1.5636395449426512,0.0,0.0,0.0,0.0,0.0,0.0,0,0,0
9.95999999999998,0.28908040185487077,0.0020689206970014597,-0.22530813757368331,-0.0027514190279730897,-0.0012376909986606514,0.0,0.007156781852245331,0.9614881621706493,1.3657194635854932,1.2950124367901751e-16,1.0737290445101315,-1.5636395449426512,0.0,0.0,0.0,0.0,0.0,0.0,0,0,0
9.989999999999979,0.28908040185487077,0.0020689206970014597,-0.22530813757368331,-0.0027514190279730897,-0.0012376909986606514,0.0,0.007156781852245331,0.9614881621706493,1.3657194635854932,1.2950124367901751e-16,1.0737290445101315,-1.5636395449426512,0.0,0.0,0.0,0.0,0.0,0.0,0,0,0
10.019999999999978,0.28574535036840437,0.007486328064679867,-0.23200155634219033,-0.1137762964085623,0.17913307501648368,-0.22311395895023384,0.02619330771267414,0.9444209496695961,1.352409835402266,1.2576927612044984e-16,1.0458838303073281,-1.5446030190822224,0.0,0.0,0.0,0.0,0.0,0.0,0,0,0
10.049999999999978,0.28574535036840437,0.007486328064679867,-0.23200155634219033,-0.0027514190279730897,-0.0012376909986606514,0.0,0.02619330771267414,0.9444209496695961,1.352409835402266,1.2576927612044984e-16,1.0458838303073281,-1.5446030190822224,0.0,0.0,0.0,0.0,0.0,0.0,0,0,0
10.079999999999977,0.28574535036840437,0.007486328064679867,-0.23200155634219033,-0.0027514190279730897,-0.0012376909986606514,0.0,0.02619330771267414,0.9444209496695961,1.352409835402266,1.2576927612044984e-16,1.0458838303073281,-1.5446030190822224,0.0,0.0,0.0,0.0,0.0,0.0,0,0,0
10.109999999999976,0.28574535036840437,0.007486328064679867,-0.23200155634219033,-0.0027514190279730897,-0.0012376909986606514,0.0,0.02619330771267414,0.9444209496695961,1.352409835402266,1.2576927612044984e-16,1.0458838303073281,-1.5446030190822224,0.0,0.0,0.0,0.0,0.0,0.0,0,0,0
10.139999999999976,0.28574535036840437,0.007486328064679867,-0.23200155634219033,-0.0027514190279730897,-0.0012376909986606514,0.0,0.02619330771267414,0.9444209496695961,1.352409835402266,1.2576927612044984e-16,1.0458838303073281,-1.5446030190822224,0.0,0.0,0.0,0.0,0.0,0.0,0,0,0
10.169999999999975,0.28574535036840437,0.007486328064679867,-0.23200155634219033,-0.0027514190279730897,-0.0012376909986606514,0.0,0.02619330771267414,0.9444209496695961,1.352409835402266,1.2576927612044984e-16,1.0458838303073281,-1.5446030190822224,0.0,0.0,0.0,0.0,0.0,0.0,0,0,0
10.199999999999974,0.28574535036840437,0.007486328064679867,-0.23200155634219033,-0.0027514190279730897,-0.0012376909986606514,0.0,0.02619330771267414,0.9444209496695961,1.352409835402266,1.2576927612044984e-16,1.0458838303073281,-1.5446030190822224,0.0,0.0,0.0,0.0,0.0,0.0,0,0,0
10.229999999999974,0.28574535036840437,0.007486328064679867,-0.23200155634219033,-0.0027514190279730897,-0.0012376909986606514,0.0,0.02619330771267414,0.9444209496695961,1.352409835402266,1.2576927612044984e-16,1.0458838303073281,-1.5446030190822224,0.0,0.0,0.0,0.0,0.0,0.0,0,0,0
10.259999999999973,0.2817627623274865,0.009671490105195402,-0.23958575252575692,-0.13544678086115494,0.07139838759659994,-0.2528065394522198,0.03431146964430809,0.9204672052853256,1.3367237153811782,1.1143175420678288e-16,1.014114306112576,-1.5364848571505885,0.0,0.0,0.0,0.0,0.0,0.0,0,0,0
10.289999999999973,0.2817627623274865,0.009671490105195402,-0.23958575252575692,-0.0027514190279730897,-0.0012376909986606514,0.0,0.03431146964430809,0.9204672052853256,1.3367237153811782,1.1143175420678288e-16,1.014114306112576,-1.5364848571505885,0.0,0.0,0.0,0.0,0.0,0.0,0,0,0
10.319999999999972,0.2817627623274865,0.009671490105195402,-0.23958575252575692,-0.0027514190279730897,-0.0012376909986606514,0.0,0.03431146964430809,0.9204672052853256,1.3367237153811782,1.1143175420678288e-16,1.014114306112576,-1.5364848571505885,0.0,0.0,0.0,0.0,0.0,0.0,0,0,0
10.349999999999971,0.2817627623274865,0.009671490105195402,-0.23958575252575692,-0.0027514190279730897,-0.0012376909986606514,0.0,0.03431146964430809,0.9204672052853256,1.3367237153811782,1.1143175420678288e-16,1.014114306112576,-1.5364848571505885,0.0,0.0,0.0,0.0,0.0,0.0,0,0,0
10.37999999999997,0.2817627623274865,0.009671490105195402,-0.23958575252575692,-0.0027514190279730897,-0.0012376909986606514,0.0,0.03431146964430809,0.9204672052853256,1.3367237153811782,1.1143175420678288e-16,1.014114306112576,-1.5364848571505885,0.0,0.0,0.0,0.0,0.0,0.0,0,0,0
10.40999999999997,0.2817627623274865,0.009671490105195402,-0.23958575252575692,-0.0027514190279730897,-0.0012376909986606514,0.0,0.03431146964430809,0.9204672052853256,1.3367237153811782,1.1143175420678288e-16,1.014114306112576,-1.5364848571505885,0.0,0.0,0.0,0.0,0.0,0.0,0,0,0
10.43999999999997,0.2817627623274865,0.009671490105195402,-0.23958575252575692,-0.0027514190279730897,-0.0012376909986606514,0.0,0.03431146964430809,0.9204672052853256,1.3367237153811782,1.1143175420678288e-16,1.014114306112576,-1.5364848571505885,0.0,0.0,0.0,0.0,0.0,0.0,0,0,0
10.469999999999969,0.2817627623274865,0.009671490105195402,-0.23958575252575692,-0.0027514190279730897,-0.0012376909986606514,0.0,0.03431146964430809,0.9204672052853256,1.3367237153811782,1.1143175420678288e-16,1.014114306112576,-1.5364848571505885,0.0,0.0,0.0,0.0,0.0,0.0,0,0,0
10.499999999999968,0.2817627623274865,0.009671490105195402,-0.23958575252575692,-0.0027514190279730897,-0.0012376909986606514,0.0,0.03431146964430809,0.9204672052853256,1.3367237153811782,1.1143175420678288e-16,1.014114306112576,-1.5364848571505885,0.0,0.0,0.0,0.0,0.0,0.0,0,0,0
10.529999999999967,0.2771318586815682,0.007987125634256983,-0.2480560337247133,-0.15720351924658102,-0.05758350431229406,-0.2823427066318792,0.028812693431973457,0.8950471856416804,1.3184032595485642,1.1334246269293515e-16,0.9783206630188325,-1.541983633362923,0.0,0.0,0.0,0.0,0.0,0.0,0,0,0
10.559999999999967,0.2771318586815682,0.007987125634256983,-0.2480560337247133,-0.0027514190279730897,-0.0012376909986606514,0.0,0.028812693431973457,0.8950471856416804,1.3184032595485642,1.1334246269293515e-16,0.9783206630188325,-1.541983633362923,0.0,0.0,0.0,0.0,0.0,0.0,0,0,0
10.589999999999966,0.2771318586815682,0.007987125634256983,-0.2480560337247133,-0.0027514190279730897,-0.0012376909986606514,0.0,0.028812693431973457,0.8950471856416804,1.3184032595485642,1.1334246269293515e-16,0.9783206630188325,-1.541983633362923,0.0,0.0,0.0,0.0,0.0,0.0,0,0,0
10.619999999999965,0.2771318586815682,0.007987125634256983,-0.2480560337247133,-0.0027514190279730897,-0.0012376909986606514,0.0,0.028812693431973457,0.8950471856416804,1.3184032595485642,1.1334246269293515e-16,0.9783206630188325,-1.541983633362923,0.0,0.0,0.0,0.0,0.0,0.0,0,0,0
10.649999999999965,0.2771318586815682,0.007987125634256983,-0.2480560337247133,-0.0027514190279730897,-0.0012376909986606514,0.0,0.028812693431973457,0.8950471856416804,1.3184032595485642,1.1334246269293515e-16,0.9783206630188325,-1.541983633362923,0.0,0.0,0.0,0.0,0.0,0.0,0,0,0
10.679999999999964,0.2771318586815682,0.007987125634256983,-0.2480560337247133,-0.0027514190279730897,-0.0012376909986606514,0.0,0.028812693431973457,0.8950471856416804,1.3184032595485642,1.1334246269293515e-16,0.9783206630188325,-1.541983633362923,0.0,0.0,0.0,0.0,0.0,0.0,0,0,0
