Suke0811/REMS/sim/utils/target_robot_circle.csv
timestamp,x,y,z,j.0,j.1,j.2,j.3,j.4,j.5,d_j.0,d_j.1,d_j.2,d_j.3,d_j.4,d_j.5
0.01,0.25,0.0,-0.25,0.0,-1.0786662699069645,3.1384371933020887,-3.141592653589793,-0.5737269192067783,-1.5707963267948966,0.0,0.0,0.0,0.0,0.0,0.0
0.02,0.24999678859343266,0.0008014181183027707,-0.25,0.0032057026401162148,-1.0602497110963665,3.140157339900714,-3.141592653589793,-0.5818561421711195,-1.5740020294350128,0.0,0.0,0.0,0.0,0.0,0.0
0.03,0.24998715457999315,0.0016027847630173744,-0.25,0.006411380600184202,-1.0602495524497613,3.1401572523897414,-3.141592653589793,-0.5818561250873053,-1.5772077073950808,0.0,0.0,0.0,0.0,0.0,0.0
0.04,0.24997109857845623,0.0024040484638616975,-0.25,0.00961701013147831,-1.0602489585323571,3.140157084533378,-3.141592653589793,-0.5818561973183862,-1.5804133369263749,0.0,0.0,0.0,0.0,0.0,0.0
0.05,0.2499486216200688,0.0032051577571655175,-0.25,0.012822563759982586,-1.0602481274177258,3.1401568497090597,-3.141592653589793,-0.5818562984568089,-1.5836188905548791,0.0,0.0,0.0,0.0,0.0,0.0
0.060000000000000005,0.24991972514848398,0.00400606118917592,-0.25,0.016028018668293953,-1.0602470592831388,3.140156547937133,-3.141592653589793,-0.5818564284557707,-1.5868243454631905,0.0,0.0,0.0,0.0,0.0,0.0
0.07,0.24988441101966813,0.004806707319362079,-0.25,0.019233349710702896,-1.0602457533014693,3.1401561789075654,-3.141592653589793,-0.5818565873510075,-1.5900296765055995,0.0,0.0,0.0,0.0,0.0,0.0
0.08,0.24984268150178168,0.0056070447237191795,-0.25,0.02243853360414505,-1.060244209938455,3.1401557428693057,-3.141592653589793,-0.5818567751860821,-1.5932348603990416,0.0,0.0,0.0,0.0,0.0,0.0
0.09,0.24979453927503364,0.006407021998071291,-0.25,0.025643544271588326,-1.0602424293814554,3.140155239822233,-3.141592653589793,-0.5818569918931905,-1.5964398710664849,0.0,0.0,0.0,0.0,0.0,0.0
0.09999999999999999,0.24973998743150932,0.007206587761372965,-0.25,0.028848357498645782,-1.0602404112076105,3.140154669710025,-3.141592653589793,-0.5818572375778889,-1.5996446842935423,0.0,0.0,0.0,0.0,0.0,0.0
0.10999999999999999,0.24967902947497161,0.008005690659009334,-0.25,0.03205294907093048,-1.0602381558399347,3.140154032473612,-3.141592653589793,-0.5818575120367544,-1.602849275865827,0.0,0.0,0.0,0.0,0.0,0.0
0.11999999999999998,0.24961166932063616,0.00880427936609453,-0.25,0.035257287323474884,-1.0602356636719037,3.140153328382091,-3.141592653589793,-0.5818578153568613,-1.6060536141183714,0.0,0.0,0.0,0.0,0.0,0.0
0.12999999999999998,0.24953791129491987,0.009602302590768176,-0.25,0.038461361080408096,-1.0602329338363852,3.1401525570736695,-3.141592653589793,-0.5818581475445371,-1.6092576878753047,0.0,0.0,0.0,0.0,0.0,0.0
0.13999999999999999,0.2494577601351628,0.010399709077489784,-0.25,0.04166513308882713,-1.0602299660241687,3.140151718562864,-3.141592653589793,-0.5818585087246646,-1.6124614598837237,0.0,0.0,0.0,0.0,0.0,0.0
0.15,0.2493712209893243,0.011196447610330786,-0.25,0.044868580996990204,-1.0602265649089961,3.1401508004272305,-3.141592653589793,-0.5818589591241309,-1.6156649077918868,0.0,0.0,0.0,0.0,0.0,0.0
0.16,0.24927829941565188,0.011992467016264045,-0.25,0.048071686178445816,-1.0602233201451376,3.140149840924746,-3.141592653589793,-0.581859317575988,-1.6188680129733424,0.0,0.0,0.0,0.0,0.0,0.0
0.17,0.24917900138232463,0.0127877161684506,-0.25,0.051274415105581284,-1.0602196425414352,3.1401488019753554,-3.141592653589793,-0.5818597652319291,-1.6220707419004778,0.0,0.0,0.0,0.0,0.0,0.0
0.18000000000000002,0.2490733332670697,0.013582143989523452,-0.25,0.054476749151945114,-1.0602157276156507,3.140147695778472,-3.141592653589793,-0.5818602416064853,-1.6252730759468417,0.0,0.0,0.0,0.0,0.0,0.0
0.19000000000000003,0.24896130185675264,0.014375699454868163,-0.25,0.05767866224050522,-1.0602115762558064,3.1401465228267416,-3.141592653589793,-0.5818607467982415,-1.6284749890354018,0.0,0.0,0.0,0.0,0.0,0.0
0.20000000000000004,0.24884291434694156,0.015168331595900076,-0.25,0.06088012456893921,-1.0602071869716667,3.1401452828360643,-3.141592653589793,-0.5818612811059133,-1.6316764513638358,0.0,0.0,0.0,0.0,0.0,0.0
0.21000000000000005,0.24871817834144505,0.015959989503337917,-0.25,0.064081110060215,-1.0602025615154975,3.140143975923806,-3.141592653589793,-0.5818618439949013,-1.6348774368551116,0.0,0.0,0.0,0.0,0.0,0.0
0.22000000000000006,0.24858710185182362,0.01675062233047364,-0.25,0.06728160381317139,-1.0601976996833358,3.1401426022845893,-3.141592653589793,-0.5818624357057393,-1.638077930608068,0.0,0.0,0.0,0.0,0.0,0.0
0.23000000000000007,0.24844969329687527,0.017540179296438165,-0.25,0.0704815685749054,-1.0601927981661916,3.1401411747342536,-3.141592653589793,-0.5818629958521578,-1.641277895369802,0.0,0.0,0.0,0.0,0.0,0.0
0.24000000000000007,0.24830596150209472,0.018328609689462972,-0.25,0.07368098944425583,-1.0601872664583851,3.140139654523656,-3.141592653589793,-0.5818637054955874,-1.6444773162391524,0.0,0.0,0.0,0.0,0.0,0.0
0.25000000000000006,0.24815591569910656,0.01911586287013723,-0.25,0.0768798366189003,-1.060181696173899,3.1401380807400994,-3.141592653589793,-0.5818643834625674,-1.6476761634137969,0.0,0.0,0.0,0.0,0.0,0.0
0.26000000000000006,0.24799956552507235,0.01990188827466024,-0.25,0.08007808774709702,-1.0601758874256682,3.140136439603296,-3.141592653589793,-0.5818650904775026,-1.6508744145419936,0.0,0.0,0.0,0.0,0.0,0.0
0.2700000000000001,0.24783692102207155,0.02068663541808908,-0.25,0.083275705575943,-1.0601698442383096,3.1401347320340793,-3.141592653589793,-0.5818658258670505,-1.6540720323708396,0.0,0.0,0.0,0.0,0.0,0.0
0.2800000000000001,0.24766799263645672,0.021470053897581148,-0.25,0.08647266775369644,-1.0601635653617159,3.1401329580021127,-3.141592653589793,-0.5818665900594727,-1.657268994548593,0.0,0.0,0.0,0.0,0.0,0.0
0.2900000000000001,0.2474927912181824,0.02225209339563144,-0.25,0.08966896682977676,-1.0601570497611519,3.140131117096143,-3.141592653589793,-0.5818673830802662,-1.6604652936246735,0.0,0.0,0.0,0.0,0.0,0.0
0.3000000000000001,0.24731132802010825,0.02303270368330436,-0.25,0.09286455810070038,-1.0601502982278443,3.14012920943569,-3.141592653589793,-0.5818682047454011,-1.663660884895597,0.0,0.0,0.0,0.0,0.0,0.0
0.3100000000000001,0.2471236146972764,0.023811834623459815,-0.25,0.0960594117641449,-1.0601433115720411,3.1401272354999072,-3.141592653589793,-0.5818690551705542,-1.6668557385590415,0.0,0.0,0.0,0.0,0.0,0.0
0.3200000000000001,0.24692966330616284,0.02458943617397345,-0.25,0.09925352036952972,-1.060136089308065,3.140125194794269,-3.141592653589793,-0.5818699341112704,-1.6700498471644265,0.0,0.0,0.0,0.0,0.0,0.0
0.3300000000000001,0.24672948630390296,0.025365458390950738,-0.25,0.10244683921337128,-1.060128631185222,3.1401230875840103,-3.141592653589793,-0.5818708418856007,-1.6732431660082678,0.0,0.0,0.0,0.0,0.0,0.0
0.34000000000000014,0.2465230965474916,0.026139851431934803,-0.25,0.10563936084508896,-1.0601209382456709,3.140120913910776,-3.141592653589793,-0.5818717781522792,-1.6764356876399855,0.0,0.0,0.0,0.0,0.0,0.0
0.35000000000000014,0.24631050729295706,0.026912565559107683,-0.25,0.10883104801177979,-1.0601130094916655,3.140118673646146,-3.141592653589793,-0.5818727431647068,-1.6796273748066763,0.0,0.0,0.0,0.0,0.0,0.0
0.36000000000000015,0.24609173219450997,0.027683551142484938,-0.25,0.11202185600996017,-1.060104847645647,3.140116367500548,-3.141592653589793,-0.5818737365425651,-1.6828181828048567,0.0,0.0,0.0,0.0,0.0,0.0
0.37000000000000016,0.24586678530366607,0.02845275866310324,-0.25,0.11521179974079132,-1.0600962521880337,3.140113981592286,-3.141592653589793,-0.5818748191566708,-1.6860081265356879,0.0,0.0,0.0,0.0,0.0,0.0
0.38000000000000017,0.24563568106834383,0.029220138716200935,-0.25,0.11840082705020905,-1.0600878170751233,3.1401115555665786,-3.141592653589793,-0.5818758094509948,-1.6891971538451056,0.0,0.0,0.0,0.0,0.0,0.0
0.3900000000000002,0.24539843433193642,0.02998564201439116,-0.25,0.12158891558647156,-1.0600789488258187,3.140109049751084,-3.141592653589793,-0.581876888788636,-1.6923852423813683,0.0,0.0,0.0,0.0,0.0,0.0
0.4000000000000002,0.24515506033235834,0.03074921939082755,-0.25,0.12477602064609528,-1.0600698477064139,3.140106478221817,-3.141592653589793,-0.5818779965587164,-1.6955723474409918,0.0,0.0,0.0,0.0,0.0,0.0
0.4100000000000002,0.24490557470106689,0.03151082180236207,-0.25,0.1279621571302414,-1.0600605118044122,3.1401038402622348,-3.141592653589793,-0.5818791328451693,-1.698758483925138,0.0,0.0,0.0,0.0,0.0,0.0
0.4200000000000002,0.2446499934620579,0.03227040033269499,-0.25,0.13114726543426514,-1.0600509421495445,3.1401011362832207,-3.141592653589793,-0.5818802976262464,-1.7019435922291617,0.0,0.0,0.0,0.0,0.0,0.0
0.4300000000000002,0.2443883330308368,0.03302790619551671,-0.25,0.13433131575584412,-1.0600411383802335,3.1400983661130706,-3.141592653589793,-0.5818814908880685,-1.7051276425507407,0.0,0.0,0.0,0.0,0.0,0.0
0.4400000000000002,0.24412061021336406,0.03378329073764116,-0.25,0.13751429319381714,-1.0600311015163655,3.1400955301451248,-3.141592653589793,-0.5818827125975616,-1.7083106199887137,0.0,0.0,0.0,0.0,0.0,0.0
0.45000000000000023,0.24384684220497607,0.034536505442130765,-0.25,0.14069616794586182,-1.0600208312089627,3.1400926280953527,-3.141592653589793,-0.5818839626405926,-1.7114924947407584,0.0,0.0,0.0,0.0,0.0,0.0
0.46000000000000024,0.24356704658928036,0.035287501931412536,-0.25,0.14387691020965576,-1.0600103277434378,3.1400896601709345,-3.141592653589793,-0.5818852410917672,-1.7146732370045523,0.0,0.0,0.0,0.0,0.0,0.0
0.47000000000000025,0.2432812413370265,0.036036231970385336,-0.25,0.1470564901828766,-1.059999590152227,3.140086626129781,-3.141592653589793,-0.5818865480970681,-1.7178528169777731,0.0,0.0,0.0,0.0,0.0,0.0
0.48000000000000026,0.2429894448049518,0.036782647469517864,-0.25,0.1502349078655243,-1.0599886201453135,3.1400835263483255,-3.141592653589793,-0.5818878833589113,-1.7210312346604208,0.0,0.0,0.0,0.0,0.0,0.0
0.49000000000000027,0.2426916757346022,0.03752670048793741,-0.25,0.1534120887517929,-1.059977417752087,3.140080360876391,-3.141592653589793,-0.5818892469106931,-1.7242084155466895,0.0,0.0,0.0,0.0,0.0,0.0
0.5000000000000002,0.24238795325112872,0.03826834323650898,-0.25,0.15658803284168243,-1.0599659820843694,3.14007712954934,-3.141592653589793,-0.5818906389357333,-1.7273843596365792,0.0,0.0,0.0,0.0,0.0,0.0
0.5100000000000002,0.24207829686205884,0.039007528080904685,-0.25,0.15976271033287048,-1.059954315825271,3.140073832899372,-3.141592653589793,-0.5818920589164605,-1.730559037127767,0.0,0.0,0.0,0.0,0.0,0.0
0.5200000000000002,0.24176272645604388,0.03974420754466328,-0.25,0.16293607652187347,-1.0599424156108697,3.1400704703265756,-3.141592653589793,-0.5818935075629167,-1.7337324033167703,0.0,0.0,0.0,0.0,0.0,0.0
0.5300000000000002,0.24144126230158128,0.04047833431223938,-0.25,0.1661081314086914,-1.0599302845241159,3.1400670422708234,-3.141592653589793,-0.5818949841339065,-1.736904458203588,0.0,0.0,0.0,0.0,0.0,0.0
0.5400000000000003,0.241113925045713,0.041209861232042545,-0.25,0.1692788153886795,-1.0599179218139465,3.140063548946417,-3.141592653589793,-0.5818964890861783,-1.740075142183576,0.0,0.0,0.0,0.0,0.0,0.0
0.5500000000000003,0.24078073571269926,0.04193874131946568,-0.25,0.17244811356067657,-1.0599053276128263,3.1400599900092345,-3.141592653589793,-0.5818980220801412,-1.7432444403555731,0.0,0.0,0.0,0.0,0.0,0.0
0.5600000000000003,0.2404417157026683,0.0426649277599028,-0.25,0.17561601102352142,-1.059892501450566,3.1400563655849822,-3.141592653589793,-0.5818995833952489,-1.746412337818418,0.0,0.0,0.0,0.0,0.0,0.0
0.5700000000000003,0.24009688679024194,0.04338837391175582,-0.25,0.17878244817256927,-1.0598794449152837,3.1400526760075795,-3.141592653589793,-0.5819011727421205,-1.7495787749674658,0.0,0.0,0.0,0.0,0.0,0.0
0.5800000000000003,0.2397462711231368,0.044109033309430265,-0.25,0.18194741010665894,-1.0598661577871642,3.1400489212694467,-3.141592653589793,-0.5819027901958674,-1.7527437369015555,0.0,0.0,0.0,0.0,0.0,0.0
0.5900000000000003,0.239389891220742,0.044826859666319704,-0.25,0.1851108819246292,-1.0598524446591906,3.140045088775537,-3.141592653589793,-0.5819044958789559,-1.7559072087195258,0.0,0.0,0.0,0.0,0.0,0.0
0.6000000000000003,0.23902776997267272,0.04554180687777859,-0.25,0.18827281892299652,-1.0598388928659315,3.140041216523649,-3.141592653589793,-0.5819061092091152,-1.759069145717893,0.0,0.0,0.0,0.0,0.0,0.0
0.6100000000000003,0.23865993063730004,0.04625382902408353,-0.25,0.19143317639827728,-1.0598249156499921,3.140037266570644,-3.141592653589793,-0.5819078106098101,-1.7622295031931738,0.0,0.0,0.0,0.0,0.0,0.0
0.6200000000000003,0.23828639684025713,0.04696288037338257,-0.25,0.1945919394493103,-1.0598107074087064,3.1400332514172984,-3.141592653589793,-0.5819095402482423,-1.765388266244207,0.0,0.0,0.0,0.0,0.0,0.0
0.6300000000000003,0.23790719257292176,0.04766891538463253,-0.25,0.1977490931749344,-1.0597962701893788,3.140029171551536,-3.141592653589793,-0.5819112977999575,-1.768545419969831,0.0,0.0,0.0,0.0,0.0,0.0
0.6400000000000003,0.2375223421908754,0.048371888710523975,-0.25,0.20090456306934357,-1.0597816055440141,3.140025027276959,-3.141592653589793,-0.5819130829630028,-1.7717008898642401,0.0,0.0,0.0,0.0,0.0,0.0
0.6500000000000004,0.23713187041233896,0.049071755200393787,-0.25,0.20405837893486023,-1.0597667099178594,3.1400208178859437,-3.141592653589793,-0.5819148964253186,-1.7748547057297568,0.0,0.0,0.0,0.0,0.0,0.0
0.6600000000000004,0.23673580231658514,0.049768469903125126,-0.25,0.2072104513645172,-1.0597515873396404,3.140016544058991,-3.141592653589793,-0.581916737308165,-1.7780067781594138,0.0,0.0,0.0,0.0,0.0,0.0
0.6700000000000004,0.23633416334232754,0.05046198807003456,-0.25,0.2103607952594757,-1.0597362350241735,3.1400122054204864,-3.141592653589793,-0.5819186063034941,-1.7811571220543723,0.0,0.0,0.0,0.0,0.0,0.0
0.6800000000000004,0.23592697928608702,0.05115226515774617,-0.25,0.21350933611392975,-1.059720656441213,3.1400078026757683,-3.141592653589793,-0.5819205027564675,-1.7843056629088263,0.0,0.0,0.0,0.0,0.0,0.0
0.6900000000000004,0.23551427630053465,0.0518392568310525,-0.25,0.21665607392787933,-1.0597048484554588,3.1400033351620813,-3.141592653589793,-0.5819224272413234,-1.787452400722776,0.0,0.0,0.0,0.0,0.0,0.0
0.7000000000000004,0.23509608089281192,0.052522918965762125,-0.25,0.21980096399784088,-1.05968881256873,3.139998803344998,-3.141592653589793,-0.5819243796125382,-1.7905972907927377,0.0,0.0,0.0,0.0,0.0,0.0
0.7100000000000004,0.23467241992282845,0.05320320765153366,-0.25,0.2229439616203308,-1.0596725506575915,3.1399942074877156,-3.141592653589793,-0.5819263594162079,-1.7937402884152276,0.0,0.0,0.0,0.0,0.0,0.0
0.7200000000000004,0.23424332060153663,0.053880079194696034,-0.25,0.22608508169651031,-1.0596560613848176,3.139989547318782,-3.141592653589793,-0.5819283669081697,-1.7968814084914069,0.0,0.0,0.0,0.0,0.0,0.0
0.7300000000000004,0.23380881048918412,0.054553490121054864,-0.25,0.22922421991825104,-1.0596393460144142,3.139984823130998,-3.141592653589793,-0.5819304018819415,-1.8000205467131476,0.0,0.0,0.0,0.0,0.0,0.0
0.7400000000000004,0.23336891749354335,0.05522339717868474,-0.25,0.23236140608787537,-1.0596224042453866,3.1399800349384073,-3.141592653589793,-0.5819324644609947,-1.803157732882772,0.0,0.0,0.0,0.0,0.0,0.0
0.7500000000000004,0.23292366986811952,0.05588975734070715,-0.25,0.23549656569957733,-1.0596052366321782,3.139975182997995,-3.141592653589793,-0.5819345546656852,-1.806292892494474,0.0,0.0,0.0,0.0,0.0,0.0
0.7600000000000005,0.2324730962103356,0.0565525278080541,-0.25,0.23862971365451813,-1.0595878429079448,3.139970266995082,-3.141592653589793,-0.5819366723269744,-1.809426040449415,0.0,0.0,0.0,0.0,0.0,0.0
0.7700000000000005,0.2320172254596956,0.05721166601221696,-0.25,0.2417607605457306,-1.0595702234900024,3.1399652872420756,-3.141592653589793,-0.5819388175622435,-1.8125570873406271,0.0,0.0,0.0,0.0,0.0,0.0
0.7800000000000005,0.23155608689592605,0.05786712961798057,-0.25,0.24488967657089233,-1.059552380810798,3.1399602441942296,-3.141592653589793,-0.5819409898798524,-1.815686003365789,0.0,0.0,0.0,0.0,0.0,0.0
0.7900000000000005,0.23108971013709512,0.05851887652614236,-0.25,0.24801646173000336,-1.0595343121381493,3.1399551374263694,-3.141592653589793,-0.5819431899107339,-1.8188127885249001,0.0,0.0,0.0,0.0,0.0,0.0
0.8000000000000005,0.23061812513771057,0.05916686487621632,-0.25,0.2511410713195801,-1.0595162156874167,3.1399499799313393,-3.141592653589793,-0.5819453568466546,-1.8219373981144766,0.0,0.0,0.0,0.0,0.0,0.0
0.8100000000000005,0.2301413621867957,0.05981105304912159,-0.25,0.2542634606361389,-1.05949750221661,3.139944733367413,-3.141592653589793,-0.5819476717053831,-1.8250597874310355,0.0,0.0,0.0,0.0,0.0,0.0
0.8200000000000005,0.2296594519059439,0.06045139966985558,-0.25,0.2573835849761963,-1.059478762232569,3.1399394366239815,-3.141592653589793,-0.5819499534823507,-1.828179911771093,0.0,0.0,0.0,0.0,0.0,0.0
0.8300000000000005,0.229172425247352,0.06108786361015143,-0.25,0.2605014443397522,-1.0594597984983682,3.139934076541955,-3.141592653589793,-0.5819522624943937,-1.8312977711346488,0.0,0.0,0.0,0.0,0.0,0.0
0.8400000000000005,0.2286803134918322,0.06172040399111957,-0.25,0.2636169493198395,-1.0594406125324465,3.1399286536024533,-3.141592653589793,-0.5819545986035197,-1.8344132761147363,0.0,0.0,0.0,0.0,0.0,0.0
0.8500000000000005,0.22818314824680302,0.06234898018587335,-0.25,0.26673009991645813,-1.0594212031917856,3.1399231675840618,-3.141592653589793,-0.5819569620382091,-1.837526426711355,0.0,0.0,0.0,0.0,0.0,0.0
0.8600000000000005,0.22768096144425903,0.06297355182213836,-0.25,0.26984086632728577,-1.0594015727548562,3.1399176188397977,-3.141592653589793,-0.581959352275683,-1.8406371931221823,0.0,0.0,0.0,0.0,0.0,0.0
0.8700000000000006,0.2271737853387202,0.0635940787848455,-0.25,0.2729491889476776,-1.059381719155816,3.139912006990693,-3.141592653589793,-0.5819617697448868,-1.8437455157425744,0.0,0.0,0.0,0.0,0.0,0.0
0.8800000000000006,0.22666165250516007,0.06421052121870754,-0.25,0.2760550379753113,-1.0593616449015908,3.1399063326268095,-3.141592653589793,-0.5819642140422617,-1.8468513647702078,0.0,0.0,0.0,0.0,0.0,0.0
0.8900000000000006,0.2261445958369135,0.06482283953077883,-0.25,0.279158353805542,-1.0593413495892658,3.1399005959114312,-3.141592653589793,-0.581966685455864,-1.8499546806004388,0.0,0.0,0.0,0.0,0.0,0.0
0.9000000000000006,0.22562264854356406,0.06543099439299842,-0.25,0.28225913643836975,-1.059320833166277,3.1398947965883153,-3.141592653589793,-0.5819691837891487,-1.8530554632332665,0.0,0.0,0.0,0.0,0.0,0.0
0.9100000000000006,0.22509584414881117,0.06603494674471592,-0.25,0.28535738587379456,-1.059300096303609,3.1398889347413164,-3.141592653589793,-0.5819717088730436,-1.8561537126686911,0.0,0.0,0.0,0.0,0.0,0.0
0.9200000000000006,0.2245642164883166,0.06663465779520039,-0.25,0.28845295310020447,-1.0592791397008678,3.1398830108222207,-3.141592653589793,-0.5819742608417011,-1.8592492798951012,0.0,0.0,0.0,0.0,0.0,0.0
0.9300000000000006,0.2240277997075316,0.06723008902613169,-0.25,0.2915458679199219,-1.0592579637779327,3.1398770248649317,-3.141592653589793,-0.5819768395745878,-1.8623421947148184,0.0,0.0,0.0,0.0,0.0,0.0
0.9400000000000006,0.2234866282595036,0.06782120219407448,-0.25,0.294636070728302,-1.059236569105387,3.1398709769690036,-3.141592653589793,-0.5819794449524878,-1.8654323975231988,0.0,0.0,0.0,0.0,0.0,0.0
0.9500000000000006,0.22294073690266347,0.0684079593329346,-0.25,0.29772353172302246,-1.059214954756989,3.139864866975172,-3.141592653589793,-0.5819820771785297,-1.868519858517919,0.0,0.0,0.0,0.0,0.0,0.0
0.9600000000000006,0.2223901606985929,0.06899032275639748,-0.25,0.3008081912994385,-1.0591933196571155,3.139858708062743,-3.141592653589793,-0.5819846753361313,-1.871604518094335,0.0,0.0,0.0,0.0,0.0,0.0
0.9700000000000006,0.2218349350097728,0.06956825506034864,-0.25,0.30389004945755005,-1.0591710712450535,3.139852461501267,-3.141592653589793,-0.5819874213471599,-1.8746863762524468,0.0,0.0,0.0,0.0,0.0,0.0
0.9800000000000006,0.2212750954973115,0.07014171912527616,-0.25,0.3069690465927124,-1.059148804653459,3.1398461666762767,-3.141592653589793,-0.5819901329211238,-1.8777653733876092,0.0,0.0,0.0,0.0,0.0,0.0
0.9900000000000007,0.2207106781186548,0.07071067811865477,-0.25,0.31004512310028076,-1.0591265172430386,3.1398398232412177,-3.141592653589793,-0.5819928107208173,-1.8808414498951773,0.0,0.0,0.0,0.0,0.0,0.0
1.0000000000000007,0.2201417191252762,0.07127509549731147,-0.25,0.31311821937561035,-1.0591036189410357,3.139833392656131,-3.141592653589793,-0.5819956359346052,-1.8839145461705071,0.0,0.0,0.0,0.0,0.0,0.0
1.0100000000000007,0.21956825506034866,0.07183493500977275,-0.25,0.31618836522102356,-1.0590807006876481,3.139826913543379,-3.141592653589793,-0.5819984271358193,-1.8869846920159201,0.0,0.0,0.0,0.0,0.0,0.0
1.0200000000000007,0.21899032275639752,0.07239016069859289,-0.25,0.31925544142723083,-1.0590575670393036,3.139820373523678,-3.141592653589793,-0.5820012446685215,-1.8900517682221274,0.0,0.0,0.0,0.0,0.0,0.0
1.0300000000000007,0.21840795933293464,0.07294073690266342,-0.25,0.3223194479942322,-1.059034218182152,3.139813772413355,-3.141592653589793,-0.5820040883117559,-1.893115774789129,0.0,0.0,0.0,0.0,0.0,0.0
1.0400000000000007,0.21782120219407453,0.07348662825950356,-0.25,0.3253803253173828,-1.0590106545698834,3.1398071105227725,-3.141592653589793,-0.5820069581685854,-1.8961766521122796,0.0,0.0,0.0,0.0,0.0,0.0
1.0500000000000007,0.21723008902613172,0.07402779970753155,-0.25,0.32843804359436035,-1.058986877031293,3.1398003880935814,-3.141592653589793,-0.5820098541474643,-1.899234370389257,0.0,0.0,0.0,0.0,0.0,0.0
1.0600000000000007,0.2166346577952004,0.07456421648831656,-0.25,0.33149254322052,-1.0589628842792074,3.1397936047962354,-3.141592653589793,-0.5820127764376268,-1.9022888700154168,0.0,0.0,0.0,0.0,0.0,0.0
1.0700000000000007,0.21603494674471596,0.07509584414881113,-0.25,0.33454379439353943,-1.058938679188337,3.1397867612748644,-3.141592653589793,-0.5820157245484331,-1.9053401211884362,0.0,0.0,0.0,0.0,0.0,0.0
1.0800000000000007,0.21543099439299845,0.07562264854356404,-0.25,0.3375917375087738,-1.0589142593397582,3.139779856998059,-3.141592653589793,-0.58201869890768,-1.9083880643036706,0.0,0.0,0.0,0.0,0.0,0.0
1.0900000000000007,0.21482283953077888,0.07614459583691344,-0.25,0.34063631296157837,-1.0588896283572051,3.1397728930146354,-3.141592653589793,-0.5820216990979148,-1.911432639756475,0.0,0.0,0.0,0.0,0.0,0.0
1.1000000000000008,0.2142105212187076,0.07666165250516002,-0.25,0.3436775207519531,-1.0588647844390184,3.139765868677806,-3.141592653589793,-0.5820247252247498,-1.91447384754685,0.0,0.0,0.0,0.0,0.0,0.0
1.1100000000000008,0.21359407878484554,0.07717378533872017,-0.25,0.3467152416706085,-1.058839728310037,3.139758784262371,-3.141592653589793,-0.5820277772627228,-1.9175115684655053,0.0,0.0,0.0,0.0,0.0,0.0
1.1200000000000008,0.2129735518221384,0.07768096144425901,-0.25,0.34974950551986694,-1.0588144620586064,3.1397516403237233,-3.141592653589793,-0.5820308549308649,-1.9205458323147635,0.0,0.0,0.0,0.0,0.0,0.0
1.1300000000000008,0.2123489801858734,0.07818314824680299,-0.25,0.35278022289276123,-1.0587889844408398,3.139744436463598,-3.141592653589793,-0.5820339583443355,-1.9235765496876578,0.0,0.0,0.0,0.0,0.0,0.0
1.1400000000000008,0.2117204039911196,0.07868031349183219,-0.25,0.3558073043823242,-1.0587632969685572,3.139737173120775,-3.141592653589793,-0.5820370873319628,-1.926603631177221,0.0,0.0,0.0,0.0,0.0,0.0
1.1500000000000008,0.21108786361015147,0.07917242524735198,-0.25,0.3588307797908783,-1.0587373995299334,3.1397298504180053,-3.141592653589793,-0.5820402420422823,-1.929627106585775,0.0,0.0,0.0,0.0,0.0,0.0
1.1600000000000008,0.21045139966985563,0.07965945190594387,-0.25,0.3618505895137787,-1.0587112926541131,3.139722468309783,-3.141592653589793,-0.5820434222479383,-1.9326469163086755,0.0,0.0,0.0,0.0,0.0,0.0
1.1700000000000008,0.20981105304912162,0.08014136218679567,-0.25,0.3648666441440582,-1.0586849768415014,3.1397150270792817,-3.141592653589793,-0.5820466280121137,-1.9356629709389548,0.0,0.0,0.0,0.0,0.0,0.0
1.1800000000000008,0.20916686487621636,0.08061812513771055,-0.25,0.36787888407707214,-1.058658453398941,3.1397075271447736,-3.141592653589793,-0.5820498592205614,-1.938675210871969,0.0,0.0,0.0,0.0,0.0,0.0
1.1900000000000008,0.2085188765261424,0.0810897101370951,-0.25,0.37088727951049805,-1.0586317222833035,3.1396999681574265,-3.141592653589793,-0.5820531155951012,-1.9416836063053948,0.0,0.0,0.0,0.0,0.0,0.0
1.2000000000000008,0.2078671296179806,0.08155608689592601,-0.25,0.37389180064201355,-1.058604783562819,3.1396923503466887,-3.141592653589793,-0.582056397309971,-1.9446881274369103,0.0,0.0,0.0,0.0,0.0,0.0
1.2100000000000009,0.207211666012217,0.08201722545969559,-0.25,0.3768923282623291,-1.0585776385849002,3.139684674242485,-3.141592653589793,-0.582059704331389,-1.9476886550572259,0.0,0.0,0.0,0.0,0.0,0.0
1.2200000000000009,0.20655252780805414,0.08247309621033556,-0.25,0.3798889219760895,-1.0585502864095844,3.1396769393883996,-3.141592653589793,-0.58206303661494,-1.9506852487709863,0.0,0.0,0.0,0.0,0.0,0.0
1.2300000000000009,0.2058897573407072,0.0829236698681195,-0.25,0.38288137316703796,-1.0585227291121235,3.139669146444138,-3.141592653589793,-0.5820663939733957,-1.9536776999619345,0.0,0.0,0.0,0.0,0.0,0.0
1.2400000000000009,0.20522339717868476,0.08336891749354333,-0.25,0.3858697712421417,-1.0584949670818595,3.1396612953964524,-3.141592653589793,-0.5820697762577344,-1.9566660980370385,0.0,0.0,0.0,0.0,0.0,0.0
1.2500000000000009,0.2045534901210549,0.08380881048918407,-0.25,0.3888539671897888,-1.0584669994296814,3.139653386119873,-3.141592653589793,-0.5820731836871774,-1.9596502939846856,0.0,0.0,0.0,0.0,0.0,0.0
1.260000000000001,0.20388007919469606,0.08424332060153662,-0.25,0.39183393120765686,-1.0584388289869313,3.139645419498885,-3.141592653589793,-0.5820766159917237,-1.9626302580025534,0.0,0.0,0.0,0.0,0.0,0.0
1.270000000000001,0.20320320765153368,0.08467241992282842,-0.25,0.39480966329574585,-1.0584104537869035,3.1396373947062255,-3.141592653589793,-0.5820800731835895,-1.9656059900906426,0.0,0.0,0.0,0.0,0.0,0.0
1.280000000000001,0.20252291896576216,0.0850960808928119,-0.25,0.39778101444244385,-1.058381876370559,3.1396293125255745,-3.141592653589793,-0.5820835550122428,-1.9685773412373406,0.0,0.0,0.0,0.0,0.0,0.0
1.290000000000001,0.20183925683105253,0.08551427630053461,-0.25,0.40074795484542847,-1.058353096283538,3.1396211731373302,-3.141592653589793,-0.5820870617998726,-1.9715442816403252,0.0,0.0,0.0,0.0,0.0,0.0
1.300000000000001,0.2011522651577462,0.08592697928608702,-0.25,0.4037104547023773,-1.0583241150249787,3.1396129764950604,-3.141592653589793,-0.5820905929666016,-1.974506781497274,0.0,0.0,0.0,0.0,0.0,0.0
1.310000000000001,0.2004619880700346,0.08633416334232752,-0.25,0.40666842460632324,-1.0582949313809777,3.139604722593864,-3.141592653589793,-0.5820941489523597,-1.9774647514012198,0.0,0.0,0.0,0.0,0.0,0.0
1.320000000000001,0.19976846990312516,0.08673580231658509,-0.25,0.40962180495262146,-1.0582655482871761,3.139596412060829,-3.141592653589793,-0.5820977292299709,-1.980418131747518,0.0,0.0,0.0,0.0,0.0,0.0
1.330000000000001,0.19907175520039383,0.08713187041233894,-0.25,0.4125705659389496,-1.05823596368419,3.139588044472166,-3.141592653589793,-0.5821013341892525,-1.9833668927338461,0.0,0.0,0.0,0.0,0.0,0.0
1.340000000000001,0.198371888710524,0.08752234219087537,-0.25,0.41551458835601807,-1.058206181126815,3.1395796207593243,-3.141592653589793,-0.5821049633377029,-1.9863109151509148,0.0,0.0,0.0,0.0,0.0,0.0
1.350000000000001,0.19766891538463258,0.08790719257292172,-0.25,0.4184539020061493,-1.0581760014943136,3.1395711274150813,-3.141592653589793,-0.5821086774237167,-1.989250228801046,0.0,0.0,0.0,0.0,0.0,0.0
1.360000000000001,0.1969628803733826,0.08828639684025709,-0.25,0.42138832807540894,-1.0581460176868394,3.139562603717186,-3.141592653589793,-0.582112294776119,-1.9921846548703057,0.0,0.0,0.0,0.0,0.0,0.0
1.370000000000001,0.19625382902408356,0.0886599306373,-0.25,0.4243178367614746,-1.0581156392912998,3.139554011175546,-3.141592653589793,-0.5821159968422269,-1.9951141635563714,0.0,0.0,0.0,0.0,0.0,0.0
1.380000000000001,0.19554180687777864,0.08902776997267267,-0.25,0.4272424280643463,-1.0580850639860468,3.139545362573582,-3.141592653589793,-0.5821197227877342,-1.998038754859243,0.0,0.0,0.0,0.0,0.0,0.0
1.390000000000001,0.19482685966631974,0.08938989122074195,-0.25,0.4301619827747345,-1.0580542907064672,3.1395366579612887,-3.141592653589793,-0.5821234730453392,-2.000958309569631,0.0,0.0,0.0,0.0,0.0,0.0
1.400000000000001,0.1941090333094303,0.08974627112313677,-0.25,0.433076411485672,-1.058023323236121,3.139527898315725,-3.141592653589793,-0.582127247078337,-2.0038727382805686,0.0,0.0,0.0,0.0,0.0,0.0
1.410000000000001,0.19338837391175584,0.09009688679024191,-0.25,0.4359856843948364,-1.0579919627378072,3.1395190699035123,-3.141592653589793,-0.582131105345668,-2.006782011189733,0.0,0.0,0.0,0.0,0.0,0.0
1.420000000000001,0.19266492775990282,0.09044171570266829,-0.25,0.4388897716999054,-1.0579608005348167,3.13951021205151,-3.141592653589793,-0.5821348667723165,-2.009686098494802,0.0,0.0,0.0,0.0,0.0,0.0
1.430000000000001,0.1919387413194657,0.0907807357126992,-0.25,0.4417884647846222,-1.0579292489113072,3.139501286665169,-3.141592653589793,-0.5821387121817724,-2.0125847915795188,0.0,0.0,0.0,0.0,0.0,0.0
1.440000000000001,0.1912098612320426,0.09111392504571295,-0.25,0.4446818232536316,-1.057897503590528,3.139492306197438,-3.141592653589793,-0.5821425811617426,-2.015478150048528,0.0,0.0,0.0,0.0,0.0,0.0
1.450000000000001,0.19047833431223943,0.09144126230158124,-0.25,0.44756969809532166,-1.0578655645299513,3.1394832708980207,-3.141592653589793,-0.5821464739442608,-2.018366024890218,0.0,0.0,0.0,0.0,0.0,0.0
1.460000000000001,0.1897442075446633,0.09176272645604384,-0.25,0.45045211911201477,-1.0578334330013028,3.139474180937837,-3.141592653589793,-0.5821503902172934,-2.0212484459069113,0.0,0.0,0.0,0.0,0.0,0.0
1.470000000000001,0.1890075280809047,0.09207829686205883,-0.25,0.4533289074897766,-1.0576587814533234,3.1394906233063313,-3.141592653589793,-0.5822277843876812,-2.024125234284673,0.0,0.0,0.0,0.0,0.0,0.0
1.480000000000001,0.188268343236509,0.09238795325112868,-0.25,0.45619997382164,-1.0574498905008713,3.1395125121456378,-3.141592653589793,-0.5823222485335062,-2.0269963006165366,0.0,0.0,0.0,0.0,0.0,0.0
1.490000000000001,0.18752670048793746,0.09269167573460219,-0.25,0.459065318107605,-1.0572391290388659,3.1395339005135714,-3.141592653589793,-0.5824169688175962,-2.0298616449025015,0.0,0.0,0.0,0.0,0.0,0.0
1.500000000000001,0.1867826474695179,0.09298944480495176,-0.25,0.46192488074302673,-1.0570277980667093,3.139554692557235,-3.141592653589793,-0.5825113914835627,-2.0327212075379233,0.0,0.0,0.0,0.0,0.0,0.0
1.5100000000000011,0.18603623197038538,0.09328124133702648,-0.25,0.46477845311164856,-1.056814597756393,3.139574956687163,-3.141592653589793,-0.5826060467494634,-2.035574779906545,0.0,0.0,0.0,0.0,0.0,0.0
1.5200000000000011,0.18528750193141258,0.09356704658928033,-0.25,0.46762606501579285,-1.0565999740615748,3.1395946505103787,-3.141592653589793,-0.58270073676721,-2.0384223918106894,0.0,0.0,0.0,0.0,0.0,0.0
1.5300000000000011,0.1845365054421308,0.09384684220497604,-0.25,0.4704676568508148,-1.0563839071655057,3.1396137621237,-3.141592653589793,-0.5827954587306563,-2.0412639836457114,0.0,0.0,0.0,0.0,0.0,0.0
1.5400000000000011,0.1837832907376412,0.09412061021336406,-0.25,0.47330302000045776,-1.0561664173211103,3.139632275599361,-3.141592653589793,-0.5828901918619032,-2.0440993467953543,0.0,0.0,0.0,0.0,0.0,0.0
1.5500000000000012,0.18302790619551673,0.09438833303083677,-0.25,0.47613221406936646,-1.0559474920264762,3.139650177971154,-3.141592653589793,-0.5829849298006615,-2.046928540864263,0.0,0.0,0.0,0.0,0.0,0.0
1.5600000000000012,0.18227040033269504,0.09464999346205788,-0.25,0.4789550304412842,-1.0557271346773547,3.139667454760966,-3.141592653589793,-0.5830796591304842,-2.0497513572361807,0.0,0.0,0.0,0.0,0.0,0.0
1.5700000000000012,0.1815108218023621,0.09490557470106686,-0.25,0.4817714989185333,-1.055505340911001,3.139684092062403,-3.141592653589793,-0.5831743697424963,-2.05256782571343,0.0,0.0,0.0,0.0,0.0,0.0
1.5800000000000012,0.18074921939082758,0.09515506033235833,-0.25,0.48458144068717957,-1.0552821236547043,3.1397000745111274,-3.141592653589793,-0.5832690440108679,-2.055377767482076,0.0,0.0,0.0,0.0,0.0,0.0
1.5900000000000012,0.1799856420143912,0.0953984343319364,-0.25,0.4873847961425781,-1.0550579058566374,3.1397153704323344,-3.141592653589793,-0.5833635015070111,-2.0581811229374747,0.0,0.0,0.0,0.0,0.0,0.0
1.6000000000000012,0.179220138716201,0.0956356810683438,-0.25,0.49018147587776184,-1.0548313843143724,3.1397300190578736,-3.141592653589793,-0.5834582491107589,-2.0609778026726584,0.0,0.0,0.0,0.0,0.0,0.0
1.6100000000000012,0.17845275866310328,0.09586678530366606,-0.25,0.49297139048576355,-1.0546043079074856,3.139743935095323,-3.141592653589793,-0.5835525791568684,-2.06376771728066,0.0,0.0,0.0,0.0,0.0,0.0
1.6200000000000012,0.17768355114248496,0.09609173219450995,-0.25,0.4957544803619385,-1.0543749234955513,3.139757170586103,-3.141592653589793,-0.5836471729113121,-2.066550807156835,0.0,0.0,0.0,0.0,0.0,0.0
1.6300000000000012,0.17691256555910773,0.09631050729295704,-0.25,0.4985305964946747,-1.0541445503895392,3.1397696615598303,-3.141592653589793,-0.5837414968506611,-2.0693269232895712,0.0,0.0,0.0,0.0,0.0,0.0
1.6400000000000012,0.17613985143193484,0.09652309654749155,-0.25,0.5012996792793274,-1.0539127461579945,3.139781409437399,-3.141592653589793,-0.5838357130662599,-2.072096006074224,0.0,0.0,0.0,0.0,0.0,0.0
1.6500000000000012,0.17536545839095077,0.09672948630390293,-0.25,0.5040615797042847,-1.0536795151122682,3.139792398882136,-3.141592653589793,-0.5839298071104874,-2.0748579064991812,0.0,0.0,0.0,0.0,0.0,0.0
1.6600000000000013,0.1745894361739735,0.09692966330616282,-0.25,0.5068162679672241,-1.0581891186650552,3.140572043642212,-3.141592653589793,-0.5829568591090978,-2.0776125947621207,0.0,0.0,0.0,0.0,0.0,0.0
1.6700000000000013,0.17381183462345987,0.09712361469727637,-0.25,0.5095636248588562,-1.0585753209711637,3.140523113387488,-3.141592653589793,-0.5827750823433984,-2.0803599516537528,0.0,0.0,0.0,0.0,0.0,0.0
1.6800000000000013,0.17303270368330442,0.09731132802010822,-0.25,0.5123035311698914,-1.0589492898072077,3.1405806776292167,-3.141592653589793,-0.5826885240660927,-2.083099857964788,0.0,0.0,0.0,0.0,0.0,0.0
1.6900000000000013,0.17225209339563147,0.09749279121818237,-0.25,0.5150359272956848,-1.0593254558617708,3.140640433044961,-3.141592653589793,-0.5826030591982847,-2.0858322540905814,0.0,0.0,0.0,0.0,0.0,0.0
1.7000000000000013,0.1714700538975812,0.0976679926364567,-0.25,0.5177605748176575,-1.0597038250186213,3.140702414579035,-3.141592653589793,-0.5825187161395426,-2.088556901612554,0.0,0.0,0.0,0.0,0.0,0.0
1.7100000000000013,0.17068663541808912,0.09783692102207153,-0.25,0.5204775929450989,-1.0600844069995112,3.140766658355359,-3.141592653589793,-0.5824355229216623,-2.0912739197399954,0.0,0.0,0.0,0.0,0.0,0.0
1.7200000000000013,0.16990188827466027,0.09799956552507232,-0.25,0.5231866836547852,-1.0604671712765246,3.140833194455311,-3.141592653589793,-0.5823535170310632,-2.0939830104496817,0.0,0.0,0.0,0.0,0.0,0.0
1.7300000000000013,0.16911586287013727,0.09815591569910653,-0.25,0.5258877873420715,-1.0608521450434996,3.1409020623644803,-3.141592653589793,-0.5822727230654495,-2.096684114136968,0.0,0.0,0.0,0.0,0.0,0.0
1.7400000000000013,0.168328609689463,0.0983059615020947,-0.25,0.5285807847976685,-1.0612395935050678,3.1409733767876116,-3.141592653589793,-0.5821931435542123,-2.099377111592565,0.0,0.0,0.0,0.0,0.0,0.0
1.7500000000000013,0.16754017929643822,0.09844969329687525,-0.25,0.5312656164169312,-1.0616286564480752,3.141046924629526,-3.141592653589793,-0.582114909267908,-2.1020619432118277,0.0,0.0,0.0,0.0,0.0,0.0
1.7600000000000013,0.16675062233047366,0.0985871018518236,-0.25,0.5339421629905701,-1.062020189148674,3.141122989918424,-3.141592653589793,-0.582037953363365,-2.1047384897854666,0.0,0.0,0.0,0.0,0.0,0.0
1.7700000000000014,0.16595998950333796,0.09871817834144501,-0.25,0.5366102457046509,-1.0624139190389084,3.1412015286236965,-3.141592653589793,-0.5819623379041833,-2.1074065724995474,0.0,0.0,0.0,0.0,0.0,0.0
1.7800000000000014,0.1651683315959001,0.09884291434694153,-0.25,0.539269745349884,-1.0628098245811035,3.141282573693026,-3.141592653589793,-0.5818880996572152,-2.1100660721447806,0.0,0.0,0.0,0.0,0.0,0.0
1.7900000000000014,0.1643756994548682,0.09896130185675259,-0.25,0.5419206619262695,-1.0632079171845934,3.141366164020061,-3.141592653589793,-0.5818152685463027,-2.112716988721166,0.0,0.0,0.0,0.0,0.0,0.0
1.8000000000000014,0.1635821439895235,0.09907333326706967,-0.25,0.5445626974105835,-1.0636081717846704,3.1414523322672743,-3.141592653589793,-0.5817438824043397,-2.11535902420548,0.0,0.0,0.0,0.0,0.0,0.0
1.8100000000000014,0.16278771616845064,0.0991790013823246,-0.25,0.5471958518028259,-1.0640106129648856,3.1415411209021116,-3.141592653589793,-0.5816739694731562,-2.1179921785977225,0.0,0.0,0.0,0.0,0.0,0.0
1.8200000000000014,0.1619924670162641,0.09927829941565186,-0.25,0.5498199462890625,-1.064236091871095,3.1415855244983195,-3.141592653589793,-0.5816302526403928,-2.120616273083959,0.0,0.0,0.0,0.0,0.0,0.0
1.8300000000000014,0.1611964476103308,0.09937122098932427,-0.25,0.5524349212646484,-1.081216116203688,3.1377441039793315,-3.141592653589793,-0.5722145775798599,-2.123231248059545,0.0,0.0,0.0,0.0,0.0,0.0
1.8400000000000014,0.16039970907748982,0.09945776013516279,-0.25,0.5550405383110046,-1.0811732929608748,3.137755219681269,-3.141592653589793,-0.572239525898445,-2.125836865105901,0.0,0.0,0.0,0.0,0.0,0.0
1.8500000000000014,0.1596023025907682,0.09953791129491983,-0.25,0.5576366782188416,-1.0811303472329268,3.137766382032593,-3.141592653589793,-0.5722645583599089,-2.128433005013738,0.0,0.0,0.0,0.0,0.0,0.0
1.8600000000000014,0.15880427936609456,0.09961166932063614,-0.25,0.5602232813835144,-1.0810872829512892,3.137777591140953,-3.141592653589793,-0.5722896736389637,-2.131019608178411,0.0,0.0,0.0,0.0,0.0,0.0
1.8700000000000014,0.15800569065900938,0.09967902947497158,-0.25,0.5628001689910889,-1.0810440987284924,3.1377888468964734,-3.141592653589793,-0.5723148721425304,-2.1335964957859854,0.0,0.0,0.0,0.0,0.0,0.0
1.8800000000000014,0.157206587761373,0.09973998743150929,-0.25,0.5653671622276306,-1.0810008000430518,3.1378001484424605,-3.141592653589793,-0.5723401511627632,-2.136163489022527,0.0,0.0,0.0,0.0,0.0,0.0
1.8900000000000015,0.15640702199807133,0.09979453927503364,-0.25,0.5679242014884949,-1.0809573859749442,3.1378114964108956,-3.141592653589793,-0.5723655115723059,-2.1387205282833914,0.0,0.0,0.0,0.0,0.0,0.0
1.9000000000000015,0.1556070447237192,0.09984268150178166,-0.25,0.5704711079597473,-1.080913859550101,3.137822890375281,-3.141592653589793,-0.5723909519156261,-2.141267434754644,0.0,0.0,0.0,0.0,0.0,0.0
1.9100000000000015,0.1548067073193621,0.09988441101966809,-0.25,0.5730077624320984,-1.0808702228861868,3.137834329635881,-3.141592653589793,-0.5724164708311069,-2.143804089226995,0.0,0.0,0.0,0.0,0.0,0.0
1.9200000000000015,0.15400606118917595,0.09991972514848396,-0.25,0.5755338668823242,-1.0808264766881592,3.137845814168939,-3.141592653589793,-0.5724420680446148,-2.1463301936772208,0.0,0.0,0.0,0.0,0.0,0.0
1.9300000000000015,0.15320515775716556,0.09994862162006879,-0.25,0.5780494809150696,-1.080782624702655,3.137857343916094,-3.141592653589793,-0.5724677421553946,-2.148845807709966,0.0,0.0,0.0,0.0,0.0,0.0
1.9400000000000015,0.15240404846386174,0.0999710985784562,-0.25,0.5805542469024658,-1.0807386688571476,3.1378689182375066,-3.141592653589793,-0.5724934919215806,-2.1513505736973624,0.0,0.0,0.0,0.0,0.0,0.0
1.9500000000000015,0.15160278476301742,0.09998715457999313,-0.25,0.5830481648445129,-1.0806946081675033,3.137880537491762,-3.141592653589793,-0.5725193180051026,-2.1538444916394095,0.0,0.0,0.0,0.0,0.0,0.0
1.9600000000000015,0.1508014181183028,0.09999678859343263,-0.25,0.5855309963226318,-1.0806504475456808,3.1378922009880945,-3.141592653589793,-0.5725452180441165,-2.1563273231175284,0.0,0.0,0.0,0.0,0.0,0.0
1.9700000000000015,0.15000000000000002,0.1,-0.25,0.5880025625228882,-1.080606187419555,3.1379039083473383,-3.141592653589793,-0.5725711915604588,-2.1587988893177847,0.0,0.0,0.0,0.0,0.0,0.0
1.9800000000000015,0.14919858188169727,0.09999678859343263,-0.25,0.5904628038406372,-1.0805618294114279,3.1379156599365317,-3.141592653589793,-0.5725972382831711,-2.1612591306355338,0.0,0.0,0.0,0.0,0.0,0.0
1.9900000000000015,0.14839721523698265,0.09998715457999313,-0.25,0.592911422252655,-1.0805173794064729,3.137927454807569,-3.141592653589793,-0.5726233552792719,-2.1637077490475516,0.0,0.0,0.0,0.0,0.0,0.0
2.0000000000000013,0.14759595153613833,0.0999710985784562,-0.25,0.5953482985496521,-1.080472833662597,3.1379392932960517,-3.141592653589793,-0.5726495441857136,-2.1661446253445487,0.0,0.0,0.0,0.0,0.0,0.0
2.010000000000001,0.1467948422428345,0.09994862162006879,-0.25,0.5977732539176941,-1.08042819649393,3.137951174879957,-3.141592653589793,-0.5726758030004332,-2.1685695807125906,0.0,0.0,0.0,0.0,0.0,0.0
2.020000000000001,0.14599393881082412,0.09991972514848396,-0.25,0.6001861095428467,-1.0803834705160025,3.1379630994405456,-3.141592653589793,-0.572702130678798,-2.1709824363377432,0.0,0.0,0.0,0.0,0.0,0.0
2.0300000000000007,0.14519329268063796,0.09988441101966809,-0.25,0.6025866866111755,-1.0803386580214358,3.137975066013418,-3.141592653589793,-0.572728525569589,-2.173383013406072,0.0,0.0,0.0,0.0,0.0,0.0
2.0400000000000005,0.14439295527628085,0.09984268150178166,-0.25,0.6049748063087463,-1.080293759692541,3.1379870753576817,-3.141592653589793,-0.5727549880759824,-2.175771133103643,0.0,0.0,0.0,0.0,0.0,0.0
2.0500000000000003,0.14359297800192874,0.09979453927503364,-0.25,0.60735023021698,-1.0802487796156264,3.1379991265139715,-3.141592653589793,-0.5727815159040468,-2.1781465570118765,0.0,0.0,0.0,0.0,0.0,0.0
2.06,0.14279341223862707,0.09973998743150929,-0.25,0.6097128391265869,-1.08020371742621,3.13801121950317,-3.141592653589793,-0.5728081092033254,-2.1805091659214835,0.0,0.0,0.0,0.0,0.0,0.0
2.07,0.1419943093409907,0.09967902947497158,-0.25,0.612062394618988,-1.0801585764122077,3.1380233541119047,-3.141592653589793,-0.5728347666056377,-2.1828587214138846,0.0,0.0,0.0,0.0,0.0,0.0
2.0799999999999996,0.1411957206339055,0.09961166932063614,-0.25,0.614398717880249,-1.0801131554609213,3.1380355422969277,-3.141592653589793,-0.5728615708772917,-2.1851950446751456,0.0,0.0,0.0,0.0,0.0,0.0
2.0899999999999994,0.14039769740923186,0.09953791129491983,-0.25,0.616721510887146,-1.080068064981548,3.1380477467813215,-3.141592653589793,-0.5728882699668508,-2.1875178376820426,0.0,0.0,0.0,0.0,0.0,0.0
2.099999999999999,0.13960029092251025,0.09945776013516279,-0.25,0.6190306544303894,-1.0800226987227468,3.138060004251928,-3.141592653589793,-0.5729151139218117,-2.189826981225286,0.0,0.0,0.0,0.0,0.0,0.0
2.109999999999999,0.13880355238966924,0.09937122098932427,-0.25,0.6213259696960449,-1.0799772634793392,3.1380723020423336,-3.141592653589793,-0.5729420173198388,-2.1921222964909415,0.0,0.0,0.0,0.0,0.0,0.0
2.1199999999999988,0.138007532983736,0.09927829941565186,-0.25,0.6236071586608887,-1.0799317566024964,3.138084639944312,-3.141592653589793,-0.5729689809385233,-2.1944034854557852,0.0,0.0,0.0,0.0,0.0,0.0
2.1299999999999986,0.13721228383154943,0.09917900138232462,-0.25,0.6258740425109863,-1.0798863859156391,3.138097005730131,-3.141592653589793,-0.5729959193566461,-2.196670369305883,0.0,0.0,0.0,0.0,0.0,0.0
2.1399999999999983,0.1364178560104766,0.09907333326706967,-0.25,0.6281264424324036,-1.0798405474742143,3.1381094353188352,-3.141592653589793,-0.5730230811416552,-2.1989227692273,0.0,0.0,0.0,0.0,0.0,0.0
2.149999999999998,0.1356243005451319,0.0989613018567526,-0.25,0.630363941192627,-1.0797950514413728,3.138121879696037,-3.141592653589793,-0.5730501321408946,-2.2011602679875235,0.0,0.0,0.0,0.0,0.0,0.0
2.159999999999998,0.13483166840409996,0.09884291434694153,-0.25,0.6325865387916565,-1.0797490905263682,3.1381343876887406,-3.141592653589793,-0.5730774053130876,-2.203382865586553,0.0,0.0,0.0,0.0,0.0,0.0
2.1699999999999977,0.13404001049666212,0.09871817834144503,-0.25,0.6347939372062683,-1.0797032739018082,3.1381469218045677,-3.141592653589793,-0.5731046488564657,-2.205590264001165,0.0,0.0,0.0,0.0,0.0,0.0
2.1799999999999975,0.13324937766952638,0.0985871018518236,-0.25,0.6369857788085938,-1.079657400131346,3.138159494507173,-3.141592653589793,-0.5731319460912828,-2.2077821056034903,0.0,0.0,0.0,0.0,0.0,0.0
2.1899999999999973,0.13245982070356188,0.09844969329687525,-0.25,0.6391618847846985,-1.0796114733621227,3.1381721051307547,-3.141592653589793,-0.5731592949523059,-2.209958211579595,0.0,0.0,0.0,0.0,0.0,0.0
2.199999999999997,0.13167139031053707,0.0983059615020947,-0.25,0.6413220763206482,-1.0795654951606952,3.1381847537718404,-3.141592653589793,-0.5731866949569266,-2.2121184031155448,0.0,0.0,0.0,0.0,0.0,0.0
2.209999999999997,0.1308841371298628,0.09815591569910653,-0.25,0.6434659361839294,-1.0795194673309947,3.1381974393838608,-3.141592653589793,-0.5732141445596386,-2.214262262978826,0.0,0.0,0.0,0.0,0.0,0.0
2.2199999999999966,0.1300981117253398,0.09799956552507233,-0.25,0.6455934047698975,-1.0794733913869372,3.138210162640446,-3.141592653589793,-0.5732416437901642,-2.216389731564794,0.0,0.0,0.0,0.0,0.0,0.0
2.2299999999999964,0.12931336458191095,0.09783692102207153,-0.25,0.647704005241394,-1.079427271005482,3.1382229223430222,-3.141592653589793,-0.5732691902973107,-2.2185003320362906,0.0,0.0,0.0,0.0,0.0,0.0
2.239999999999996,0.1285299461024189,0.09766799263645672,-0.25,0.6497976183891296,-1.079381109770587,3.1382357185855376,-3.141592653589793,-0.5732967828683858,-2.220593945184026,0.0,0.0,0.0,0.0,0.0,0.0
2.249999999999996,0.12774790660436858,0.09749279121818237,-0.25,0.6518738865852356,-1.0793349062126243,3.1382485510970284,-3.141592653589793,-0.573324421801839,-2.222670213380132,0.0,0.0,0.0,0.0,0.0,0.0
2.259999999999996,0.12696729631669568,0.09731132802010822,-0.25,0.6539325714111328,-1.0792886631837515,3.138261419330423,-3.141592653589793,-0.5733521056009444,-2.2247288982060294,0.0,0.0,0.0,0.0,0.0,0.0
2.2699999999999956,0.1261881653765402,0.09712361469727639,-0.25,0.6559733748435974,-1.0792423863498346,3.1382743233131585,-3.141592653589793,-0.5733798322449917,-2.226769701638494,0.0,0.0,0.0,0.0,0.0,0.0
2.2799999999999954,0.12541056382602658,0.09692966330616282,-0.25,0.6579959392547607,-1.0791960740836686,3.1382872622763607,-3.141592653589793,-0.5734076016635865,-2.2287922660496573,0.0,0.0,0.0,0.0,0.0,0.0
2.289999999999995,0.1246345416090493,0.09672948630390295,-0.25,0.6600000262260437,-1.0791497313652005,3.1383002359672236,-3.141592653589793,-0.5734354118438432,-2.2307963530209403,0.0,0.0,0.0,0.0,0.0,0.0
2.299999999999995,0.12386014856806524,0.09652309654749157,-0.25,0.6619853377342224,-1.0791033592365586,3.1383132441859267,-3.141592653589793,-0.5734632622387955,-2.232781664529119,0.0,0.0,0.0,0.0,0.0,0.0
2.3099999999999947,0.12308743444089236,0.09631050729295705,-0.25,0.6639514565467834,-1.0790569586223278,3.138326286703066,-3.141592653589793,-0.5734911523185865,-2.23474778334168,0.0,0.0,0.0,0.0,0.0,0.0
2.3199999999999945,0.12231644885751511,0.09609173219450996,-0.25,0.6658982038497925,-1.0790105345359375,3.138339362613582,-3.141592653589793,-0.5735190795005641,-2.236694530644689,0.0,0.0,0.0,0.0,0.0,0.0
2.3299999999999943,0.12154724133689679,0.09586678530366607,-0.25,0.6678251624107361,-1.0789640878589921,3.1383524723488705,-3.141592653589793,-0.5735470438352246,-2.2386214892056326,0.0,0.0,0.0,0.0,0.0,0.0
2.339999999999994,0.1207798612837991,0.09563568106834382,-0.25,0.6697320342063904,-1.078917621442045,3.1383656148911125,-3.141592653589793,-0.5735750434237975,-2.2405283610012874,0.0,0.0,0.0,0.0,0.0,0.0
2.349999999999994,0.12001435798560887,0.0953984343319364,-0.25,0.6716184616088867,-1.078871137368381,3.1383787902505613,-3.141592653589793,-0.5736030775231695,-2.2424147884037833,0.0,0.0,0.0,0.0,0.0,0.0
2.3599999999999937,0.11925078060917249,0.09515506033235835,-0.25,0.6734840273857117,-1.0788246369922234,3.1383919977740824,-3.141592653589793,-0.5736311450861515,-2.2442803541806087,0.0,0.0,0.0,0.0,0.0,0.0
2.3699999999999934,0.11848917819763796,0.09490557470106688,-0.25,0.6753285527229309,-1.0787781246720627,3.1384052373203346,-3.141592653589793,-0.5736592444191084,-2.2461248795178275,0.0,0.0,0.0,0.0,0.0,0.0
2.3799999999999932,0.11772959966730506,0.0946499934620579,-0.25,0.6771514415740967,-1.0787316003282026,3.1384185083594325,-3.141592653589793,-0.573687375097526,-2.2479477683689932,0.0,0.0,0.0,0.0,0.0,0.0
2.389999999999993,0.11697209380448334,0.09438833303083677,-0.25,0.6789525151252747,-1.0786850690080918,3.1384318105819897,-3.141592653589793,-0.5737155350354848,-2.249748841920171,0.0,0.0,0.0,0.0,0.0,0.0
2.399999999999993,0.11621670926235886,0.09412061021336406,-0.25,0.6807312369346619,-1.0786385323175427,3.1384451437096494,-3.141592653589793,-0.5737437234153062,-2.2515275637295584,0.0,0.0,0.0,0.0,0.0,0.0
2.4099999999999926,0.11546349455786928,0.09384684220497605,-0.25,0.6824873685836792,-1.0785919907345214,3.1384585070414577,-3.141592653589793,-0.5737719394649936,-2.2532836953785758,0.0,0.0,0.0,0.0,0.0,0.0
2.4199999999999924,0.11471249806858749,0.09356704658928033,-0.25,0.6842204332351685,-1.0785454481696366,3.13847190035162,-3.141592653589793,-0.573800181580181,-2.255016760030065,0.0,0.0,0.0,0.0,0.0,0.0
2.429999999999992,0.11396376802961469,0.09328124133702649,-0.25,0.6859300136566162,-1.0784989078073242,3.1384853232121444,-3.141592653589793,-0.5738284482456343,-2.2567263404515128,0.0,0.0,0.0,0.0,0.0,0.0
2.439999999999992,0.11321735253048218,0.09298944480495178,-0.25,0.6876157522201538,-1.0784523707983276,3.138498775141839,-3.141592653589793,-0.5738567386344117,-2.2584120790150504,0.0,0.0,0.0,0.0,0.0,0.0
2.4499999999999917,0.11247329951206264,0.09269167573460219,-0.25,0.689277172088623,-1.0784058400380694,3.138512255889964,-3.141592653589793,-0.5738850514870361,-2.2600734988835196,0.0,0.0,0.0,0.0,0.0,0.0
2.4599999999999915,0.11173165676349106,0.0923879532511287,-0.25,0.6909137964248657,-1.0783591191523154,3.1385257772360706,-3.141592653589793,-0.5739134677295602,-2.2617101232197623,0.0,0.0,0.0,0.0,0.0,0.0
2.4699999999999913,0.11099247191909534,0.09207829686205883,-0.25,0.692525327205658,-1.078312806795438,3.138539301755353,-3.141592653589793,-0.5739417393595617,-2.2633216540005545,0.0,0.0,0.0,0.0,0.0,0.0
2.479999999999991,0.11025579245533676,0.09176272645604387,-0.25,0.694111168384552,-1.0782661103771822,3.1385528780261893,-3.141592653589793,-0.5739701938912171,-2.2649074951794486,0.0,0.0,0.0,0.0,0.0,0.0
2.489999999999991,0.10952166568776064,0.09144126230158126,-0.25,0.6956709027290344,-1.0782198282852562,3.1385664573136474,-3.141592653589793,-0.573998501581475,-2.266467229523931,0.0,0.0,0.0,0.0,0.0,0.0
2.4999999999999907,0.10879013876795748,0.09111392504571296,-0.25,0.697204053401947,-1.0781733659977188,3.138580074861144,-3.141592653589793,-0.5740269070793607,-2.2680003801968436,0.0,0.0,0.0,0.0,0.0,0.0
2.5099999999999905,0.10806125868053434,0.09078073571269922,-0.25,0.6987101435661316,-1.0781269251397774,3.1385937186482344,-3.141592653589793,-0.5740553273561347,-2.269506470361028,0.0,0.0,0.0,0.0,0.0,0.0
2.5199999999999902,0.10733507224009725,0.0904417157026683,-0.25,0.7001886963844299,-1.0780805073897994,3.138607387770442,-3.141592653589793,-0.5740837610325107,-2.2709850231793265,0.0,0.0,0.0,0.0,0.0,0.0
2.52999999999999,0.1066116260882442,0.09009688679024191,-0.25,0.7016391754150391,-1.0780341162985057,3.1386210825698377,-3.141592653589793,-0.5741122071190806,-2.2724355022099356,0.0,0.0,0.0,0.0,0.0,0.0
2.53999999999999,0.10589096669056978,0.08974627112313678,-0.25,0.7030611038208008,-1.07798775366237,3.1386348012860434,-3.141592653589793,-0.5741406634622997,-2.2738574306156973,0.0,0.0,0.0,0.0,0.0,0.0
2.5499999999999896,0.10517314033368033,0.08938989122074197,-0.25,0.7044538855552673,-1.0779416213489181,3.138648532328581,-3.141592653589793,-0.5741690473095954,-2.275250212350164,0.0,0.0,0.0,0.0,0.0,0.0
2.5599999999999894,0.10445819312222146,0.0890277699726727,-0.25,0.7058170437812805,-1.0778951259712368,3.138662311313338,-3.141592653589793,-0.574197603230144,-2.276613370576177,0.0,0.0,0.0,0.0,0.0,0.0
2.569999999999989,0.10374617097591651,0.08865993063730002,-0.25,0.7071499228477478,-1.0778488665728005,3.138676101238712,-3.141592653589793,-0.5742260834278972,-2.2779462496426444,0.0,0.0,0.0,0.0,0.0,0.0
2.579999999999989,0.10303711962661745,0.0882863968402571,-0.25,0.7084521055221558,-1.0778026456012917,3.138689913809431,-3.141592653589793,-0.5742545691947353,-2.2792484323170528,0.0,0.0,0.0,0.0,0.0,0.0
2.5899999999999888,0.1023310846153675,0.08790719257292173,-0.25,0.7097228169441223,-1.0777564668074913,3.1387037482779387,-3.141592653589793,-0.5742830585375281,-2.280519143739019,0.0,0.0,0.0,0.0,0.0,0.0
2.5999999999999885,0.10162811128947605,0.08752234219087537,-0.25,0.710961639881134,-1.0777103318520744,3.1387176043293348,-3.141592653589793,-0.5743115505871808,-2.2817579666760306,0.0,0.0,0.0,0.0,0.0,0.0
2.6099999999999883,0.10092824479960627,0.08713187041233895,-0.25,0.7121678590774536,-1.0776642456190402,3.1387314812388656,-3.141592653589793,-0.5743400429610581,-2.28296418587235,0.0,0.0,0.0,0.0,0.0,0.0
2.619999999999988,0.10023153009687491,0.0867358023165851,-0.25,0.7133408784866333,-1.077618208136995,3.1387453788526383,-3.141592653589793,-0.5743685355166095,-2.28413720528153,0.0,0.0,0.0,0.0,0.0,0.0
2.629999999999988,0.0995380119299655,0.08633416334232755,-0.25,0.7144800424575806,-1.0775722229077385,3.138759296340698,-3.141592653589793,-0.5743970262800344,-2.285276369252477,0.0,0.0,0.0,0.0,0.0,0.0
2.6399999999999877,0.09884773484225387,0.08592697928608703,-0.25,0.7155847549438477,-1.0775262945611495,3.138773233088422,-3.141592653589793,-0.5744255130544561,-2.286381081738744,0.0,0.0,0.0,0.0,0.0,0.0
2.6499999999999875,0.09816074316894752,0.08551427630053463,-0.25,0.7166542410850525,-1.0774804231957074,3.1387871883444074,-3.141592653589793,-0.5744539951613571,-2.287450567879949,0.0,0.0,0.0,0.0,0.0,0.0
2.6599999999999873,0.09747708103423791,0.08509608089281191,-0.25,0.7176879644393921,-1.0774346125239997,3.1388011617957936,-3.141592653589793,-0.5744824709927775,-2.2884842912342886,0.0,0.0,0.0,0.0,0.0,0.0
2.669999999999987,0.09679679234846637,0.08467241992282842,-0.25,0.7186850309371948,-1.0773888655211987,3.1388151528562176,-3.141592653589793,-0.5745109389730816,-2.2894813577320914,0.0,0.0,0.0,0.0,0.0,0.0
2.679999999999987,0.09611992080530402,0.08424332060153664,-0.25,0.7196448445320129,-1.077343184671161,3.138829160897245,-3.141592653589793,-0.5745393976679656,-2.2904411713269095,0.0,0.0,0.0,0.0,0.0,0.0
2.6899999999999866,0.09544650987894518,0.08380881048918408,-0.25,0.7205666303634644,-1.0772975733052483,3.1388431850217913,-3.141592653589793,-0.5745678451076288,-2.291362957158361,0.0,0.0,0.0,0.0,0.0,0.0
2.6999999999999864,0.09477660282131531,0.08336891749354336,-0.25,0.7214497327804565,-1.0772520339337888,3.138857224875805,-3.141592653589793,-0.574596280082695,-2.292246059575353,0.0,0.0,0.0,0.0,0.0,0.0
2.709999999999986,0.09411024265929288,0.08292366986811953,-0.25,0.7222931981086731,-1.0772065695271174,3.138871279756616,-3.141592653589793,-0.574624700919782,-2.2930895249035697,0.0,0.0,0.0,0.0,0.0,0.0
2.719999999999986,0.09344747219194591,0.08247309621033558,-0.25,0.7230963706970215,-1.0771611822229197,3.1388853489028197,-3.141592653589793,-0.5746531061957977,-2.293892697491918,0.0,0.0,0.0,0.0,0.0,0.0
2.7299999999999858,0.09278833398778308,0.0820172254596956,-0.25,0.7238583564758301,-1.0771158762474506,3.138899431866511,-3.141592653589793,-0.5746814940018057,-2.2946546832707266,0.0,0.0,0.0,0.0,0.0,0.0
2.7399999999999856,0.09213287038201945,0.08155608689592603,-0.25,0.724578320980072,-1.0770708487209362,3.1389135150520104,-3.141592653589793,-0.5747097815742227,-2.295374647774969,0.0,0.0,0.0,0.0,0.0,0.0
2.7499999999999853,0.09148112347385767,0.08108971013709512,-0.25,0.7252554297447205,-1.0770255161336255,3.1389276353927222,-3.141592653589793,-0.5747382110732326,-2.296051756539617,0.0,0.0,0.0,0.0,0.0,0.0
2.759999999999985,0.0908331351237837,0.08061812513771056,-0.25,0.7258888483047485,-1.0769804686113424,3.1389417550880925,-3.141592653589793,-0.5747665372079528,-2.296685175099645,0.0,0.0,0.0,0.0,0.0,0.0
2.769999999999985,0.09018894695087845,0.0801413621867957,-0.25,0.7264776229858398,-1.0769355126637379,3.138955885216051,-3.141592653589793,-0.5747948392782668,-2.2972739497807364,0.0,0.0,0.0,0.0,0.0,0.0
2.7799999999999847,0.08954860033014445,0.07965945190594388,-0.25,0.7270208597183228,-1.0768906533022395,3.138970025881724,-3.141592653589793,-0.5748231155644019,-2.2978171865132193,0.0,0.0,0.0,0.0,0.0,0.0
2.7899999999999845,0.0889121363898486,0.07917242524735198,-0.25,0.7275176048278809,-1.076845890770489,3.138984175625934,-3.141592653589793,-0.5748513647303803,-2.2983139316227774,0.0,0.0,0.0,0.0,0.0,0.0
2.7999999999999843,0.08827959600888047,0.07868031349183222,-0.25,0.727966845035553,-1.076801229985378,3.1389983337315037,-3.141592653589793,-0.574879584387709,-2.2987631718304495,0.0,0.0,0.0,0.0,0.0,0.0
2.809999999999984,0.08765101981412668,0.078183148246803,-0.25,0.7283676862716675,-1.0767564777879777,3.1390125120619814,-3.141592653589793,-0.5749078543914995,-2.299164013066564,0.0,0.0,0.0,0.0,0.0,0.0
2.819999999999984,0.08702644817786168,0.07768096144425903,-0.25,0.7287189960479736,-1.0767122224540486,3.1390266726738947,-3.141592653589793,-0.5749359299859704,-2.29951532284287,0.0,0.0,0.0,0.0,0.0,0.0
2.8299999999999836,0.08640592121515452,0.0771737853387202,-0.25,0.729019820690155,-1.076667883988046,3.1390408516339647,-3.141592653589793,-0.5749640513324189,-2.299816147485052,0.0,0.0,0.0,0.0,0.0,0.0
2.8399999999999834,0.0857894787812925,0.07666165250516005,-0.25,0.7292690277099609,-1.0766234639483336,3.1390550482793493,-3.141592653589793,-0.5749922173023396,-2.300065354504858,0.0,0.0,0.0,0.0,0.0,0.0
2.849999999999983,0.0851771604692212,0.07614459583691346,-0.25,0.7294656038284302,-1.0765795492523242,3.1390692244386127,-3.141592653589793,-0.5750201834310161,-2.3002619306233267,0.0,0.0,0.0,0.0,0.0,0.0
2.859999999999983,0.0845690056070016,0.07562264854356404,-0.25,0.7296082973480225,-1.076535365687512,3.139083429016699,-3.141592653589793,-0.5750482709573475,-2.300404624142919,0.0,0.0,0.0,0.0,0.0,0.0
2.869999999999983,0.0839650532552841,0.07509584414881115,-0.25,0.7296960353851318,-1.0764916941339013,3.1390976114374034,-3.141592653589793,-0.5750761548036216,-2.3004923621800284,0.0,0.0,0.0,0.0,0.0,0.0
2.8799999999999826,0.08336534220479963,0.07456421648831657,-0.25,0.729727566242218,-1.076447952875796,3.1391118079861045,-3.141592653589793,-0.5751040759459887,-2.3005238930371146,0.0,0.0,0.0,0.0,0.0,0.0
2.8899999999999824,0.08276991097386836,0.07402779970753158,-0.25,0.7297017574310303,-1.076404341881343,3.139126005164366,-3.141592653589793,-0.5751319506699897,-2.300498084225927,0.0,0.0,0.0,0.0,0.0,0.0
2.899999999999982,0.08217879780592555,0.07348662825950357,-0.25,0.7296172380447388,-1.0763608647782377,3.13914020219943,-3.141592653589793,-0.5751597770047381,-2.3004135648396353,0.0,0.0,0.0,0.0,0.0,0.0
2.909999999999982,0.08159204066706545,0.07294073690266345,-0.25,0.7294729351997375,-1.0763175220325252,3.139154398044351,-3.141592653589793,-0.5751875538862166,-2.300269261994634,0.0,0.0,0.0,0.0,0.0,0.0
2.9199999999999817,0.08100967724360256,0.07239016069859291,-0.25,0.7292672991752625,-1.076274318757367,3.1391685916086427,-3.141592653589793,-0.5752152785357963,-2.300063625970159,0.0,0.0,0.0,0.0,0.0,0.0
2.9299999999999815,0.08043174493965138,0.07183493500977277,-0.25,0.728999137878418,-1.076231451602082,3.1391827696402643,-3.141592653589793,-0.5752428686442308,-2.299795464673315,0.0,0.0,0.0,0.0,0.0,0.0
2.9399999999999813,0.07985828087472388,0.07127509549731148,-0.25,0.7286669611930847,-1.0761883441924276,3.1391969681476333,-3.141592653589793,-0.5752705630325701,-2.2994632879879813,0.0,0.0,0.0,0.0,0.0,0.0
2.949999999999981,0.07928932188134527,0.07071067811865477,-0.25,0.7282694578170776,-1.076145579415746,3.1392111488585535,-3.141592653589793,-0.5752981185919657,-2.299065784611974,0.0,0.0,0.0,0.0,0.0,0.0
2.959999999999981,0.07872490450268858,0.07014171912527618,-0.25,0.7278050184249878,-1.0761029679312948,3.139225323191356,-3.141592653589793,-0.5753256134242705,-2.2986013452198844,0.0,0.0,0.0,0.0,0.0,0.0
2.9699999999999807,0.07816506499022727,0.06956825506034865,-0.25,0.7272723317146301,-1.076060512156511,3.139239490039582,-3.141592653589793,-0.5753530457101809,-2.2980686585095267,0.0,0.0,0.0,0.0,0.0,0.0
2.9799999999999804,0.07760983930140715,0.06899032275639752,-0.25,0.7266696691513062,-1.0760182166759087,3.1392536480755187,-3.141592653589793,-0.5753804126590517,-2.2974659959462027,0.0,0.0,0.0,0.0,0.0,0.0
2.9899999999999802,0.07705926309733661,0.06840795933293463,-0.25,0.7259956002235413,-1.075976084391197,3.1392677960678324,-3.141592653589793,-0.5754077121700353,-2.296791927018438,0.0,0.0,0.0,0.0,0.0,0.0
2.99999999999998,0.07651337174049645,0.06782120219407449,-0.25,0.7252484560012817,-1.075934120735134,3.1392819331302046,-3.141592653589793,-0.575434941523469,-2.2960447827961783,0.0,0.0,0.0,0.0,0.0,0.0
3.00999999999998,0.07597220029246848,0.0672300890261317,-0.25,0.7244265675544739,-1.0758923263737739,3.1392960577827953,-3.141592653589793,-0.575462099213136,-2.2952228943493704,0.0,0.0,0.0,0.0,0.0,0.0
3.0199999999999796,0.07543578351168347,0.0666346577952004,-0.25,0.7235282063484192,-1.0758507063094118,3.1393101688576532,-3.141592653589793,-0.5754891824340602,-2.2943245331433157,0.0,0.0,0.0,0.0,0.0,0.0
3.0299999999999794,0.07490415585118892,0.06603494674471597,-0.25,0.7225516438484192,-1.0758092663057486,3.1393242647931068,-3.141592653589793,-0.5755161877699195,-2.2933479706433157,0.0,0.0,0.0,0.0,0.0,0.0
3.039999999999979,0.07437735145643598,0.06543099439299845,-0.25,0.7214951515197754,-1.0757680060068644,3.139338344656954,-3.141592653589793,-0.5755431145514085,-2.292291478314672,0.0,0.0,0.0,0.0,0.0,0.0
3.049999999999979,0.0738554041630866,0.06482283953077887,-0.25,0.7203567624092102,-1.0757269320108733,3.139352406685468,-3.141592653589793,-0.5755699588883051,-2.2911530892041068,0.0,0.0,0.0,0.0,0.0,0.0
3.0599999999999787,0.07333834749484001,0.06421052121870756,-0.25,0.7191346883773804,-1.075686048183167,3.139366449919933,-3.141592653589793,-0.5755967185647868,-2.2899310151722774,0.0,0.0,0.0,0.0,0.0,0.0
3.0699999999999785,0.07282621466127984,0.06359407878484552,-0.25,0.7178270220756531,-1.075645358633885,3.1393804725330217,-3.141592653589793,-0.5756233905343794,-2.2886233488705496,0.0,0.0,0.0,0.0,0.0,0.0
3.0799999999999783,0.07231903855574102,0.06297355182213839,-0.25,0.7164316177368164,-1.075604865399006,3.139394473197015,-3.141592653589793,-0.5756499729263177,-2.287227944531713,0.0,0.0,0.0,0.0,0.0,0.0
3.089999999999978,0.07181685175319705,0.062348980185873364,-0.25,0.7149465084075928,-1.0755645756710717,3.1394084505333524,-3.141592653589793,-0.5756764619648755,-2.2857428352024893,0.0,0.0,0.0,0.0,0.0,0.0
3.099999999999978,0.07131968650816785,0.0617204039911196,-0.25,0.7133697271347046,-1.075524297546993,3.139422415035021,-3.141592653589793,-0.5757029358932426,-2.284166053929601,0.0,0.0,0.0,0.0,0.0,0.0
3.1099999999999777,0.07082757475264806,0.06108786361015144,-0.25,0.7116989493370056,-1.0754846134075944,3.1394363282112767,-3.141592653589793,-0.5757291515767321,-2.282495276131902,0.0,0.0,0.0,0.0,0.0,0.0
3.1199999999999775,0.07034054809405617,0.060451399669855625,-0.25,0.7099319696426392,-1.075444951783858,3.139450225531329,-3.141592653589793,-0.5757553456264206,-2.2807282964375357,0.0,0.0,0.0,0.0,0.0,0.0
3.1299999999999772,0.06985863781320437,0.05981105304912161,-0.25,0.7080666422843933,-1.0754055079571003,3.1394640929643494,-3.141592653589793,-0.5757814355539211,-2.27886296907929,0.0,0.0,0.0,0.0,0.0,0.0
3.139999999999977,0.06938187486228947,0.059166864876216335,-0.25,0.7061006426811218,-1.0753662876632433,3.139477928881977,-3.141592653589793,-0.5758074178958172,-2.2768969694760184,0.0,0.0,0.0,0.0,0.0,0.0
3.149999999999977,0.06891028986290493,0.0585188765261424,-0.25,0.7040315866470337,-1.0753272934757874,3.1394917311887642,-3.141592653589793,-0.5758332899312101,-2.2748279134419302,0.0,0.0,0.0,0.0,0.0,0.0
3.1599999999999766,0.068443913104074,0.05786712961798059,-0.25,0.7018570303916931,-1.0752885303391775,3.1395054983919195,-3.141592653589793,-0.5758590485982565,-2.2726533571865897,0.0,0.0,0.0,0.0,0.0,0.0
3.1699999999999764,0.06798277454030445,0.05721166601221699,-0.25,0.6995744705200195,-1.0752500027713712,3.1395192284216744,-3.141592653589793,-0.5758846904960234,-2.270370797314916,0.0,0.0,0.0,0.0,0.0,0.0
3.179999999999976,0.06752690378966446,0.05655252780805412,-0.25,0.6971813440322876,-1.0752117159763799,3.1395329195035284,-3.141592653589793,-0.5759102122282109,-2.267977670827184,0.0,0.0,0.0,0.0,0.0,0.0
3.189999999999976,0.06707633013188054,0.0558897573407072,-0.25,0.6946750283241272,-1.075173673934442,3.139546569687658,-3.141592653589793,-0.5759356106905003,-2.2654713551190238,0.0,0.0,0.0,0.0,0.0,0.0
3.1999999999999758,0.0666310825064567,0.055223397178684755,-0.25,0.6920529007911682,-1.075135882322673,3.1395601767544274,-3.141592653589793,-0.5759608819353973,-2.2628492275860648,0.0,0.0,0.0,0.0,0.0,0.0
3.2099999999999755,0.06619118951081598,0.054553490121054905,-0.25,0.6893122792243958,-1.0750983433501915,3.139573738697404,-3.141592653589793,-0.5759860234496271,-2.2601086060192923,0.0,0.0,0.0,0.0,0.0,0.0
3.2199999999999753,0.06575667939846341,0.053880079194696055,-0.25,0.686450183391571,-1.0750610645068512,3.139587253451273,-3.141592653589793,-0.5760110307631164,-2.2572465101864676,0.0,0.0,0.0,0.0,0.0,0.0
3.229999999999975,0.0653275800771716,0.05320320765153367,-0.25,0.6834638714790344,-1.0750240512796427,3.139600719083779,-3.141592653589793,-0.5760359002425656,-2.254260198273931,0.0,0.0,0.0,0.0,0.0,0.0
3.239999999999975,0.06490391910718814,0.05252291896576216,-0.25,0.6803504228591919,-1.074987306174684,3.1396141326603875,-3.141592653589793,-0.5760606284743988,-2.2511467496540885,0.0,0.0,0.0,0.0,0.0,0.0
3.2499999999999747,0.06448572369946541,0.05183925683105252,-0.25,0.6771067976951599,-1.07495083512163,3.1396274925171745,-3.141592653589793,-0.5760852118947981,-2.2479031244900565,0.0,0.0,0.0,0.0,0.0,0.0
3.2599999999999745,0.06407302071391302,0.051152265157746214,-0.25,0.6737299561500549,-1.074914832528055,3.1396407835147535,-3.141592653589793,-0.5761095673776127,-2.2445262829449515,0.0,0.0,0.0,0.0,0.0,0.0
3.2699999999999743,0.0636658366576725,0.05046198807003458,-0.25,0.6702167391777039,-1.0748787383277723,3.139654040634211,-3.141592653589793,-0.5761339270176858,-2.2410130659726004,0.0,0.0,0.0,0.0,0.0,0.0
3.279999999999974,0.06326419768341496,0.049768469903125175,-0.25,0.6665639877319336,-1.0748431216439762,3.1396672238610925,-3.141592653589793,-0.5761580511468672,-2.23736031452683,0.0,0.0,0.0,0.0,0.0,0.0
3.289999999999974,0.0628681295876611,0.049071755200393814,-0.25,0.6627684831619263,-1.0748078019293903,3.1396803432795686,-3.141592653589793,-0.5761820135651583,-2.233564809956823,0.0,0.0,0.0,0.0,0.0,0.0
3.2999999999999736,0.06247765780912465,0.04837188871052399,-0.25,0.6588269472122192,-1.0747727829584672,3.1396933960733264,-3.141592653589793,-0.5762058105021177,-2.229623274007116,0.0,0.0,0.0,0.0,0.0,0.0
3.3099999999999734,0.06209280742707832,0.047668915384632575,-0.25,0.6547359228134155,-1.0747380712047505,3.139706379640632,-3.141592653589793,-0.5762294373961828,-2.225532249608312,0.0,0.0,0.0,0.0,0.0,0.0
3.319999999999973,0.06171360315974293,0.04696288037338259,-0.25,0.6504920125007629,-1.0747034838546465,3.139719303427974,-3.141592653589793,-0.5762529683226283,-2.2212883392956595,0.0,0.0,0.0,0.0,0.0,0.0
3.329999999999973,0.061340069362700034,0.046253829024083565,-0.25,0.6460917592048645,-1.074669591976253,3.1397321273779752,-3.141592653589793,-0.5762761628686311,-2.216888085999761,0.0,0.0,0.0,0.0,0.0,0.0
3.3399999999999728,0.06097223002732735,0.04554180687777862,-0.25,0.6415315270423889,-1.0746358361674169,3.1397448856953485,-3.141592653589793,-0.576299252231709,-2.212327853837286,0.0,0.0,0.0,0.0,0.0,0.0
3.3499999999999726,0.060610108779258084,0.044826859666319746,-0.25,0.6368077993392944,-1.0746024109884242,3.1397575630130614,-3.141592653589793,-0.5763221530341248,-2.2076041261341914,0.0,0.0,0.0,0.0,0.0,0.0
3.3599999999999723,0.06025372887686327,0.04410903330943029,-0.25,0.6319169402122498,-1.0745693243948757,3.139770156314489,-3.141592653589793,-0.5763448598246966,-2.2027132670071463,0.0,0.0,0.0,0.0,0.0,0.0
3.369999999999972,0.05990311320975811,0.043388373911755825,-0.25,0.626855194568634,-1.0745365797200712,3.139782661824828,-3.141592653589793,-0.5763673681733003,-2.1976515213635306,0.0,0.0,0.0,0.0,0.0,0.0
3.379999999999972,0.059558284297331746,0.042664927759902826,-0.25,0.621618926525116,-1.0745041855892765,3.1397950767847043,-3.141592653589793,-0.5763896726067905,-2.1924152533200125,0.0,0.0,0.0,0.0,0.0,0.0
3.3899999999999717,0.059219264287300816,0.0419387413194657,-0.25,0.6162043213844299,-1.0744721483562554,3.139807397647596,-3.141592653589793,-0.5764117677995637,-2.187000648179327,0.0,0.0,0.0,0.0,0.0,0.0
3.3999999999999715,0.05888607495428709,0.04120986123204259,-0.25,0.6106075644493103,-1.0744404734675363,3.1398196207084013,-3.141592653589793,-0.5764336486180887,-2.181403891244207,0.0,0.0,0.0,0.0,0.0,0.0
3.4099999999999713,0.05855873769841878,0.040478334312239406,-0.25,0.6048247814178467,-1.0744091699121263,3.139831742663155,-3.141592653589793,-0.5764553089925505,-2.1756211082127432,0.0,0.0,0.0,0.0,0.0,0.0
3.419999999999971,0.05823727354395619,0.039744207544663325,-0.25,0.5988521575927734,-1.0743782433733493,3.139843759652793,-3.141592653589793,-0.576476743572378,-2.16964848438767,0.0,0.0,0.0,0.0,0.0,0.0
3.429999999999971,0.057921703137941205,0.03900752808090472,-0.25,0.5926859378814697,-1.074347701574176,3.1398556677732987,-3.141592653589793,-0.5764979462321597,-2.1634822646763663,0.0,0.0,0.0,0.0,0.0,0.0
3.4399999999999706,0.05761204674887134,0.03826834323650899,-0.25,0.5863221287727356,-1.0743175506869136,3.139867463207425,-3.141592653589793,-0.5765189114805247,-2.157118455567632,0.0,0.0,0.0,0.0,0.0,0.0
3.4499999999999704,0.05730832426539785,0.03752670048793745,-0.25,0.5797569155693054,-1.0742877986650505,3.139879141925311,-3.141592653589793,-0.5765396330013173,-2.150553242364202,0.0,0.0,0.0,0.0,0.0,0.0
3.45999999999997,0.05701055519504826,0.036782647469517885,-0.25,0.5729865431785583,-1.0742584552439194,3.13989070021335,-3.141592653589793,-0.5765601041052385,-2.143782869973455,0.0,0.0,0.0,0.0,0.0,0.0
3.46999999999997,0.056718758662973545,0.03603623197038538,-0.25,0.5660070180892944,-1.074229525165551,3.1399021333223853,-3.141592653589793,-0.576580319021102,-2.136803344884191,0.0,0.0,0.0,0.0,0.0,0.0
3.47999999999997,0.05643295341071969,0.035287501931412564,-0.25,0.5588147044181824,-1.0742010169501004,3.139913437025502,-3.141592653589793,-0.5766002710597956,-2.129611031213079,0.0,0.0,0.0,0.0,0.0,0.0
3.4899999999999696,0.056153157795024,0.03453650544213081,-0.25,0.5514058470726013,-1.0741729402549325,3.1399246072778446,-3.141592653589793,-0.5766199532771582,-2.122202173867498,0.0,0.0,0.0,0.0,0.0,0.0
3.4999999999999694,0.05587938978663598,0.03378329073764119,-0.25,0.54377681016922,-1.074145299872372,3.1399356390322737,-3.141592653589793,-0.5766393596292811,-2.1145731369641165,0.0,0.0,0.0,0.0,0.0,0.0
3.509999999999969,0.055611666969163254,0.033027906195516724,-0.25,0.535923957824707,-1.0741181085960747,3.139946528230851,-3.141592653589793,-0.5766584820284028,-2.1067202846196036,0.0,0.0,0.0,0.0,0.0,0.0
3.519999999999969,0.05535000653794214,0.03227040033269503,-0.25,0.5278438925743103,-1.0740913719251264,3.1399572696894538,-3.141592653589793,-0.5766773140584017,-2.098640219369207,0.0,0.0,0.0,0.0,0.0,0.0
3.5299999999999687,0.05509442529893316,0.03151082180236209,-0.25,0.5195331573486328,-1.0740650984606201,3.1399678586909836,-3.141592653589793,-0.5766958485821594,-2.0903294841435294,0.0,0.0,0.0,0.0,0.0,0.0
3.5399999999999685,0.0548449396676417,0.030749219390827594,-0.25,0.5109885931015015,-1.0740392975204642,3.139978290285436,-3.141592653589793,-0.5767140780047346,-2.081784919896398,0.0,0.0,0.0,0.0,0.0,0.0
3.5499999999999683,0.05460156566806364,0.02998564201439119,-0.25,0.5022071599960327,-1.0740139783238227,3.1399885594918615,-3.141592653589793,-0.576731994740414,-2.0730034867909293,0.0,0.0,0.0,0.0,0.0,0.0
3.559999999999968,0.05436431893165622,0.029220138716200984,-0.25,0.4931859076023102,-1.073989150638166,3.1399986613095017,-3.141592653589793,-0.5767495909885821,-2.0639822343972067,0.0,0.0,0.0,0.0,0.0,0.0
3.569999999999968,0.05413321469633396,0.028452758663103275,-0.25,0.48392218351364136,-1.073964820438798,3.1400085899989953,-3.141592653589793,-0.5767668596868446,-2.054718510308538,0.0,0.0,0.0,0.0,0.0,0.0
3.5799999999999677,0.05390826780549007,0.027683551142484948,-0.25,0.4744134843349457,-1.0739410010488157,3.1400183409332705,-3.141592653589793,-0.5767837920700254,-2.0452098111298422,0.0,0.0,0.0,0.0,0.0,0.0
3.5899999999999674,0.053689492707042985,0.02691256555910772,-0.25,0.46465766429901123,-1.0739176989349684,3.1400279081129217,-3.141592653589793,-0.5768003806761213,-2.035453991093908,0.0,0.0,0.0,0.0,0.0,0.0
3.5999999999999672,0.05347690345250847,0.02613985143193482,-0.25,0.45465266704559326,-1.0738951095473723,3.140037273901747,-3.141592653589793,-0.576816539860487,-2.02544899384049,0.0,0.0,0.0,0.0,0.0,0.0
3.609999999999967,0.05327051369609709,0.02536545839095078,-0.25,0.44439697265625,-1.0738726874250126,3.1400464697394366,-3.141592653589793,-0.5768324934453875,-2.0151932994511466,0.0,0.0,0.0,0.0,0.0,0.0
3.619999999999967,0.053070336693837206,0.024589436173973474,-0.25,0.433889240026474,-1.0738509987194078,3.140055453208797,-3.141592653589793,-0.5768480007563205,-2.0046855668213706,0.0,0.0,0.0,0.0,0.0,0.0
3.6299999999999666,0.05287638530272365,0.023811834623459868,-0.25,0.42312848567962646,-1.073829863950234,3.1400642302828086,-3.141592653589793,-0.5768631317044136,-1.9939248124745232,0.0,0.0,0.0,0.0,0.0,0.0
3.6399999999999664,0.05268867197989181,0.02303270368330439,-0.25,0.4121142625808716,-1.0738092970587036,3.140072795814211,-3.141592653589793,-0.5768778768569015,-1.9829105893757681,0.0,0.0,0.0,0.0,0.0,0.0
3.649999999999966,0.05250720878181765,0.022252093395631452,-0.25,0.40084633231163025,-1.0737893065670043,3.1400811436594083,-3.141592653589793,-0.5768922278865064,-1.971642659106527,0.0,0.0,0.0,0.0,0.0,0.0
3.659999999999966,0.05233200736354332,0.021470053897581186,-0.25,0.3893250823020935,-1.0737699019247522,3.1400892682624413,-3.141592653589793,-0.5769061766331756,-1.9601214090969903,0.0,0.0,0.0,0.0,0.0,0.0
3.6699999999999657,0.05216307897792849,0.0206866354180891,-0.25,0.3775513470172882,-1.0737510936574406,3.1400971633771793,-3.141592653589793,-0.576919713958683,-1.948347673812185,0.0,0.0,0.0,0.0,0.0,0.0
3.6799999999999655,0.05200043447492772,0.019901888274660284,-0.25,0.365526407957077,-1.0737328905561903,3.140104823294436,-3.141592653589793,-0.5769328318098782,-1.9363227347519738,0.0,0.0,0.0,0.0,0.0,0.0
3.6899999999999653,0.05184408430089349,0.019115862870137255,-0.25,0.353252112865448,-1.073715304684848,3.1401122421872874,-3.141592653589793,-0.5769455208512588,-1.9240484396603446,0.0,0.0,0.0,0.0,0.0,0.0
3.699999999999965,0.051694038497905326,0.01832860968946302,-0.25,0.3407308757305145,-1.0736983441331382,3.1401194140462323,-3.141592653589793,-0.5769577730263925,-1.911527202525411,0.0,0.0,0.0,0.0,0.0,0.0
3.709999999999965,0.05155030670312477,0.017540179296438193,-0.25,0.3279658555984497,-1.0736820183356315,3.1401263331381646,-3.141592653589793,-0.5769695800294056,-1.8987621823933465,0.0,0.0,0.0,0.0,0.0,0.0
3.7199999999999647,0.05141289814817643,0.01675062233047365,-0.25,0.3149605691432953,-1.0736663387832106,3.140132993600856,-3.141592653589793,-0.5769809327015901,-1.885756895938192,0.0,0.0,0.0,0.0,0.0,0.0
3.7299999999999645,0.05128182165855501,0.01595998950333796,-0.25,0.30171939730644226,-1.0736513126920997,3.1401393896727345,-3.141592653589793,-0.5769918235138389,-1.872515724101339,0.0,0.0,0.0,0.0,0.0,0.0
3.7399999999999642,0.05115708565305849,0.015168331595900095,-0.25,0.288247287273407,-1.07363695049556,3.1401455155729536,-3.141592653589793,-0.5770022437589293,-1.8590436140683038,0.0,0.0,0.0,0.0,0.0,0.0
3.749999999999964,0.051038698143247435,0.014375699454868211,-0.25,0.2745499014854431,-1.073623262485759,3.14015136614095,-3.141592653589793,-0.5770121853105864,-1.8453462282803397,0.0,0.0,0.0,0.0,0.0,0.0
3.759999999999964,0.050926666732930365,0.01358214398952348,-0.25,0.26063355803489685,-1.0736102556290472,3.1401569355022865,-3.141592653589793,-0.5770216406335741,-1.8314298848297934,0.0,0.0,0.0,0.0,0.0,0.0
3.7699999999999636,0.05082099861767542,0.01278771616845065,-0.25,0.24650532007217407,-1.0735979402737836,3.140162218542759,-3.141592653589793,-0.5770306016209829,-1.8173016468670709,0.0,0.0,0.0,0.0,0.0,0.0
3.7799999999999634,0.05072170058434816,0.011992467016264077,-0.25,0.23217293620109558,-1.0735863236646725,3.1401672100347255,-3.141592653589793,-0.5770390611897432,-1.8029692629959924,0.0,0.0,0.0,0.0,0.0,0.0
3.789999999999963,0.05062877901067575,0.011196447610330798,-0.25,0.21764494478702545,-1.073575416029044,3.1401719052655324,-3.141592653589793,-0.5770470116197819,-1.788441271581922,0.0,0.0,0.0,0.0,0.0,0.0
3.799999999999963,0.05054223986483723,0.010399709077489822,-0.25,0.20293046534061432,-1.0735652221235217,3.140176299030763,-3.141592653589793,-0.5770544467463823,-1.7737267921355109,0.0,0.0,0.0,0.0,0.0,0.0
3.8099999999999627,0.05046208870508019,0.009602302590768195,-0.25,0.1880393773317337,-1.0735557515659995,3.1401803869887672,-3.141592653589793,-0.577061359386578,-1.7588357041266303,0.0,0.0,0.0,0.0,0.0,0.0
3.8199999999999625,0.05038833067936388,0.008804279366094573,-0.25,0.17298226058483124,-1.0735470116935009,3.1401841649516182,-3.141592653589793,-0.5770677433124055,-1.743778587379728,0.0,0.0,0.0,0.0,0.0,0.0
3.8299999999999623,0.050320970525028444,0.00800569065900936,-0.25,0.1577703207731247,-1.0735390079683498,3.1401876287598824,-3.141592653589793,-0.5770735929972345,-1.7285666475680213,0.0,0.0,0.0,0.0,0.0,0.0
3.839999999999962,0.05026001256849073,0.007206587761373017,-0.25,0.14241540431976318,-1.0735317471127157,3.1401907746573645,-3.141592653589793,-0.5770789028040528,-1.7132117311146597,0.0,0.0,0.0,0.0,0.0,0.0
3.849999999999962,0.050205460724966386,0.006407021998071323,-0.25,0.12692995369434357,-1.0735252350059543,3.1401935990524787,-3.141592653589793,-0.577083667540863,-1.6977262804892401,0.0,0.0,0.0,0.0,0.0,0.0
3.8599999999999617,0.05015731849821836,0.005607044723719191,-0.25,0.11132695525884628,-1.0735194765851421,3.1401960989271487,-3.141592653589793,-0.5770878828459668,-1.6821232820537428,0.0,0.0,0.0,0.0,0.0,0.0
3.8699999999999615,0.05011558898033193,0.004806707319362116,-0.25,0.09561992436647415,-1.0735144750202856,3.1401982711466765,-3.141592653589793,-0.5770915448961516,-1.666416251161371,0.0,0.0,0.0,0.0,0.0,0.0
3.8799999999999613,0.05008027485151606,0.004006061189175939,-0.25,0.0798228308558464,-1.0735102371934424,3.140200113781791,-3.141592653589793,-0.577094649557705,-1.650619157650743,0.0,0.0,0.0,0.0,0.0,0.0
3.889999999999961,0.05005137837993123,0.0032051577571655613,-0.25,0.06395003199577332,-1.0735067654783474,3.1402016241950346,-3.141592653589793,-0.5770971937198501,-1.63474635879067,0.0,0.0,0.0,0.0,0.0,0.0
3.899999999999961,0.05002890142154383,0.0024040484638617222,-0.25,0.0480162613093853,-1.0735040609475437,3.140202800774329,-3.141592653589793,-0.5770991756177986,-1.6188125881042819,0.0,0.0,0.0,0.0,0.0,0.0
3.9099999999999606,0.05001284542000689,0.0016027847630174247,-0.25,0.03203649818897247,-1.0735021284202197,3.1402036422022075,-3.141592653589793,-0.5771005923855609,-1.602832824983869,0.0,0.0,0.0,0.0,0.0,0.0
3.9199999999999604,0.0500032114065674,0.0008014181183028019,-0.25,0.016025960445404053,-1.073500967745975,3.140204147455247,-3.141592653589793,-0.5771014432029649,-1.5868222872403006,0.0,0.0,0.0,0.0,0.0,0.0
3.92999999999996,0.05000000000000002,1.2246467991473533e-17,-0.25,2.4492934404725397e-16,-1.0735005803665842,3.140204315836412,-3.141592653589793,-0.5771017269537837,-1.570796326794897,0.0,0.0,0.0,0.0,0.0,0.0
3.93999999999996,0.0500032114065674,-0.000801418118302733,-0.25,-0.016025960445404053,-1.073500967745975,3.140204147455247,-3.141592653589793,-0.5771014432029649,-1.5547703663494925,0.0,0.0,0.0,0.0,0.0,0.0
3.9499999999999598,0.05001284542000689,-0.0016027847630173562,-0.25,-0.03203649818897247,-1.0735021277205998,3.1402036421165374,-3.141592653589793,-0.5771005925650021,-1.538759828605924,0.0,0.0,0.0,0.0,0.0,0.0
3.9599999999999596,0.05002890142154383,-0.0024040484638616537,-0.25,-0.0480162613093853,-1.0735040609475437,3.140202800774329,-3.141592653589793,-0.5770991756177986,-1.5227800654855113,0.0,0.0,0.0,0.0,0.0,0.0
3.9699999999999593,0.05005137837993123,-0.0032051577571654923,-0.25,-0.06395003199577332,-1.0735067654201362,3.1402016241953206,-3.141592653589793,-0.577097193741115,-1.5068462947991232,0.0,0.0,0.0,0.0,0.0,0.0
3.979999999999959,0.05008027485151606,-0.00400606118917587,-0.25,-0.0798228308558464,-1.0735102371934424,3.140200113781791,-3.141592653589793,-0.577094649557705,-1.4909734959390504,0.0,0.0,0.0,0.0,0.0,0.0
3.989999999999959,0.05011558898033193,-0.0048067073193620476,-0.25,-0.09561992436647415,-1.0735144750202856,3.1401982711466765,-3.141592653589793,-0.5770915448961516,-1.4751764024284224,0.0,0.0,0.0,0.0,0.0,0.0
3.9999999999999587,0.05015731849821836,-0.0056070447237191665,-0.25,-0.11132695525884628,-1.0735194762777045,3.1401960989264737,-3.141592653589793,-0.5770878829564076,-1.4594693715360503,0.0,0.0,0.0,0.0,0.0,0.0
4.009999999999959,0.050205460724966386,-0.006407021998071256,-0.25,-0.12692995369434357,-1.0735252347022861,3.1401935990184224,-3.141592653589793,-0.5770836676214217,-1.443866373100553,0.0,0.0,0.0,0.0,0.0,0.0
4.019999999999959,0.05026001256849073,-0.007206587761372949,-0.25,-0.14241540431976318,-1.073531746874691,3.140190774605932,-3.141592653589793,-0.5770789028460609,-1.4283809224751334,0.0,0.0,0.0,0.0,0.0,0.0
4.0299999999999585,0.050320970525028444,-0.008005690659009293,-0.25,-0.1577703207731247,-1.0735390079099965,3.1401876287543136,-3.141592653589793,-0.5770735930135481,-1.413026006021772,0.0,0.0,0.0,0.0,0.0,0.0
4.039999999999958,0.05038833067936388,-0.008804279366094505,-0.25,-0.17298226058483124,-1.0735470116935009,3.1401841649516182,-3.141592653589793,-0.5770677433124055,-1.3978140662100653,0.0,0.0,0.0,0.0,0.0,0.0
4.049999999999958,0.05046208870508019,-0.009602302590768127,-0.25,-0.1880393773317337,-1.0735557515659995,3.1401803869887672,-3.141592653589793,-0.577061359386578,-1.3827569494631629,0.0,0.0,0.0,0.0,0.0,0.0
4.059999999999958,0.05054223986483722,-0.010399709077489752,-0.25,-0.20293046534061432,-1.0735652221235217,3.140176299030763,-3.141592653589793,-0.5770544467463823,-1.3678658614542825,0.0,0.0,0.0,0.0,0.0,0.0
4.069999999999958,0.05062877901067575,-0.011196447610330774,-0.25,-0.21764494478702545,-1.073575416035073,3.1401719052565973,-3.141592653589793,-0.5770470116099707,-1.353151382007871,0.0,0.0,0.0,0.0,0.0,0.0
4.079999999999957,0.05072170058434816,-0.011992467016264007,-0.25,-0.23217293620109558,-1.0735863236646725,3.1401672100347255,-3.141592653589793,-0.577039061189743,-1.338623390593801,0.0,0.0,0.0,0.0,0.0,0.0
4.089999999999957,0.0508209986176754,-0.012787716168450584,-0.25,-0.24650532007217407,-1.0735979402737836,3.140162218542759,-3.141592653589793,-0.5770306016209829,-1.3242910067227225,0.0,0.0,0.0,0.0,0.0,0.0
4.099999999999957,0.05092666673293035,-0.01358214398952341,-0.25,-0.26063355803489685,-1.0736102553619933,3.140156935495275,-3.141592653589793,-0.5770216407240173,-1.31016276876,0.0,0.0,0.0,0.0,0.0,0.0
4.109999999999957,0.05103869814324742,-0.014375699454868142,-0.25,-0.2745499014854431,-1.073623262485759,3.14015136614095,-3.141592653589793,-0.5770121853105863,-1.2962464253094534,0.0,0.0,0.0,0.0,0.0,0.0
4.119999999999957,0.05115708565305849,-0.015168331595900026,-0.25,-0.288247287273407,-1.07363695049556,3.1401455155729536,-3.141592653589793,-0.5770022437589293,-1.2825490395214898,0.0,0.0,0.0,0.0,0.0,0.0
4.129999999999956,0.051281821658554994,-0.01595998950333789,-0.25,-0.30171939730644226,-1.0736513126920997,3.1401393896727345,-3.141592653589793,-0.5769918235138389,-1.2690769294884543,0.0,0.0,0.0,0.0,0.0,0.0
4.139999999999956,0.05141289814817643,-0.016750622330473627,-0.25,-0.3149605691432953,-1.0736663386772172,3.1401329936047713,-3.141592653589793,-0.576980932743209,-1.2558357576516015,0.0,0.0,0.0,0.0,0.0,0.0
4.149999999999956,0.05155030670312477,-0.017540179296438127,-0.25,-0.3279658555984497,-1.0736818346763464,3.1401263454435675,-3.141592653589793,-0.5769696568625565,-1.242830471196447,0.0,0.0,0.0,0.0,0.0,0.0
4.159999999999956,0.051694038497905326,-0.018328609689462955,-0.25,-0.3407308757305145,-1.0736983441331382,3.1401194140462323,-3.141592653589793,-0.5769577730263925,-1.2300654510643823,0.0,0.0,0.0,0.0,0.0,0.0
4.1699999999999555,0.051844084300893475,-0.01911586287013719,-0.25,-0.353252112865448,-1.073715304684848,3.1401122421872874,-3.141592653589793,-0.5769455208512587,-1.2175442139294488,0.0,0.0,0.0,0.0,0.0,0.0
4.179999999999955,0.05200043447492769,-0.019901888274660218,-0.25,-0.365526407957077,-1.0737328905561903,3.140104823294436,-3.141592653589793,-0.5769328318098782,-1.2052699188378198,0.0,0.0,0.0,0.0,0.0,0.0
4.189999999999955,0.052163078977928476,-0.02068663541808903,-0.25,-0.3775513470172882,-1.0737510936574406,3.1400971633771793,-3.141592653589793,-0.576919713958683,-1.1932449797776083,0.0,0.0,0.0,0.0,0.0,0.0
4.199999999999955,0.052332007363543306,-0.021470053897581116,-0.25,-0.3893250823020935,-1.0737699019247522,3.1400892682624413,-3.141592653589793,-0.5769061766331754,-1.181471244492803,0.0,0.0,0.0,0.0,0.0,0.0
4.209999999999955,0.05250720878181765,-0.02225209339563143,-0.25,-0.40084633231163025,-1.0737893065670043,3.1400811436594083,-3.141592653589793,-0.5768922278865064,-1.1699499944832663,0.0,0.0,0.0,0.0,0.0,0.0
4.2199999999999545,0.0526886719798918,-0.023032703683304324,-0.25,-0.4121142625808716,-1.0738092970587036,3.140072795814211,-3.141592653589793,-0.5768778768569015,-1.1586820642140252,0.0,0.0,0.0,0.0,0.0,0.0
4.229999999999954,0.052876385302723636,-0.0238118346234598,-0.25,-0.42312848567962646,-1.073829863950234,3.1400642302828086,-3.141592653589793,-0.5768631317044136,-1.14766784111527,0.0,0.0,0.0,0.0,0.0,0.0
4.239999999999954,0.05307033669383719,-0.024589436173973408,-0.25,-0.433889240026474,-1.0738509987194078,3.140055453208797,-3.141592653589793,-0.5768480007563204,-1.1369070867684228,0.0,0.0,0.0,0.0,0.0,0.0
4.249999999999954,0.053270513696097074,-0.025365458390950713,-0.25,-0.44439697265625,-1.0738726874250126,3.1400464697394366,-3.141592653589793,-0.5768324934453875,-1.1263993541386466,0.0,0.0,0.0,0.0,0.0,0.0
4.259999999999954,0.05347690345250844,-0.026139851431934754,-0.25,-0.45465266704559326,-1.0738951095473723,3.140037273901747,-3.141592653589793,-0.576816539860487,-1.1161436597493033,0.0,0.0,0.0,0.0,0.0,0.0
4.269999999999953,0.05368949270704297,-0.026912565559107655,-0.25,-0.46465766429901123,-1.0739176989349684,3.1400279081129217,-3.141592653589793,-0.5768003806761213,-1.1061386624958853,0.0,0.0,0.0,0.0,0.0,0.0
4.279999999999953,0.05390826780549006,-0.027683551142484927,-0.25,-0.4744134843349457,-1.0739410010488157,3.1400183409332705,-3.141592653589793,-0.5767837920700254,-1.096382842459951,0.0,0.0,0.0,0.0,0.0,0.0
4.289999999999953,0.05413321469633395,-0.028452758663103206,-0.25,-0.48392218351364136,-1.073964820438798,3.1400085899989953,-3.141592653589793,-0.5767668596868445,-1.0868741432812554,0.0,0.0,0.0,0.0,0.0,0.0
4.299999999999953,0.054364318931656205,-0.029220138716200918,-0.25,-0.4931859076023102,-1.073989150638166,3.1399986613095017,-3.141592653589793,-0.5767495909885821,-1.0776104191925866,0.0,0.0,0.0,0.0,0.0,0.0
4.3099999999999525,0.05460156566806362,-0.029985642014391124,-0.25,-0.5022071599960327,-1.0740139783238227,3.1399885594918615,-3.141592653589793,-0.576731994740414,-1.0685891667988638,0.0,0.0,0.0,0.0,0.0,0.0
4.319999999999952,0.05484493966764167,-0.030749219390827528,-0.25,-0.5109885931015015,-1.0740392975204642,3.139978290285436,-3.141592653589793,-0.5767140780047346,-1.059807733693395,0.0,0.0,0.0,0.0,0.0,0.0
4.329999999999952,0.05509442529893313,-0.031510821802362025,-0.25,-0.5195331573486328,-1.0740650984606201,3.1399678586909836,-3.141592653589793,-0.5766958485821592,-1.0512631694462637,0.0,0.0,0.0,0.0,0.0,0.0
4.339999999999952,0.05535000653794213,-0.03227040033269496,-0.25,-0.5278438925743103,-1.0740913719251264,3.1399572696894538,-3.141592653589793,-0.5766773140584016,-1.0429524342205865,0.0,0.0,0.0,0.0,0.0,0.0
4.349999999999952,0.055611666969163254,-0.033027906195516696,-0.25,-0.535923957824707,-1.0741181085960747,3.139946528230851,-3.141592653589793,-0.5766584820284026,-1.0348723689701895,0.0,0.0,0.0,0.0,0.0,0.0
4.3599999999999515,0.05587938978663595,-0.03378329073764113,-0.25,-0.54377681016922,-1.074145299872372,3.1399356390322737,-3.141592653589793,-0.5766393596292811,-1.0270195166256766,0.0,0.0,0.0,0.0,0.0,0.0
4.369999999999951,0.05615315779502397,-0.034536505442130744,-0.25,-0.5514058470726013,-1.0741729402549325,3.1399246072778446,-3.141592653589793,-0.5766199532771582,-1.0193904797222955,0.0,0.0,0.0,0.0,0.0,0.0
4.379999999999951,0.056432953410719675,-0.035287501931412495,-0.25,-0.5588147044181824,-1.0742010169501004,3.139913437025502,-3.141592653589793,-0.5766002710597956,-1.0119816223767142,0.0,0.0,0.0,0.0,0.0,0.0
4.389999999999951,0.05671875866297353,-0.036036231970385316,-0.25,-0.5660070180892944,-1.074229525165551,3.1399021333223853,-3.141592653589793,-0.5765803190211019,-1.0047893087056023,0.0,0.0,0.0,0.0,0.0,0.0
4.399999999999951,0.05701055519504823,-0.03678264746951782,-0.25,-0.5729865431785583,-1.0742584552439194,3.13989070021335,-3.141592653589793,-0.5765601041052384,-0.9978097836163383,0.0,0.0,0.0,0.0,0.0,0.0
4.40999999999995,0.057308324265397836,-0.03752670048793738,-0.25,-0.5797569155693054,-1.0742877986650505,3.139879141925311,-3.141592653589793,-0.5765396330013173,-0.9910394112255911,0.0,0.0,0.0,0.0,0.0,0.0
4.41999999999995,0.057612046748871326,-0.03826834323650897,-0.25,-0.5863221287727356,-1.0743175506869136,3.139867463207425,-3.141592653589793,-0.5765189114805247,-0.984474198022161,0.0,0.0,0.0,0.0,0.0,0.0
4.42999999999995,0.05792170313794118,-0.03900752808090466,-0.25,-0.5926859378814697,-1.074347701574176,3.1398556677732987,-3.141592653589793,-0.5764979462321597,-0.9781103889134269,0.0,0.0,0.0,0.0,0.0,0.0
4.43999999999995,0.05823727354395615,-0.03974420754466326,-0.25,-0.5988521575927734,-1.0743782433733493,3.139843759652793,-3.141592653589793,-0.576476743572378,-0.9719441692021232,0.0,0.0,0.0,0.0,0.0,0.0
4.4499999999999496,0.05855873769841874,-0.04047833431223934,-0.25,-0.6048247814178467,-1.0744091699121263,3.139831742663155,-3.141592653589793,-0.5764553089925505,-0.9659715453770499,0.0,0.0,0.0,0.0,0.0,0.0
4.459999999999949,0.05888607495428706,-0.041209861232042524,-0.25,-0.6106075644493103,-1.0744404734675363,3.1398196207084013,-3.141592653589793,-0.5764336486180887,-0.9601887623455863,0.0,0.0,0.0,0.0,0.0,0.0
4.469999999999949,0.05921926428730079,-0.041938741319465636,-0.25,-0.6162043213844299,-1.0744721483562554,3.139807397647596,-3.141592653589793,-0.5764117677995637,-0.9545920054104666,0.0,0.0,0.0,0.0,0.0,0.0
4.479999999999949,0.05955828429733172,-0.04266492775990277,-0.25,-0.621618926525116,-1.0745041855892765,3.1397950767847043,-3.141592653589793,-0.5763896726067904,-0.9491774002697807,0.0,0.0,0.0,0.0,0.0,0.0
4.489999999999949,0.05990311320975811,-0.043388373911755804,-0.25,-0.626855194568634,-1.0745365797200712,3.139782661824828,-3.141592653589793,-0.5763673681733003,-0.9439411322262625,0.0,0.0,0.0,0.0,0.0,0.0
4.4999999999999485,0.06025372887686324,-0.04410903330943023,-0.25,-0.6319169402122498,-1.0745693243948757,3.139770156314489,-3.141592653589793,-0.5763448598246966,-0.9388793865826469,0.0,0.0,0.0,0.0,0.0,0.0
4.509999999999948,0.06061010877925804,-0.04482685966631969,-0.25,-0.6368077993392944,-1.0746024109884242,3.1397575630130614,-3.141592653589793,-0.5763221530341248,-0.933988527455602,0.0,0.0,0.0,0.0,0.0,0.0
4.519999999999948,0.06097223002732732,-0.045541806877778555,-0.25,-0.6415315270423889,-1.0746358361674169,3.1397448856953485,-3.141592653589793,-0.576299252231709,-0.9292647997525076,0.0,0.0,0.0,0.0,0.0,0.0
4.529999999999948,0.06134006936269999,-0.04625382902408351,-0.25,-0.6460917592048645,-1.074669591976253,3.1397321273779752,-3.141592653589793,-0.5762761628686311,-0.9247045675900322,0.0,0.0,0.0,0.0,0.0,0.0
4.539999999999948,0.06171360315974289,-0.04696288037338253,-0.25,-0.6504920125007629,-1.0747034838546465,3.139719303427974,-3.141592653589793,-0.5762529683226281,-0.9203043142941337,0.0,0.0,0.0,0.0,0.0,0.0
4.549999999999947,0.06209280742707829,-0.04766891538463251,-0.25,-0.6547359228134155,-1.0747380712047505,3.139706379640632,-3.141592653589793,-0.5762294373961828,-0.916060403981481,0.0,0.0,0.0,0.0,0.0,0.0
4.559999999999947,0.06247765780912462,-0.048371888710523926,-0.25,-0.6588269472122192,-1.0747727829584672,3.1396933960733264,-3.141592653589793,-0.5762058105021177,-0.9119693795826773,0.0,0.0,0.0,0.0,0.0,0.0
4.569999999999947,0.06286812958766107,-0.04907175520039375,-0.25,-0.6627684831619263,-1.0748078019293903,3.1396803432795686,-3.141592653589793,-0.5761820135651581,-0.9080278436329702,0.0,0.0,0.0,0.0,0.0,0.0
4.579999999999947,0.0632641976834149,-0.04976846990312511,-0.25,-0.6665639877319336,-1.0748431216439762,3.1396672238610925,-3.141592653589793,-0.576158051146867,-0.904232339062963,0.0,0.0,0.0,0.0,0.0,0.0
4.589999999999947,0.06366583665767246,-0.050461988070034526,-0.25,-0.6702167391777039,-1.0748787383277723,3.139654040634211,-3.141592653589793,-0.5761339270176857,-0.9005795876171928,0.0,0.0,0.0,0.0,0.0,0.0
4.599999999999946,0.06407302071391299,-0.05115226515774615,-0.25,-0.6737299561500549,-1.074914832528055,3.1396407835147535,-3.141592653589793,-0.5761095673776127,-0.8970663706448418,0.0,0.0,0.0,0.0,0.0,0.0
4.609999999999946,0.06448572369946537,-0.05183925683105246,-0.25,-0.6771067976951599,-1.07495083512163,3.1396274925171745,-3.141592653589793,-0.5760852118947981,-0.8936895290997368,0.0,0.0,0.0,0.0,0.0,0.0
4.619999999999946,0.06490391910718811,-0.052522918965762104,-0.25,-0.6803504228591919,-1.074987306174684,3.1396141326603875,-3.141592653589793,-0.5760606284743988,-0.8904459039357048,0.0,0.0,0.0,0.0,0.0,0.0
4.629999999999946,0.06532758007717157,-0.05320320765153361,-0.25,-0.6834638714790344,-1.0750240513815275,3.1396007190752755,-3.141592653589793,-0.5760359001985152,-0.8873324553158621,0.0,0.0,0.0,0.0,0.0,0.0
4.6399999999999455,0.06575667939846337,-0.053880079194696,-0.25,-0.686450183391571,-1.0750610645068512,3.139587253451273,-3.141592653589793,-0.5760110307631163,-0.8843461434033254,0.0,0.0,0.0,0.0,0.0,0.0
4.649999999999945,0.06619118951081594,-0.05455349012105485,-0.25,-0.6893122792243958,-1.0750983433501915,3.139573738697404,-3.141592653589793,-0.5759860234496271,-0.881484047570501,0.0,0.0,0.0,0.0,0.0,0.0
4.659999999999945,0.06663108250645666,-0.0552233971786847,-0.25,-0.6920529007911682,-1.075135882322673,3.1395601767544274,-3.141592653589793,-0.5759608819353973,-0.8787434260037283,0.0,0.0,0.0,0.0,0.0,0.0
4.669999999999945,0.0670763301318805,-0.05588975734070714,-0.25,-0.6946750283241272,-1.075173673934442,3.139546569687658,-3.141592653589793,-0.5759356106905003,-0.8761212984707694,0.0,0.0,0.0,0.0,0.0,0.0
4.679999999999945,0.06752690378966442,-0.056552527808054066,-0.25,-0.6971813440322876,-1.0752117159763799,3.1395329195035284,-3.141592653589793,-0.5759102122282109,-0.873614982762609,0.0,0.0,0.0,0.0,0.0,0.0
4.689999999999944,0.06798277454030441,-0.05721166601221694,-0.25,-0.6995744705200195,-1.0752500027713712,3.1395192284216744,-3.141592653589793,-0.5758846904960234,-0.8712218562748771,0.0,0.0,0.0,0.0,0.0,0.0
4.699999999999944,0.06844391310407397,-0.05786712961798053,-0.25,-0.7018570303916931,-1.0752885303391775,3.1395054983919195,-3.141592653589793,-0.5758590485982565,-0.8689392964032036,0.0,0.0,0.0,0.0,0.0,0.0
4.709999999999944,0.0689102898629049,-0.05851887652614234,-0.25,-0.7040315866470337,-1.0753272934757874,3.1394917311887642,-3.141592653589793,-0.57583328993121,-0.8667647401478629,0.0,0.0,0.0,0.0,0.0,0.0
4.719999999999944,0.06938187486228946,-0.05916686487621632,-0.25,-0.7061006426811218,-1.0753662876461245,3.1394779288797334,-3.141592653589793,-0.5758074179000802,-0.8646956841137747,0.0,0.0,0.0,0.0,0.0,0.0
4.729999999999944,0.06985863781320432,-0.05981105304912156,-0.25,-0.7080666422843933,-1.0754055079571003,3.1394640929643494,-3.141592653589793,-0.5757814355539211,-0.8627296845105034,0.0,0.0,0.0,0.0,0.0,0.0
4.739999999999943,0.07034054809405613,-0.06045139966985557,-0.25,-0.7099319696426392,-1.075444951783858,3.139450225531329,-3.141592653589793,-0.5757553456264206,-0.8608643571522574,0.0,0.0,0.0,0.0,0.0,0.0
4.749999999999943,0.070827574752648,-0.06108786361015139,-0.25,-0.7116989493370056,-1.0754846134075944,3.1394363282112767,-3.141592653589793,-0.5757291515767321,-0.8590973774578909,0.0,0.0,0.0,0.0,0.0,0.0
4.759999999999943,0.0713196865081678,-0.06172040399111955,-0.25,-0.7133697271347046,-1.0755244893731568,3.139422402780907,-3.141592653589793,-0.5757028561716603,-0.857426599660192,0.0,0.0,0.0,0.0,0.0,0.0
4.769999999999943,0.071816851753197,-0.06234898018587331,-0.25,-0.7149465084075928,-1.0755645756710717,3.1394084505333524,-3.141592653589793,-0.5756764619648753,-0.8558498183873039,0.0,0.0,0.0,0.0,0.0,0.0
4.7799999999999425,0.07231903855574098,-0.06297355182213833,-0.25,-0.7164316177368164,-1.075604673935512,3.139394485613863,-3.141592653589793,-0.5756500526552407,-0.8543647090580804,0.0,0.0,0.0,0.0,0.0,0.0
4.789999999999942,0.07282621466127982,-0.0635940787848455,-0.25,-0.7178270220756531,-1.075645358633885,3.1393804725330217,-3.141592653589793,-0.5756233905343793,-0.8529693047192436,0.0,0.0,0.0,0.0,0.0,0.0
4.799999999999942,0.07333834749483997,-0.0642105212187075,-0.25,-0.7191346883773804,-1.075686048183167,3.139366449919933,-3.141592653589793,-0.5755967185647868,-0.8516616384175163,0.0,0.0,0.0,0.0,0.0,0.0
4.809999999999942,0.07385540416308656,-0.06482283953077882,-0.25,-0.7203567624092102,-1.0757267409868625,3.1393524191579854,-3.141592653589793,-0.5755700385049272,-0.8504395643856864,0.0,0.0,0.0,0.0,0.0,0.0
4.819999999999942,0.07437735145643594,-0.06543099439299839,-0.25,-0.7214951515197754,-1.0757680060068644,3.139338344656954,-3.141592653589793,-0.5755431145514085,-0.8493011752751214,0.0,0.0,0.0,0.0,0.0,0.0
4.8299999999999415,0.07490415585118887,-0.06603494674471591,-0.25,-0.7225516438484192,-1.0758092663057486,3.1393242647931068,-3.141592653589793,-0.5755161877699195,-0.8482446829464775,0.0,0.0,0.0,0.0,0.0,0.0
4.839999999999941,0.07543578351168341,-0.06663465779520035,-0.25,-0.7235282063484192,-1.0758507062233065,3.139310168857074,-3.141592653589793,-0.5754891824646478,-0.8472681204464774,0.0,0.0,0.0,0.0,0.0,0.0
4.849999999999941,0.07597220029246844,-0.06723008902613165,-0.25,-0.7244265675544739,-1.0758923263737739,3.1392960577827953,-3.141592653589793,-0.5754620992131357,-0.8463697592404227,0.0,0.0,0.0,0.0,0.0,0.0
4.859999999999941,0.07651337174049645,-0.06782120219407446,-0.25,-0.7252484560012817,-1.075934120735134,3.1392819331302046,-3.141592653589793,-0.575434941523469,-0.8455478707936148,0.0,0.0,0.0,0.0,0.0,0.0
4.869999999999941,0.07705926309733657,-0.06840795933293457,-0.25,-0.7259956002235413,-1.075976084391197,3.1392677960678324,-3.141592653589793,-0.5754077121700353,-0.8448007265713555,0.0,0.0,0.0,0.0,0.0,0.0
4.87999999999994,0.0776098393014071,-0.06899032275639747,-0.25,-0.7266696691513062,-1.0760182166759087,3.1392536480755187,-3.141592653589793,-0.5753804126590517,-0.8441266576435906,0.0,0.0,0.0,0.0,0.0,0.0
