Suke0811/REMS/sim/utils/target_robot_circle.csv
timestamp,x,y,z,j.0,j.1,j.2,j.3,j.4,j.5,d_j.0,d_j.1,d_j.2,d_j.3,d_j.4,d_j.5
0.01,250.0,0.0,-250.0,0.0,-0.3552587687754181,2.0853081869732533,-3.141592653589793,-0.2934265112010751,-1.5707963267948966,0.0,0.0,0.0,0.0,0.0,0.0
0.02,249.9967885934326,0.8014181183027708,-250.0,0.0032057026401162148,0.3668471507073467,1.6241624601482454,-3.141592653589793,-0.7572858948413388,-1.574002029435013,0.0,0.0,0.0,0.0,0.0,0.0
0.03,249.98715457999313,1.6027847630173744,-250.0,0.006411380600184202,0.3667912045207766,1.6242085858923037,-3.141592653589793,-0.7572506622111672,-1.577207707395081,0.0,0.0,0.0,0.0,0.0,0.0
0.04,249.97109857845618,2.4040484638616975,-250.0,0.009617009200155735,0.36669806960898255,1.6242853713896077,-3.141592653589793,-0.7571920077535307,-1.5804133359950525,0.0,0.0,0.0,0.0,0.0,0.0
0.05,249.9486216200688,3.2051577571655177,-250.0,0.012822562828660011,0.36656761049490244,1.6243929266858037,-3.141592653589793,-0.7571098433260489,-1.5836188896235568,0.0,0.0,0.0,0.0,0.0,0.0
0.060000000000000005,249.91972514848396,4.00606118917592,-250.0,0.016028018668293953,0.3663999879848509,1.6245311168911232,-3.141592653589793,-0.7570042662636327,-1.5868243454631907,0.0,0.0,0.0,0.0,0.0,0.0
0.07,249.88441101966808,4.806707319362078,-250.0,0.019233351573348045,0.3661952272605569,1.6246999182632962,-3.141592653589793,-0.7568752873810836,-1.5900296783682448,0.0,0.0,0.0,0.0,0.0,0.0
0.08,249.84268150178164,5.60704472371918,-250.0,0.0224385354667902,0.36595320705233525,1.6248994271055235,-3.141592653589793,-0.7567228241306172,-1.593234862261687,0.0,0.0,0.0,0.0,0.0,0.0
0.09,249.79453927503366,6.407021998071291,-250.0,0.025643544271588326,0.3656742498025253,1.6251293732605339,-3.141592653589793,-0.7565470724007919,-1.596439871066485,0.0,0.0,0.0,0.0,0.0,0.0
0.09999999999999999,249.73998743150926,7.206587761372965,-250.0,0.028848357498645782,0.36535824684440643,1.6253898412575905,-3.141592653589793,-0.7563479554309106,-1.5996446842935426,0.0,0.0,0.0,0.0,0.0,0.0
0.10999999999999999,249.67902947497157,8.005690659009334,-250.0,0.03205294534564018,0.36500523868163626,1.6256807919401246,-3.141592653589793,-0.7561254893693446,-1.602849272140537,0.0,0.0,0.0,0.0,0.0,0.0
0.11999999999999998,249.61166932063614,8.80427936609453,-250.0,0.035257287323474884,0.36461527003475686,1.626002181945186,-3.141592653589793,-0.7558796919811595,-1.6060536141183717,0.0,0.0,0.0,0.0,0.0,0.0
0.12999999999999998,249.5379112949198,9.602302590768176,-250.0,0.0384613573551178,0.36418868318830433,1.6263537219563522,-3.141592653589793,-0.7556107676134326,-1.6092576841500146,0.0,0.0,0.0,0.0,0.0,0.0
0.13999999999999999,249.4577601351628,10.399709077489783,-250.0,0.04166513308882713,0.3637250948955557,1.6267357197914798,-3.141592653589793,-0.755318462244573,-1.612461459883724,0.0,0.0,0.0,0.0,0.0,0.0
0.15,249.37122098932426,11.196447610330786,-250.0,0.044868580996990204,0.3632249963823562,1.627147761885462,-3.141592653589793,-0.7550030722093246,-1.6156649077918868,0.0,0.0,0.0,0.0,0.0,0.0
0.16,249.27829941565184,11.992467016264046,-250.0,0.04807168245315552,0.36268845552693185,1.6275897827639347,-3.141592653589793,-0.754664626052595,-1.6188680092480523,0.0,0.0,0.0,0.0,0.0,0.0
0.17,249.17900138232463,12.7877161684506,-250.0,0.051274415105581284,0.36211538784622294,1.6280618416324713,-3.141592653589793,-0.7543030552700483,-1.622070741900478,0.0,0.0,0.0,0.0,0.0,0.0
0.18000000000000002,249.07333326706964,13.582143989523452,-250.0,0.054476749151945114,0.361506155786761,1.6285636287033292,-3.141592653589793,-0.7539185724689141,-1.625273075946842,0.0,0.0,0.0,0.0,0.0,0.0
0.19000000000000003,248.96130185675258,14.375699454868162,-250.0,0.05767865478992462,0.3608606900367182,1.6290951889846956,-3.141592653589793,-0.7535111170046025,-1.6284749815848214,0.0,0.0,0.0,0.0,0.0,0.0
0.20000000000000004,248.84291434694154,15.168331595900076,-250.0,0.06088012456893921,0.36017906616723755,1.629656447235154,-3.141592653589793,-0.7530807188120077,-1.631676451363836,0.0,0.0,0.0,0.0,0.0,0.0
0.21000000000000005,248.71817834144503,15.95998950333792,-250.0,0.064081110060215,0.35946165913983347,1.6302470808213885,-3.141592653589793,-0.7526275961594951,-1.6348774368551118,0.0,0.0,0.0,0.0,0.0,0.0
0.22000000000000006,248.58710185182358,16.75062233047364,-250.0,0.06728160381317139,0.3587082588554969,1.6308672478728399,-3.141592653589793,-0.752151597086173,-1.6380779306080682,0.0,0.0,0.0,0.0,0.0,0.0
0.23000000000000007,248.44969329687524,17.540179296438165,-250.0,0.07048157602548599,0.35791938874714396,1.6315165017230278,-3.141592653589793,-0.7516530323486948,-1.6412779028203828,0.0,0.0,0.0,0.0,0.0,0.0
0.24000000000000007,248.3059615020947,18.328609689462972,-250.0,0.07368098944425583,0.35709499553911583,1.6321948694684527,-3.141592653589793,-0.7511318477216631,-1.6444773162391524,0.0,0.0,0.0,0.0,0.0,0.0
0.25000000000000006,248.15591569910652,19.11586287013723,-250.0,0.0768798366189003,0.35623545883201263,1.6329020209916183,-3.141592653589793,-0.7505882620268732,-1.647676163413797,0.0,0.0,0.0,0.0,0.0,0.0
0.26000000000000006,247.99956552507228,19.901888274660237,-250.0,0.08007808029651642,0.35534059229571674,1.6336380907633863,-3.141592653589793,-0.7500221356468386,-1.6508744070914132,0.0,0.0,0.0,0.0,0.0,0.0
0.2700000000000001,247.83692102207152,20.68663541808908,-250.0,0.083275705575943,0.35441063362835357,1.6344028633020355,-3.141592653589793,-0.7494335965503097,-1.6540720323708398,0.0,0.0,0.0,0.0,0.0,0.0
0.2800000000000001,247.6679926364567,21.47005389758115,-250.0,0.08647267520427704,0.3534461190969144,1.6351958766514487,-3.141592653589793,-0.7488229613698012,-1.6572690019991738,0.0,0.0,0.0,0.0,0.0,0.0
0.2900000000000001,247.49279121818236,22.25209339563144,-250.0,0.08966896682977676,0.35244686273037884,1.6360172616524897,-3.141592653589793,-0.7481900891673021,-1.6604652936246735,0.0,0.0,0.0,0.0,0.0,0.0
0.3000000000000001,247.31132802010822,23.03270368330436,-250.0,0.09286455065011978,0.35141297375975855,1.6368669051812093,-3.141592653589793,-0.74753502535876,-1.6636608774450166,0.0,0.0,0.0,0.0,0.0,0.0
0.3100000000000001,247.1236146972764,23.811834623459816,-250.0,0.0960594117641449,0.35034498582070217,1.6377443442699777,-3.141592653589793,-0.7468580840243592,-1.6668557385590417,0.0,0.0,0.0,0.0,0.0,0.0
0.3200000000000001,246.9296633061628,24.58943617397345,-250.0,0.09925351291894913,0.3492428691430396,1.6386495777898475,-3.141592653589793,-0.7461592219972002,-1.670049839713846,0.0,0.0,0.0,0.0,0.0,0.0
0.3300000000000001,246.72948630390295,25.36545839095074,-250.0,0.10244683921337128,0.34810687861457107,1.6395823695230403,-3.141592653589793,-0.745438576269868,-1.673243166008268,0.0,0.0,0.0,0.0,0.0,0.0
0.34000000000000014,246.52309654749155,26.1398514319348,-250.0,0.10563934594392776,0.3469372634678677,1.6405424867447116,-3.141592653589793,-0.7446962801288675,-1.6764356727388243,0.0,0.0,0.0,0.0,0.0,0.0
0.35000000000000014,246.31050729295703,26.912565559107684,-250.0,0.10883104056119919,0.3457339969053445,1.6415299220391162,-3.141592653589793,-0.7439322914846423,-1.6796273673560957,0.0,0.0,0.0,0.0,0.0,0.0
0.36000000000000015,246.09173219450997,27.683551142484937,-250.0,0.11202186346054077,0.34449776121311065,1.6425440848892263,-3.141592653589793,-0.7431470184178878,-1.6828181902554376,0.0,0.0,0.0,0.0,0.0,0.0
0.37000000000000016,245.86678530366606,28.45275866310324,-250.0,0.11521179974079132,0.343228253951138,1.6435851914599553,-3.141592653589793,-0.7423402435767149,-1.686008126535688,0.0,0.0,0.0,0.0,0.0,0.0
0.38000000000000017,245.6356810683438,29.220138716200935,-250.0,0.11840082705020905,0.3419260036469288,1.644652774947239,-3.141592653589793,-0.7415122774609296,-1.6891971538451058,0.0,0.0,0.0,0.0,0.0,0.0
0.3900000000000002,245.3984343319364,29.98564201439116,-250.0,0.12158890068531036,0.34059100390553193,1.6457468059034965,-3.141592653589793,-0.74066309064794,-1.6923852274802071,0.0,0.0,0.0,0.0,0.0,0.0
0.4000000000000002,245.15506033235835,30.749219390827548,-250.0,0.12477602809667587,0.3392236348472215,1.6468669367217412,-3.141592653589793,-0.7397928995719911,-1.6955723548915727,0.0,0.0,0.0,0.0,0.0,0.0
0.4100000000000002,244.90557470106685,31.510821802362067,-250.0,0.1279621571302414,0.3378241634644096,1.6480129112844766,-3.141592653589793,-0.7389018489493268,-1.698758483925138,0.0,0.0,0.0,0.0,0.0,0.0
0.4200000000000002,244.64999346205786,32.27040033269499,-250.0,0.13114726543426514,0.336392708202178,1.6491845937577365,-3.141592653589793,-0.7379899890780283,-1.7019435922291617,0.0,0.0,0.0,0.0,0.0,0.0
0.4300000000000002,244.38833303083678,33.02790619551671,-250.0,0.13433130085468292,0.33492952522500924,1.650381734150901,-3.141592653589793,-0.7370574581344158,-1.7051276276495797,0.0,0.0,0.0,0.0,0.0,0.0
0.4400000000000002,244.12061021336407,33.78329073764116,-250.0,0.13751429319381714,0.3334347354172963,1.6516041917545012,-3.141592653589793,-0.7361043083055699,-1.708310619988714,0.0,0.0,0.0,0.0,0.0,0.0
0.45000000000000023,243.84684220497604,34.53650544213077,-250.0,0.14069616794586182,0.33190886476353043,1.6528514932493046,-3.141592653589793,-0.7351308504414293,-1.7114924947407586,0.0,0.0,0.0,0.0,0.0,0.0
0.46000000000000024,243.56704658928032,35.287501931412535,-250.0,0.14387691020965576,0.33035189780796,1.654123606662321,-3.141592653589793,-0.7341370504226734,-1.7146732370045525,0.0,0.0,0.0,0.0,0.0,0.0
0.47000000000000025,243.28124133702647,36.03623197038534,-250.0,0.14705650508403778,0.32876394517658875,1.655420395296181,-3.141592653589793,-0.7331229547177238,-1.7178528318789346,0.0,0.0,0.0,0.0,0.0,0.0
0.48000000000000026,242.98944480495177,36.78264746951786,-250.0,0.1502348929643631,0.32714555094594494,1.6567413671375208,-3.141592653589793,-0.7320888870611235,-1.7210312197592599,0.0,0.0,0.0,0.0,0.0,0.0
0.49000000000000027,242.69167573460217,37.52670048793741,-250.0,0.1534120887517929,0.3254969374769793,1.6580862916764338,-3.141592653589793,-0.7310349663169307,-1.7242084155466897,0.0,0.0,0.0,0.0,0.0,0.0
0.5000000000000002,242.38795325112866,38.26834323650898,-250.0,0.15658804774284363,0.32381810805548195,1.6594551155511403,-3.141592653589793,-0.7299611716472272,-1.7273843745377402,0.0,0.0,0.0,0.0,0.0,0.0
0.5100000000000002,242.07829686205883,39.007528080904684,-250.0,0.15976271033287048,0.32210942800108455,1.6608474886294298,-3.141592653589793,-0.7288677141494674,-1.730559037127767,0.0,0.0,0.0,0.0,0.0,0.0
0.5200000000000002,241.76272645604385,39.74420754466328,-250.0,0.16293609142303467,0.32037116131308924,1.6622631420939122,-3.141592653589793,-0.7277547407374234,-1.7337324182179312,0.0,0.0,0.0,0.0,0.0,0.0
0.5300000000000002,241.44126230158125,40.478334312239376,-250.0,0.1661081165075302,0.3186035470614147,1.663701826050973,-3.141592653589793,-0.7266223829505121,-1.736904443302427,0.0,0.0,0.0,0.0,0.0,0.0
0.5400000000000003,241.11392504571293,41.20986123204255,-250.0,0.1692788153886795,0.3168066832850234,1.6651634038790157,-3.141592653589793,-0.7254706825043155,-1.740075142183576,0.0,0.0,0.0,0.0,0.0,0.0
0.5500000000000003,240.7807357126992,41.93874131946568,-250.0,0.17244811356067657,0.314980950502392,1.6666475077053344,-3.141592653589793,-0.7242998627418993,-1.7432444403555734,0.0,0.0,0.0,0.0,0.0,0.0
0.5600000000000003,240.4417157026683,42.664927759902795,-250.0,0.17561601102352142,0.31312658673414157,1.6681538842713297,-3.141592653589793,-0.7231100563874985,-1.7464123378184182,0.0,0.0,0.0,0.0,0.0,0.0
0.5700000000000003,240.0968867902419,43.38837391175582,-250.0,0.17878244817256927,0.3112438382078369,1.669682272261713,-3.141592653589793,-0.7219014021020872,-1.7495787749674658,0.0,0.0,0.0,0.0,0.0,0.0
0.5800000000000003,239.74627112313675,44.10903330943027,-250.0,0.18194741010665894,0.3093327928961568,1.6712325373230004,-3.141592653589793,-0.7206739375731783,-1.7527437369015555,0.0,0.0,0.0,0.0,0.0,0.0
0.5900000000000003,239.38989122074196,44.826859666319706,-250.0,0.18511086702346802,0.3073938137479595,1.672804320542959,-3.141592653589793,-0.7194278777526225,-1.7559071938183646,0.0,0.0,0.0,0.0,0.0,0.0
0.6000000000000003,239.02776997267267,45.54180687777859,-250.0,0.18827280402183533,0.3054272523508803,1.6743972711303836,-3.141592653589793,-0.718163431184296,-1.7590691308167319,0.0,0.0,0.0,0.0,0.0,0.0
0.6100000000000003,238.65993063730002,46.25382902408353,-250.0,0.19143317639827728,0.3034330925643059,1.6760113347410759,-3.141592653589793,-0.7168805706893981,-1.7622295031931738,0.0,0.0,0.0,0.0,0.0,0.0
0.6200000000000003,238.2863968402571,46.962880373382575,-250.0,0.1945919394493103,0.3014116802493383,1.6776461623821288,-3.141592653589793,-0.7155795025761679,-1.765388266244207,0.0,0.0,0.0,0.0,0.0,0.0
0.6300000000000003,237.90719257292173,47.668915384632534,-250.0,0.1977490782737732,0.2993633571118705,1.679301407356669,-3.141592653589793,-0.7142604314041548,-1.76854540506867,0.0,0.0,0.0,0.0,0.0,0.0
0.6400000000000003,237.52234219087538,48.371888710523976,-250.0,0.20090457797050476,0.2972882042830126,1.680976932235669,-3.141592653589793,-0.7129233947357454,-1.7717009047654015,0.0,0.0,0.0,0.0,0.0,0.0
0.6500000000000004,237.13187041233894,49.07175520039379,-250.0,0.20405836403369904,0.29518658729978825,1.6826723685192913,-3.141592653589793,-0.7115686141241538,-1.7748546908285958,0.0,0.0,0.0,0.0,0.0,0.0
0.6600000000000004,236.73580231658508,49.76846990312512,-250.0,0.2072104513645172,0.29305869941026413,1.6843874855913916,-3.141592653589793,-0.7101962009673438,-1.7780067781594138,0.0,0.0,0.0,0.0,0.0,0.0
0.6700000000000004,236.3341633423275,50.46198807003456,-250.0,0.21036078035831451,0.2909046127601616,1.6861221489131468,-3.141592653589793,-0.7088061892715826,-1.7811571071532113,0.0,0.0,0.0,0.0,0.0,0.0
0.6800000000000004,235.92697928608703,51.15226515774617,-250.0,0.21350932121276855,0.2887248033460926,1.6878758974820103,-3.141592653589793,-0.7073988744866503,-1.7843056480076653,0.0,0.0,0.0,0.0,0.0,0.0
0.6900000000000004,235.51427630053462,51.839256831052495,-250.0,0.21665605902671814,0.2865192099112459,1.6896487013856833,-3.141592653589793,-0.7059742060972798,-1.787452385821615,0.0,0.0,0.0,0.0,0.0,0.0
0.7000000000000004,235.0960808928119,52.52291896576212,-250.0,0.21980096399784088,0.28428826511040556,1.6914401321813204,-3.141592653589793,-0.7045324533469522,-1.7905972907927377,0.0,0.0,0.0,0.0,0.0,0.0
0.7100000000000004,234.67241992282842,53.20320765153366,-250.0,0.222943976521492,0.2820321955617577,1.693249926065488,-3.141592653589793,-0.7030737533509381,-1.7937403033163886,0.0,0.0,0.0,0.0,0.0,0.0
0.7200000000000004,234.24332060153662,53.88007919469604,-250.0,0.22608508169651031,0.2797511486804043,1.6950778814941714,-3.141592653589793,-0.7015981928423949,-1.7968814084914069,0.0,0.0,0.0,0.0,0.0,0.0
0.7300000000000004,233.80881048918405,54.553490121054864,-250.0,0.22922423481941223,0.27744535978122065,1.6969237251734033,-3.141592653589793,-0.7001059162285416,-1.8000205616143088,0.0,0.0,0.0,0.0,0.0,0.0
0.7400000000000004,233.36891749354334,55.22339717868474,-250.0,0.23236140608787537,0.2751150998513408,1.6987871541957418,-3.141592653589793,-0.6985970919061741,-1.8031577328827721,0.0,0.0,0.0,0.0,0.0,0.0
0.7500000000000004,232.92366986811953,55.88975734070715,-250.0,0.23549658060073853,0.27276068527799824,1.7006678284630958,-3.141592653589793,-0.6970719186211352,-1.806292907395635,0.0,0.0,0.0,0.0,0.0,0.0
0.7600000000000005,232.47309621033557,56.5525278080541,-250.0,0.23862969875335693,0.2703820304453202,1.7025657277053166,-3.141592653589793,-0.6955303355124555,-1.8094260255482537,0.0,0.0,0.0,0.0,0.0,0.0
0.7700000000000005,232.0172254596956,57.21166601221696,-250.0,0.2417607456445694,0.2679794521985156,1.7044805089041037,-3.141592653589793,-0.6939725432425995,-1.812557072439466,0.0,0.0,0.0,0.0,0.0,0.0
0.7800000000000005,231.55608689592603,57.867129617980574,-250.0,0.24488967657089233,0.2655533402098858,1.7064117704134658,-3.141592653589793,-0.6923987907167023,-1.815686003365789,0.0,0.0,0.0,0.0,0.0,0.0
0.7900000000000005,231.08971013709512,58.518876526142364,-250.0,0.24801646173000336,0.26310362878047333,1.7083594720635369,-3.141592653589793,-0.6908090323285988,-1.8188127885249001,0.0,0.0,0.0,0.0,0.0,0.0
0.8000000000000005,230.61812513771056,59.16686487621634,-250.0,0.25114110112190247,0.26063070694055646,1.7103232107214865,-3.141592653589793,-0.6892035183165418,-1.821937427916799,0.0,0.0,0.0,0.0,0.0,0.0
0.8100000000000005,230.14136218679567,59.81105304912159,-250.0,0.2542634606361389,0.25813476885514913,1.7123027374237376,-3.141592653589793,-0.6875823733870775,-1.8250597874310357,0.0,0.0,0.0,0.0,0.0,0.0
0.8200000000000005,229.65945190594385,60.451399669855576,-250.0,0.2573835849761963,0.2556160464670998,1.714297772290756,-3.141592653589793,-0.6859457476414753,-1.828179911771093,0.0,0.0,0.0,0.0,0.0,0.0
0.8300000000000005,229.17242524735198,61.08786361015143,-250.0,0.2605014443397522,0.2530745748923828,1.7163081902150594,-3.141592653589793,-0.684293664087405,-1.8312977711346488,0.0,0.0,0.0,0.0,0.0,0.0
0.8400000000000005,228.6803134918322,61.72040399111957,-250.0,0.2636169493198395,0.25051075752337143,1.718333573727176,-3.141592653589793,-0.6826263859449265,-1.8344132761147363,0.0,0.0,0.0,0.0,0.0,0.0
0.8500000000000005,228.18314824680297,62.34898018587335,-250.0,0.26673009991645813,0.24792460007390313,1.720373818850521,-3.141592653589793,-0.6809439187156282,-1.837526426711355,0.0,0.0,0.0,0.0,0.0,0.0
0.8600000000000005,227.680961444259,62.97355182213836,-250.0,0.26984086632728577,0.24531635884455769,1.7224286226219834,-3.141592653589793,-0.6792464316561294,-1.8406371931221823,0.0,0.0,0.0,0.0,0.0,0.0
0.8700000000000006,227.1737853387202,63.59407878484551,-250.0,0.2729491889476776,0.24268619232330807,1.724497758387627,-3.141592653589793,-0.6775340312147984,-1.8437455157425744,0.0,0.0,0.0,0.0,0.0,0.0
0.8800000000000006,226.66165250516002,64.21052121870754,-250.0,0.2760550379753113,0.2400344330899358,1.7265808618481764,-3.141592653589793,-0.6758069380300975,-1.8468513647702078,0.0,0.0,0.0,0.0,0.0,0.0
0.8900000000000006,226.14459583691342,64.82283953077885,-250.0,0.2791583836078644,0.2373611109238757,1.7286778058975243,-3.141592653589793,-0.6740651763602354,-1.849954710402761,0.0,0.0,0.0,0.0,0.0,0.0
0.9000000000000006,225.62264854356403,65.43099439299841,-250.0,0.28225913643836975,0.23466647165443907,1.730788292822237,-3.141592653589793,-0.6723089119521829,-1.8530554632332665,0.0,0.0,0.0,0.0,0.0,0.0
0.9100000000000006,225.09584414881112,66.03494674471592,-250.0,0.28535738587379456,0.23195059899172824,1.7329121511166983,-3.141592653589793,-0.6705382056782794,-1.8561537126686911,0.0,0.0,0.0,0.0,0.0,0.0
0.9200000000000006,224.56421648831653,66.6346577952004,-250.0,0.28845295310020447,0.2292137588337665,1.7350490659111324,-3.141592653589793,-0.6687532379454608,-1.8592492798951012,0.0,0.0,0.0,0.0,0.0,0.0
0.9300000000000006,224.02779970753156,67.2300890261317,-250.0,0.2915458679199219,0.22645615260545882,1.737198772257339,-3.141592653589793,-0.6669541479315672,-1.8623421947148184,0.0,0.0,0.0,0.0,0.0,0.0
0.9400000000000006,223.48662825950356,67.82120219407447,-250.0,0.294636070728302,0.22367792964290908,1.739361045140349,-3.141592653589793,-0.6651410415898162,-1.8654323975231988,0.0,0.0,0.0,0.0,0.0,0.0
0.9500000000000006,222.94073690266342,68.4079593329346,-250.0,0.29772353172302246,0.22087903882485185,1.7415358143694017,-3.141592653589793,-0.6633138947163616,-1.8685198585179192,0.0,0.0,0.0,0.0,0.0,0.0
0.9600000000000006,222.39016069859292,68.99032275639748,-250.0,0.30080822110176086,0.21806004550505165,1.7437225301271078,-3.141592653589793,-0.6614730862886498,-1.8716045478966574,0.0,0.0,0.0,0.0,0.0,0.0
0.9700000000000006,221.83493500977275,69.56825506034863,-250.0,0.30389004945755005,0.21522061732300513,1.7459213386228494,-3.141592653589793,-0.6596184098442425,-1.8746863762524466,0.0,0.0,0.0,0.0,0.0,0.0
0.9800000000000006,221.27509549731144,70.14171912527615,-250.0,0.30696901679039,0.21236151198080175,1.7481315408456268,-3.141592653589793,-0.6577503715757673,-1.8777653435852866,0.0,0.0,0.0,0.0,0.0,0.0
0.9900000000000007,220.71067811865476,70.71067811865476,-250.0,0.3100450932979584,0.20948236159507544,1.7503533082253377,-3.141592653589793,-0.6558687430788406,-1.880841420092855,0.0,0.0,0.0,0.0,0.0,0.0
1.0000000000000007,220.14171912527613,71.27509549731147,-250.0,0.31311821937561035,0.20658358252068756,1.7525862051510719,-3.141592653589793,-0.6539738089993935,-1.883914546170507,0.0,0.0,0.0,0.0,0.0,0.0
1.0100000000000007,219.56825506034866,71.83493500977275,-250.0,0.31618836522102356,0.20366517744654528,1.7548301146486294,-3.141592653589793,-0.6520655843124984,-1.8869846920159201,0.0,0.0,0.0,0.0,0.0,0.0
1.0200000000000007,218.9903227563975,72.3901606985929,-250.0,0.31925544142723083,0.20072742979305483,1.7570847030748364,-3.141592653589793,-0.6501442681816358,-1.8900517682221274,0.0,0.0,0.0,0.0,0.0,0.0
1.0300000000000007,218.4079593329346,72.94073690266342,-250.0,0.3223194181919098,0.19777042002043185,1.7593497923239374,-3.141592653589793,-0.6482099277127326,-1.8931157449868063,0.0,0.0,0.0,0.0,0.0,0.0
1.0400000000000007,217.82120219407446,73.48662825950356,-250.0,0.3253803253173828,0.19479431112964893,1.761625140321434,-3.141592653589793,-0.6462626846174109,-1.8961766521122794,0.0,0.0,0.0,0.0,0.0,0.0
1.0500000000000007,217.23008902613168,74.02779970753156,-250.0,0.32843807339668274,0.19179921356592514,1.7639105446447747,-3.141592653589793,-0.6443026268398062,-1.8992344001915793,0.0,0.0,0.0,0.0,0.0,0.0
1.0600000000000007,216.63465779520038,74.56421648831656,-250.0,0.3314925730228424,0.1887852852934538,1.7662057660244925,-3.141592653589793,-0.6423298740214355,-1.902288899817739,0.0,0.0,0.0,0.0,0.0,0.0
1.0700000000000007,216.03494674471594,75.09584414881112,-250.0,0.33454379439353943,0.1857526998320816,1.7685105530026737,-3.141592653589793,-0.6403445565914178,-1.9053401211884362,0.0,0.0,0.0,0.0,0.0,0.0
1.0800000000000007,215.43099439299843,75.62264854356404,-250.0,0.3375917375087738,0.18270153556581636,1.770824725957076,-3.141592653589793,-0.6383467432780691,-1.9083880643036706,0.0,0.0,0.0,0.0,0.0,0.0
1.0900000000000007,214.82283953077885,76.14459583691344,-250.0,0.34063631296157837,0.17963192210610862,1.7731480657223029,-3.141592653589793,-0.6363365369038281,-1.911432639756475,0.0,0.0,0.0,0.0,0.0,0.0
1.1000000000000008,214.21052121870753,76.66165250516002,-250.0,0.34367749094963074,0.17654397279445663,1.775480364944886,-3.141592653589793,-0.6343140301888378,-1.9144738177445273,0.0,0.0,0.0,0.0,0.0,0.0
1.1100000000000008,213.59407878484552,77.17378533872017,-250.0,0.34671521186828613,0.1734377999191189,1.7778214165242536,-3.141592653589793,-0.6322793157004624,-1.917511538663183,0.0,0.0,0.0,0.0,0.0,0.0
1.1200000000000008,212.97355182213838,77.68096144425901,-250.0,0.34974950551986694,0.17031363612118394,1.7801709224273548,-3.141592653589793,-0.6302325653837388,-1.9205458323147635,0.0,0.0,0.0,0.0,0.0,0.0
1.1300000000000008,212.34898018587336,78.18314824680299,-250.0,0.35278022289276123,0.16717138367672638,1.7825288325542605,-3.141592653589793,-0.6281737352623769,-1.9235765496876578,0.0,0.0,0.0,0.0,0.0,0.0
1.1400000000000008,211.72040399111958,78.6803134918322,-250.0,0.3558073043823242,0.16401129856768673,1.7848948304089098,-3.141592653589793,-0.626103013590682,-1.926603631177221,0.0,0.0,0.0,0.0,0.0,0.0
1.1500000000000008,211.08786361015143,79.17242524735198,-250.0,0.3588307797908783,0.16083358903420056,1.7872686356447667,-3.141592653589793,-0.6240205578615369,-1.9296271065857749,0.0,0.0,0.0,0.0,0.0,0.0
1.1600000000000008,210.4513996698556,79.65945190594387,-250.0,0.3618505895137787,0.15763829293326012,1.7896500950070706,-3.141592653589793,-0.6219264143927316,-1.9326469163086752,0.0,0.0,0.0,0.0,0.0,0.0
1.1700000000000008,209.8110530491216,80.14136218679567,-250.0,0.3648666441440582,0.15442538470418102,1.7920391014482815,-3.141592653589793,-0.6198205883839154,-1.935662970938955,0.0,0.0,0.0,0.0,0.0,0.0
1.1800000000000008,209.16686487621632,80.61812513771055,-250.0,0.36787888407707214,0.15119518695315945,1.7944352886602521,-3.141592653589793,-0.6177033136957292,-1.938675210871969,0.0,0.0,0.0,0.0,0.0,0.0
1.1900000000000008,208.51887652614238,81.0897101370951,-250.0,0.37088724970817566,0.14794763853212212,1.7968385750359368,-3.141592653589793,-0.6155745730684108,-1.9416835765030724,0.0,0.0,0.0,0.0,0.0,0.0
1.2000000000000008,207.8671296179806,81.55608689592601,-250.0,0.37389177083969116,0.14468285069513315,1.7992487504074264,-3.141592653589793,-0.6134344627011606,-1.944688097634588,0.0,0.0,0.0,0.0,0.0,0.0
1.2100000000000009,207.21166601221697,82.01722545969558,-250.0,0.3768923282623291,0.14140107882395753,1.8016654982695812,-3.141592653589793,-0.61128317367987,-1.9476886550572259,0.0,0.0,0.0,0.0,0.0,0.0
1.2200000000000009,206.55252780805412,82.47309621033557,-250.0,0.3798889219760895,0.13810219505821095,1.8040887840792759,-3.141592653589793,-0.6091206462690536,-1.950685248770986,0.0,0.0,0.0,0.0,0.0,0.0
1.2300000000000009,205.88975734070718,82.9236698681195,-250.0,0.38288137316703796,0.1347864012224999,1.806518330021747,-3.141592653589793,-0.6069470372416702,-1.9536776999619345,0.0,0.0,0.0,0.0,0.0,0.0
1.2400000000000009,205.22339717868473,83.36891749354334,-250.0,0.38586974143981934,0.13145398569950498,1.8089537955589046,-3.141592653589793,-0.6047625604898417,-1.9566660682347161,0.0,0.0,0.0,0.0,0.0,0.0
1.2500000000000009,204.55349012105486,83.80881048918407,-250.0,0.38885393738746643,0.12810464105198954,1.811395275062244,-3.141592653589793,-0.6025670396994796,-1.9596502641823632,0.0,0.0,0.0,0.0,0.0,0.0
1.260000000000001,203.88007919469604,84.24332060153662,-250.0,0.39183396100997925,0.1247387011238119,1.813842393921223,-3.141592653589793,-0.6003607192870568,-1.962630287804876,0.0,0.0,0.0,0.0,0.0,0.0
1.270000000000001,203.20320765153366,84.67241992282842,-250.0,0.39480963349342346,0.12135617099248996,1.8162950171547356,-3.141592653589793,-0.5981436285029368,-1.9656059602883202,0.0,0.0,0.0,0.0,0.0,0.0
1.280000000000001,202.52291896576213,85.0960808928119,-250.0,0.39778101444244385,0.11795719582638707,1.8187529076646087,-3.141592653589793,-0.5959158887560987,-1.9685773412373406,0.0,0.0,0.0,0.0,0.0,0.0
1.290000000000001,201.83925683105252,85.51427630053462,-250.0,0.4007479250431061,0.11454195467855038,1.8212158041181357,-3.141592653589793,-0.5936776439720715,-1.9715442518380026,0.0,0.0,0.0,0.0,0.0,0.0
1.300000000000001,201.15226515774617,85.92697928608702,-250.0,0.40371042490005493,0.11111027052415738,1.8236837013711455,-3.141592653589793,-0.5914288050293726,-1.9745067516949515,0.0,0.0,0.0,0.0,0.0,0.0
1.310000000000001,200.46198807003458,86.33416334232751,-250.0,0.40666839480400085,0.1076623139504442,1.8261563429726235,-3.141592653589793,-0.5891695109288274,-1.9774647215988974,0.0,0.0,0.0,0.0,0.0,0.0
1.320000000000001,199.76846990312512,86.7358023165851,-250.0,0.40962180495262146,0.10419823650655229,1.828633486507653,-3.141592653589793,-0.5868998884652685,-1.9804181317475182,0.0,0.0,0.0,0.0,0.0,0.0
1.330000000000001,199.07175520039377,87.13187041233894,-250.0,0.4125705361366272,0.10071813145430311,1.8311149313894064,-3.141592653589793,-0.5846200265071674,-1.983366862931524,0.0,0.0,0.0,0.0,0.0,0.0
1.340000000000001,198.37188871052396,87.52234219087538,-250.0,0.41551458835601807,0.0972219418821425,1.8336005834388578,-3.141592653589793,-0.5823299157943485,-1.9863109151509148,0.0,0.0,0.0,0.0,0.0,0.0
1.350000000000001,197.66891538463256,87.90719257292172,-250.0,0.4184538722038269,0.093709843438722,1.836090182539711,-3.141592653589793,-0.580029699683851,-1.9892501989987237,0.0,0.0,0.0,0.0,0.0,0.0
1.360000000000001,196.96288037338257,88.28639684025708,-250.0,0.42138832807540894,0.09018176266882402,1.8385836451591187,-3.141592653589793,-0.5777193586919941,-1.9921846548703055,0.0,0.0,0.0,0.0,0.0,0.0
1.370000000000001,196.25382902408353,88.65993063730001,-250.0,0.4243178367614746,0.08663794719987489,1.8410806600400755,-3.141592653589793,-0.5753990837253232,-1.9951141635563714,0.0,0.0,0.0,0.0,0.0,0.0
1.380000000000001,195.5418068777786,89.02776997267267,-250.0,0.4272424578666687,0.08307835326391107,1.8435811217279783,-3.141592653589793,-0.5730688751478881,-1.9980387846615655,0.0,0.0,0.0,0.0,0.0,0.0
1.390000000000001,194.8268596663197,89.38989122074196,-250.0,0.4301619827747345,0.07950301247005305,1.846084870826004,-3.141592653589793,-0.570728782910682,-2.000958309569631,0.0,0.0,0.0,0.0,0.0,0.0
1.400000000000001,194.10903330943026,89.74627112313676,-250.0,0.433076411485672,0.07591214957959806,1.8485916127440793,-3.141592653589793,-0.56837898356493,-2.0038727382805686,0.0,0.0,0.0,0.0,0.0,0.0
1.410000000000001,193.38837391175582,90.09688679024191,-250.0,0.4359857141971588,0.07230550182323324,1.8511013927712372,-3.141592653589793,-0.5660193348317134,-2.0067820409920554,0.0,0.0,0.0,0.0,0.0,0.0
1.420000000000001,192.66492775990278,90.44171570266829,-250.0,0.438889741897583,0.06868349792684429,1.8536137741572836,-3.141592653589793,-0.5636501470562238,-2.0096860686924796,0.0,0.0,0.0,0.0,0.0,0.0
1.430000000000001,191.9387413194657,90.78073571269923,-250.0,0.4417884945869446,0.06504589630308513,1.8561287858876836,-3.141592653589793,-0.5612712922297486,-2.012584821381841,0.0,0.0,0.0,0.0,0.0,0.0
1.440000000000001,191.20986123204256,91.11392504571295,-250.0,0.444681853055954,0.06139287536466908,1.8586461650130888,-3.141592653589793,-0.5588829172501604,-2.0154781798508505,0.0,0.0,0.0,0.0,0.0,0.0
1.450000000000001,190.4783343122394,91.44126230158125,-250.0,0.44756972789764404,0.05772452807698249,1.861165708011939,-3.141592653589793,-0.5564851132432265,-2.0183660546925406,0.0,0.0,0.0,0.0,0.0,0.0
1.460000000000001,189.74420754466328,91.76272645604385,-250.0,0.45045211911201477,0.05404077733130944,1.8636873276695165,-3.141592653589793,-0.5540778603214932,-2.0212484459069113,0.0,0.0,0.0,0.0,0.0,0.0
1.470000000000001,189.00752808090468,92.07829686205883,-250.0,0.4533289074897766,0.05034182204284655,1.8662107473073242,-3.141592653589793,-0.5516613191194618,-2.024125234284673,0.0,0.0,0.0,0.0,0.0,0.0
1.480000000000001,188.268343236509,92.38795325112868,-250.0,0.4562000036239624,0.04662755564222633,1.868735898678063,-3.141592653589793,-0.5492354507936317,-2.026996330418859,0.0,0.0,0.0,0.0,0.0,0.0
1.490000000000001,187.5267004879374,92.69167573460219,-250.0,0.459065318107605,0.04289817343288647,1.8712625076256857,-3.141592653589793,-0.5468004137995599,-2.0298616449025015,0.0,0.0,0.0,0.0,0.0,0.0
1.500000000000001,186.78264746951785,92.98944480495176,-250.0,0.46192485094070435,0.03915352007003343,1.873790537419735,-3.141592653589793,-0.5443561377311004,-2.032721177735601,0.0,0.0,0.0,0.0,0.0,0.0
1.5100000000000011,186.03623197038536,93.28124133702647,-250.0,0.46477851271629333,0.03539373449368019,1.876319751498941,-3.141592653589793,-0.5419027444345456,-2.03557483951119,0.0,0.0,0.0,0.0,0.0,0.0
1.5200000000000011,185.28750193141255,93.56704658928034,-250.0,0.46762606501579285,0.03161894379424782,1.878849921846219,-3.141592653589793,-0.5394403480315431,-2.0384223918106894,0.0,0.0,0.0,0.0,0.0,0.0
1.5300000000000011,184.5365054421308,93.84684220497604,-250.0,0.47046762704849243,0.027828943760966344,1.8813810418256165,-3.141592653589793,-0.5369688466315733,-2.041263953843389,0.0,0.0,0.0,0.0,0.0,0.0
1.5400000000000011,183.78329073764115,94.12061021336406,-250.0,0.47330304980278015,0.024024107913191043,1.88391271839079,-3.141592653589793,-0.5344885151731211,-2.0440993765976767,0.0,0.0,0.0,0.0,0.0,0.0
1.5500000000000012,183.0279061955167,94.38833303083676,-250.0,0.47613224387168884,0.020204164151663328,1.8864449886774677,-3.141592653589793,-0.5319992076929055,-2.0469285706665854,0.0,0.0,0.0,0.0,0.0,0.0
1.5600000000000012,182.27040033269498,94.64999346205788,-250.0,0.47895506024360657,0.01636926880037486,1.8889776040282065,-3.141592653589793,-0.5295010575919391,-2.049751387038503,0.0,0.0,0.0,0.0,0.0,0.0
1.5700000000000012,181.51082180236207,94.90557470106687,-250.0,0.48177146911621094,0.012519420218234987,1.8915104203946562,-3.141592653589793,-0.5269940953452379,-2.0525677959111075,0.0,0.0,0.0,0.0,0.0,0.0
1.5800000000000012,180.74921939082756,95.15506033235833,-250.0,0.4845814108848572,0.008654790158029429,1.8940431796229353,-3.141592653589793,-0.5244784643330132,-2.0553777376797537,0.0,0.0,0.0,0.0,0.0,0.0
1.5900000000000012,179.98564201439117,95.3984343319364,-250.0,0.4873847961425781,0.0047752021837283234,1.8965758515078164,-3.141592653589793,-0.5219540812909247,-2.0581811229374747,0.0,0.0,0.0,0.0,0.0,0.0
1.6000000000000012,179.22013871620095,95.6356810683438,-250.0,0.49018150568008423,0.0008806813821447127,1.8991082726000328,-3.141592653589793,-0.5194209942208406,-2.060977832474981,0.0,0.0,0.0,0.0,0.0,0.0
1.6100000000000012,178.45275866310325,95.86678530366606,-250.0,0.49297142028808594,-0.0030285678016131433,1.9016401631196782,-3.141592653589793,-0.5168793677135227,-2.0637677470829825,0.0,0.0,0.0,0.0,0.0,0.0
1.6200000000000012,177.68355114248493,96.09173219450994,-250.0,0.49575451016426086,-0.006952661939456013,1.9041714514279078,-3.141592653589793,-0.5143291575732771,-2.0665508369591574,0.0,0.0,0.0,0.0,0.0,0.0
1.6300000000000012,176.9125655591077,96.31050729295704,-250.0,0.49853062629699707,-0.01089147662465518,1.9067019095361375,-3.141592653589793,-0.5117704762441906,-2.0693269530918936,0.0,0.0,0.0,0.0,0.0,0.0
1.6400000000000012,176.1398514319348,96.52309654749155,-250.0,0.5012996792793274,-0.0148451639546919,1.909231486681696,-3.141592653589793,-0.5092032565223423,-2.072096006074224,0.0,0.0,0.0,0.0,0.0,0.0
1.6500000000000012,175.36545839095075,96.72948630390293,-250.0,0.5040615797042847,-0.018813496188324688,1.9117598883583933,-3.141592653589793,-0.5066276778351257,-2.0748579064991812,0.0,0.0,0.0,0.0,0.0,0.0
1.6600000000000013,174.58943617397347,96.92966330616282,-250.0,0.5068163275718689,-0.02279664067318569,1.914287072018924,-3.141592653589793,-0.5040436630643118,-2.0776126543667655,0.0,0.0,0.0,0.0,0.0,0.0
1.6700000000000013,173.81183462345984,97.12361469727637,-250.0,0.5095636248588562,-0.0267945209968234,1.9168128390362096,-3.141592653589793,-0.5014512932788285,-2.0803599516537528,0.0,0.0,0.0,0.0,0.0,0.0
1.6800000000000013,173.03270368330436,97.31132802010822,-250.0,0.5123035907745361,-0.030806992262183773,1.9193369480141378,-3.141592653589793,-0.49885069378218244,-2.0830999175694327,0.0,0.0,0.0,0.0,0.0,0.0
1.6900000000000013,172.25209339563145,97.49279121818238,-250.0,0.5150359272956848,-0.03483420810269202,1.9218593451156545,-3.141592653589793,-0.49624179628902354,-2.0858322540905814,0.0,0.0,0.0,0.0,0.0,0.0
1.7000000000000013,171.47005389758115,97.6679926364567,-250.0,0.5177606344223022,-0.038876129244238875,1.9243798542014605,-3.141592653589793,-0.4936246575115076,-2.088556961217199,0.0,0.0,0.0,0.0,0.0,0.0
1.7100000000000013,170.68663541808908,97.83692102207154,-250.0,0.5204775929450989,-0.04293269400654154,1.9268982850970147,-3.141592653589793,-0.49099934852567134,-2.0912739197399954,0.0,0.0,0.0,0.0,0.0,0.0
1.7200000000000013,169.90188827466025,97.99956552507231,-250.0,0.5231866836547852,-0.04700389850536159,1.929414483373278,-3.141592653589793,-0.48836590285573955,-2.0939830104496817,0.0,0.0,0.0,0.0,0.0,0.0
1.7300000000000013,169.11586287013725,98.15591569910653,-250.0,0.5258877873420715,-0.051089773372496226,1.9319283152604299,-3.141592653589793,-0.48572433160361833,-2.096684114136968,0.0,0.0,0.0,0.0,0.0,0.0
1.7400000000000013,168.32860968946298,98.3059615020947,-250.0,0.5285807847976685,-0.05519022270746071,1.934439568761651,-3.141592653589793,-0.4830747275337567,-2.099377111592565,0.0,0.0,0.0,0.0,0.0,0.0
1.7500000000000013,167.5401792964382,98.44969329687525,-250.0,0.5312656164169312,-0.05930541433513577,1.9369481927966574,-3.141592653589793,-0.48041701287131494,-2.1020619432118277,0.0,0.0,0.0,0.0,0.0,0.0
1.7600000000000013,166.75062233047365,98.58710185182359,-250.0,0.5339421629905701,-0.0634351014203071,1.9394538828122463,-3.141592653589793,-0.47775137751447216,-2.1047384897854666,0.0,0.0,0.0,0.0,0.0,0.0
1.7700000000000014,165.95998950333794,98.71817834144503,-250.0,0.5366102457046509,-0.06757948001940349,1.9419566033480042,-3.141592653589793,-0.4750777252147939,-2.1074065724995474,0.0,0.0,0.0,0.0,0.0,0.0
1.7800000000000014,165.16833159590007,98.84291434694154,-250.0,0.539269745349884,-0.07173848955615683,1.9444561622754528,-3.141592653589793,-0.47239612525742475,-2.1100660721447806,0.0,0.0,0.0,0.0,0.0,0.0
1.7900000000000014,164.3756994548682,98.96130185675258,-250.0,0.5419206619262695,-0.0759120788886549,1.9469523732496579,-3.141592653589793,-0.46970664058231526,-2.112716988721166,0.0,0.0,0.0,0.0,0.0,0.0
1.8000000000000014,163.58214398952347,99.07333326706967,-250.0,0.5445627570152283,-0.08010034453694263,1.9494451376534483,-3.141592653589793,-0.4670092387879353,-2.115359083810125,0.0,0.0,0.0,0.0,0.0,0.0
1.8100000000000014,162.7877161684506,99.1790013823246,-250.0,0.5471958518028259,-0.08430311502116411,1.9519341968761337,-3.141592653589793,-0.46430405986186163,-2.1179921785977225,0.0,0.0,0.0,0.0,0.0,0.0
1.8200000000000014,161.99246701626407,99.27829941565186,-250.0,0.5498199462890625,-0.08852063805960736,1.9544195402102464,-3.141592653589793,-0.46159097372764996,-2.120616273083959,0.0,0.0,0.0,0.0,0.0,0.0
1.8300000000000014,161.19644761033078,99.37122098932427,-250.0,0.5524348616600037,-0.09275266546737938,1.9569008634634681,-3.141592653589793,-0.4588701691775513,-2.1232311884549,0.0,0.0,0.0,0.0,0.0,0.0
1.8400000000000014,160.3997090774898,99.45776013516279,-250.0,0.5550404787063599,-0.09699929916643454,1.9593780685856999,-3.141592653589793,-0.4561416094924149,-2.1258368055012564,0.0,0.0,0.0,0.0,0.0,0.0
1.8500000000000014,159.60230259076818,99.53791129491984,-250.0,0.5576366782188416,-0.10126053698769294,1.9618509955421546,-3.141592653589793,-0.4534053246694248,-2.128433005013738,0.0,0.0,0.0,0.0,0.0,0.0
1.8600000000000014,158.80427936609453,99.61166932063614,-250.0,0.5602232813835144,-0.10553647077802285,1.9643195379455716,-3.141592653589793,-0.4506612841124525,-2.1310196081784114,0.0,0.0,0.0,0.0,0.0,0.0
1.8700000000000014,158.00569065900936,99.67902947497157,-250.0,0.5628001689910889,-0.10982696845940623,1.966783459528176,-3.141592653589793,-0.4479096006511388,-2.1335964957859854,0.0,0.0,0.0,0.0,0.0,0.0
1.8800000000000014,157.206587761373,99.73998743150929,-250.0,0.5653672218322754,-0.11413208838420504,1.9692426336119193,-3.141592653589793,-0.44515026458450985,-2.136163548627172,0.0,0.0,0.0,0.0,0.0,0.0
1.8900000000000015,156.4070219980713,99.79453927503364,-250.0,0.5679242014884949,-0.1184517669414887,1.9716968631974856,-3.141592653589793,-0.4423833440848887,-2.1387205282833914,0.0,0.0,0.0,0.0,0.0,0.0
1.9000000000000015,155.60704472371916,99.84268150178166,-250.0,0.5704711675643921,-0.122786222417396,1.9741461104276932,-3.141592653589793,-0.43960872649470917,-2.1412674943592886,0.0,0.0,0.0,0.0,0.0,0.0
1.9100000000000015,154.8067073193621,99.8844110196681,-250.0,0.5730077624320984,-0.12713522113775147,1.9765900809585417,-3.141592653589793,-0.43682658820233977,-2.143804089226995,0.0,0.0,0.0,0.0,0.0,0.0
1.9200000000000015,154.00606118917594,99.91972514848396,-250.0,0.5755338668823242,-0.13149891158610152,1.9790286958302619,-3.141592653589793,-0.43403686061143765,-2.1463301936772208,0.0,0.0,0.0,0.0,0.0,0.0
1.9300000000000015,153.20515775716552,99.94862162006879,-250.0,0.5780494809150696,-0.13587719206258264,1.9814617350998927,-3.141592653589793,-0.4312396347808947,-2.148845807709966,0.0,0.0,0.0,0.0,0.0,0.0
1.9400000000000015,152.40404846386173,99.97109857845619,-250.0,0.5805542469024658,-0.1402700516381174,1.9838890296303326,-3.141592653589793,-0.4284349432695565,-2.1513505736973624,0.0,0.0,0.0,0.0,0.0,0.0
1.9500000000000015,151.60278476301738,99.98715457999313,-250.0,0.5830481648445129,-0.14467775210881031,1.9863105593426016,-3.141592653589793,-0.42562264425418805,-2.1538444916394095,0.0,0.0,0.0,0.0,0.0,0.0
1.9600000000000015,150.80141811830276,99.99678859343263,-250.0,0.5855309963226318,-0.1490999712698716,1.988725982289887,-3.141592653589793,-0.42280296817492335,-2.1563273231175284,0.0,0.0,0.0,0.0,0.0,0.0
1.9700000000000015,150.0,100.0,-250.0,0.588002622127533,-0.15353687950151285,1.9911352268472056,-3.141592653589793,-0.4199758307142953,-2.1587989489224295,0.0,0.0,0.0,0.0,0.0,0.0
1.9800000000000015,149.19858188169724,99.99678859343263,-250.0,0.5904628038406372,-0.157988568499219,1.9935381763825601,-3.141592653589793,-0.4171411974734696,-2.1612591306355338,0.0,0.0,0.0,0.0,0.0,0.0
1.9900000000000015,148.39721523698262,99.98715457999313,-250.0,0.592911422252655,-0.16245481262213105,1.9959345428453816,-3.141592653589793,-0.4142992355948285,-2.1637077490475516,0.0,0.0,0.0,0.0,0.0,0.0
2.0000000000000013,147.5959515361383,99.97109857845619,-250.0,0.5953483581542969,-0.16693584410556067,1.99832428408159,-3.141592653589793,-0.41144982027672056,-2.1661446849491934,0.0,0.0,0.0,0.0,0.0,0.0
2.010000000000001,146.79484224283448,99.94862162006879,-250.0,0.5977733135223389,-0.1714315391437037,2.0007071663051357,-3.141592653589793,-0.40859305277827845,-2.1685696403172354,0.0,0.0,0.0,0.0,0.0,0.0
2.020000000000001,145.9939388108241,99.91972514848396,-250.0,0.6001861095428467,-0.17594201829925593,2.0030830851995787,-3.141592653589793,-0.405728878489665,-2.1709824363377432,0.0,0.0,0.0,0.0,0.0,0.0
2.0300000000000007,145.19329268063794,99.8844110196681,-250.0,0.6025867462158203,-0.18046708305902368,2.005451767893266,-3.141592653589793,-0.4028574448685679,-2.173383073010717,0.0,0.0,0.0,0.0,0.0,0.0
2.0400000000000005,144.39295527628082,99.84268150178166,-250.0,0.6049748063087463,-0.18500701928251276,2.0078131948155953,-3.141592653589793,-0.3999785914114194,-2.175771133103643,0.0,0.0,0.0,0.0,0.0,0.0
2.0500000000000003,143.5929780019287,99.79453927503364,-250.0,0.60735023021698,-0.18956165099676703,2.010167104213437,-3.141592653589793,-0.39709245008514255,-2.1781465570118765,0.0,0.0,0.0,0.0,0.0,0.0
2.06,142.79341223862704,99.73998743150929,-250.0,0.6097128987312317,-0.19413100667932517,2.012513340849172,-3.141592653589793,-0.39419902252012007,-2.1805092255261282,0.0,0.0,0.0,0.0,0.0,0.0
2.07,141.99430934099067,99.67902947497157,-250.0,0.612062394618988,-0.19871508208101873,2.0148517319990016,-3.141592653589793,-0.3912983304741991,-2.1828587214138846,0.0,0.0,0.0,0.0,0.0,0.0
2.0799999999999996,141.19572063390547,99.61166932063614,-250.0,0.614398717880249,-0.20331392525527475,2.0171821309464617,-3.141592653589793,-0.38839036199237686,-2.1851950446751456,0.0,0.0,0.0,0.0,0.0,0.0
2.0899999999999994,140.39769740923182,99.53791129491984,-250.0,0.616721510887146,-0.2079276253671414,2.019504410480735,-3.141592653589793,-0.3854750785733519,-2.1875178376820426,0.0,0.0,0.0,0.0,0.0,0.0
2.099999999999999,139.60029092251023,99.45776013516279,-250.0,0.6190306544303894,-0.21255598847390858,2.021818300651861,-3.141592653589793,-0.38255261988888783,-2.189826981225286,0.0,0.0,0.0,0.0,0.0,0.0
2.109999999999999,138.80355238966922,99.37122098932427,-250.0,0.6213259696960449,-0.21719913340828023,2.0241236884550777,-3.141592653589793,-0.3796229272723505,-2.1921222964909415,0.0,0.0,0.0,0.0,0.0,0.0
2.1199999999999988,138.00753298373596,99.27829941565186,-250.0,0.6236071586608887,-0.2218571479637851,2.0264204435372104,-3.141592653589793,-0.3766859611086084,-2.1944034854557852,0.0,0.0,0.0,0.0,0.0,0.0
2.1299999999999986,137.2122838315494,99.17900138232461,-250.0,0.6258740425109863,-0.22652995139880747,2.0287083516317277,-3.141592653589793,-0.373741787343024,-2.196670369305883,0.0,0.0,0.0,0.0,0.0,0.0
2.1399999999999983,136.41785601047656,99.07333326706967,-250.0,0.6281263828277588,-0.23121744260961566,2.0309871892512468,-3.141592653589793,-0.3707904838196484,-2.1989227096226553,0.0,0.0,0.0,0.0,0.0,0.0
2.149999999999998,135.62430054513186,98.9613018567526,-250.0,0.6303640007972717,-0.23591986657768252,2.0332569002866743,-3.141592653589793,-0.36783190974199725,-2.2011603275921683,0.0,0.0,0.0,0.0,0.0,0.0
2.159999999999998,134.83166840409993,98.84291434694154,-250.0,0.6325865387916565,-0.24063708040919518,2.0355172395481325,-3.141592653589793,-0.3648661677139478,-2.203382865586553,0.0,0.0,0.0,0.0,0.0,0.0
2.1699999999999977,134.0400104966621,98.71817834144503,-250.0,0.6347938776016235,-0.24536904970406093,2.037768014782553,-3.141592653589793,-0.3618932911049889,-2.20559020439652,0.0,0.0,0.0,0.0,0.0,0.0
2.1799999999999975,133.24937766952635,98.58710185182359,-250.0,0.6369857788085938,-0.25011581879036276,2.040009070773319,-3.141592653589793,-0.35891326295280224,-2.2077821056034903,0.0,0.0,0.0,0.0,0.0,0.0
2.1899999999999973,132.45982070356183,98.44969329687525,-250.0,0.6391618847846985,-0.2548774020887895,2.0422402372327415,-3.141592653589793,-0.3559260842454682,-2.209958211579595,0.0,0.0,0.0,0.0,0.0,0.0
2.199999999999997,131.67139031053705,98.3059615020947,-250.0,0.6413220763206482,-0.2596538706826734,2.0444613694274807,-3.141592653589793,-0.3529317195785278,-2.2121184031155448,0.0,0.0,0.0,0.0,0.0,0.0
2.209999999999997,130.88413712986278,98.15591569910654,-250.0,0.6434659361839294,-0.26444506282093405,2.046672214090676,-3.141592653589793,-0.349930278548003,-2.214262262978826,0.0,0.0,0.0,0.0,0.0,0.0
2.2199999999999966,130.09811172533978,97.99956552507233,-250.0,0.6455934047698975,-0.2692511419427374,2.0488726680827694,-3.141592653589793,-0.34692166600403385,-2.216389731564794,0.0,0.0,0.0,0.0,0.0,0.0
2.2299999999999964,129.31336458191095,97.83692102207154,-250.0,0.647704005241394,-0.27407198176641906,2.051062494328093,-3.141592653589793,-0.3439059672767249,-2.2185003320362906,0.0,0.0,0.0,0.0,0.0,0.0
2.239999999999996,128.52994610241885,97.66799263645672,-250.0,0.6497975587844849,-0.2789076141253279,2.0532415280329874,-3.141592653589793,-0.3408831676571836,-2.2205938855793814,0.0,0.0,0.0,0.0,0.0,0.0
2.249999999999996,127.74790660436855,97.49279121818238,-250.0,0.6518738865852356,-0.2837580902554448,2.0554096120686394,-3.141592653589793,-0.33785323934177136,-2.222670213380132,0.0,0.0,0.0,0.0,0.0,0.0
2.259999999999996,126.96729631669565,97.31132802010822,-250.0,0.6539325714111328,-0.28862339616714006,2.0575665592412977,-3.141592653589793,-0.3348161942562293,-2.2247288982060294,0.0,0.0,0.0,0.0,0.0,0.0
2.2699999999999956,126.18816537654018,97.12361469727638,-250.0,0.6559733152389526,-0.29350342058273515,2.059712139437878,-3.141592653589793,-0.3317721038779374,-2.226769642033849,0.0,0.0,0.0,0.0,0.0,0.0
2.2799999999999954,125.41056382602656,96.92966330616282,-250.0,0.6579959392547607,-0.298398237535938,2.0618462041024577,-3.141592653589793,-0.32872092290040866,-2.2287922660496573,0.0,0.0,0.0,0.0,0.0,0.0
2.289999999999995,124.63454160904926,96.72948630390295,-250.0,0.6600000262260437,-0.3033077904878026,2.063968546844932,-3.141592653589793,-0.3256626863101416,-2.2307963530209403,0.0,0.0,0.0,0.0,0.0,0.0
2.299999999999995,123.86014856806521,96.52309654749156,-250.0,0.6619853377342224,-0.3082321584723579,2.0660790194177285,-3.141592653589793,-0.32259734346150876,-2.232781664529119,0.0,0.0,0.0,0.0,0.0,0.0
2.3099999999999947,123.08743444089234,96.31050729295706,-250.0,0.6639515161514282,-0.3131712047079345,2.068177380551961,-3.141592653589793,-0.31952497684780756,-2.234747842946325,0.0,0.0,0.0,0.0,0.0,0.0
2.3199999999999945,122.31644885751508,96.09173219450996,-250.0,0.6658982038497925,-0.3181249691812332,2.0702634645654197,-3.141592653589793,-0.31644555765331056,-2.236694530644689,0.0,0.0,0.0,0.0,0.0,0.0
2.3299999999999943,121.54724133689676,95.86678530366608,-250.0,0.6678251624107361,-0.32309355757995717,2.072337131900395,-3.141592653589793,-0.3133590150721407,-2.2386214892056326,0.0,0.0,0.0,0.0,0.0,0.0
2.339999999999994,120.77986128379906,95.63568106834381,-250.0,0.6697320342063904,-0.32807671621594714,2.074398092862456,-3.141592653589793,-0.31026550021039073,-2.240528361001287,0.0,0.0,0.0,0.0,0.0,0.0
2.349999999999994,120.01435798560885,95.3984343319364,-250.0,0.6716184616088867,-0.33307451656685483,2.076446193633718,-3.141592653589793,-0.3071649607765519,-2.2424147884037833,0.0,0.0,0.0,0.0,0.0,0.0
2.3599999999999937,119.25078060917247,95.15506033235835,-250.0,0.6734840869903564,-0.3380870467487545,2.0784812854322916,-3.141592653589793,-0.3040573329383857,-2.244280413785253,0.0,0.0,0.0,0.0,0.0,0.0
2.3699999999999934,118.48917819763794,94.90557470106688,-250.0,0.6753284931182861,-0.3431140671646441,2.0805030863340526,-3.141592653589793,-0.30094275460191217,-2.2461248199131827,0.0,0.0,0.0,0.0,0.0,0.0
2.3799999999999932,117.72959966730504,94.64999346205789,-250.0,0.6771515011787415,-0.3481557705480767,2.082511488841702,-3.141592653589793,-0.2978210942804616,-2.247947827973638,0.0,0.0,0.0,0.0,0.0,0.0
2.389999999999993,116.97209380448331,94.38833303083676,-250.0,0.6789525747299194,-0.3532119661992013,2.0845062313199656,-3.141592653589793,-0.2946924565352633,-2.249748901524816,0.0,0.0,0.0,0.0,0.0,0.0
2.399999999999993,116.21670926235883,94.12061021336406,-250.0,0.6807312965393066,-0.35828267693736077,2.0864871374104434,-3.141592653589793,-0.2915568121604838,-2.251527623334203,0.0,0.0,0.0,0.0,0.0,0.0
2.4099999999999926,115.46349455786925,93.84684220497606,-250.0,0.6824873685836792,-0.36336793760648417,2.088454034355413,-3.141592653589793,-0.28841412305256814,-2.2532836953785758,0.0,0.0,0.0,0.0,0.0,0.0
2.4199999999999924,114.71249806858746,93.56704658928034,-250.0,0.6842204332351685,-0.36846754524119285,2.0904066575673896,-3.141592653589793,-0.28526449645377655,-2.255016760030065,0.0,0.0,0.0,0.0,0.0,0.0
2.429999999999992,113.96376802961467,93.28124133702649,-250.0,0.685930073261261,-0.3735815524306714,2.0923448412701093,-3.141592653589793,-0.28210788003909265,-2.2567264000561575,0.0,0.0,0.0,0.0,0.0,0.0
2.439999999999992,113.21735253048215,92.98944480495177,-250.0,0.6876157522201538,-0.3787098845803026,2.094268370687586,-3.141592653589793,-0.2789442983933249,-2.2584120790150504,0.0,0.0,0.0,0.0,0.0,0.0
2.4499999999999917,112.47329951206261,92.69167573460219,-250.0,0.689277172088623,-0.38385259297564694,2.0961770779445392,-3.141592653589793,-0.27577369677094954,-2.2600734988835196,0.0,0.0,0.0,0.0,0.0,0.0
2.4599999999999915,111.73165676349103,92.38795325112869,-250.0,0.6909137964248657,-0.3890094386122275,2.09807068756999,-3.141592653589793,-0.27259619764478243,-2.2617101232197623,0.0,0.0,0.0,0.0,0.0,0.0
2.4699999999999913,110.99247191909531,92.07829686205883,-250.0,0.692525327205658,-0.39418053486865867,2.0999490543952555,-3.141592653589793,-0.26941170450453644,-2.2633216540005545,0.0,0.0,0.0,0.0,0.0,0.0
2.479999999999991,110.25579245533673,91.76272645604388,-250.0,0.694111168384552,-0.399365712336353,2.101811929615775,-3.141592653589793,-0.2662202932603043,-2.2649074951794486,0.0,0.0,0.0,0.0,0.0,0.0
2.489999999999991,109.52166568776062,91.44126230158126,-250.0,0.6956709027290344,-0.4045649877004823,2.103659132045332,-3.141592653589793,-0.26302192337556957,-2.266467229523931,0.0,0.0,0.0,0.0,0.0,0.0
2.4999999999999907,108.79013876795746,91.11392504571296,-250.0,0.697204053401947,-0.4097782060778253,2.1054904194595156,-3.141592653589793,-0.2598166579851387,-2.2680003801968436,0.0,0.0,0.0,0.0,0.0,0.0
2.5099999999999905,108.06125868053432,90.78073571269923,-250.0,0.6987102031707764,-0.41500534303279485,2.107305596286704,-3.141592653589793,-0.25660447804075487,-2.269506529965673,0.0,0.0,0.0,0.0,0.0,0.0
2.5199999999999902,107.33507224009722,90.4417157026683,-250.0,0.7001886963844299,-0.42024628480491577,2.109104435976966,-3.141592653589793,-0.25338541743612275,-2.2709850231793265,0.0,0.0,0.0,0.0,0.0,0.0
2.52999999999999,106.61162608824418,90.09688679024191,-250.0,0.7016391754150391,-0.4255010915252142,2.1108867715289272,-3.141592653589793,-0.25015940128404385,-2.2724355022099356,0.0,0.0,0.0,0.0,0.0,0.0
2.53999999999999,105.89096669056975,89.74627112313678,-250.0,0.7030611038208008,-0.4307694655893964,2.112652314860751,-3.141592653589793,-0.2469265722809527,-2.2738574306156973,0.0,0.0,0.0,0.0,0.0,0.0
2.5499999999999896,105.17314033368031,89.38989122074196,-250.0,0.7044538855552673,-0.4360514319601131,2.1144008878890874,-3.141592653589793,-0.2436868729983216,-2.275250212350164,0.0,0.0,0.0,0.0,0.0,0.0
2.5599999999999894,104.45819312222143,89.0277699726727,-250.0,0.7058170437812805,-0.441346902289853,2.1161322743088546,-3.141592653589793,-0.24044031346705683,-2.276613370576177,0.0,0.0,0.0,0.0,0.0,0.0
2.569999999999989,103.74617097591648,88.65993063730002,-250.0,0.7071499228477478,-0.44665571069030846,2.1178462333556176,-3.141592653589793,-0.23718694907350954,-2.2779462496426444,0.0,0.0,0.0,0.0,0.0,0.0
2.579999999999989,103.03711962661743,88.2863968402571,-250.0,0.7084521055221558,-0.4519778771883564,2.1195425848086087,-3.141592653589793,-0.23392671907732782,-2.2792484323170523,0.0,0.0,0.0,0.0,0.0,0.0
2.5899999999999888,102.33108461536747,87.90719257292173,-250.0,0.7097228169441223,-0.45731310759409094,2.121221048820706,-3.141592653589793,-0.23065975299476282,-2.280519143739019,0.0,0.0,0.0,0.0,0.0,0.0
2.5999999999999885,101.62811128947602,87.52234219087538,-250.0,0.7109615802764893,-0.4626614495251922,2.1228814547014725,-3.141592653589793,-0.22738596871680816,-2.281757907071386,0.0,0.0,0.0,0.0,0.0,0.0
2.6099999999999883,100.92824479960625,87.13187041233896,-250.0,0.7121678590774536,-0.46802260189384404,2.1245235237331244,-3.141592653589793,-0.2241054953073754,-2.28296418587235,0.0,0.0,0.0,0.0,0.0,0.0
2.619999999999988,100.23153009687488,86.73580231658511,-250.0,0.7133408784866333,-0.47339665013525795,2.1261470970653242,-3.141592653589793,-0.22081822297711196,-2.28413720528153,0.0,0.0,0.0,0.0,0.0,0.0
2.629999999999988,99.53801192996548,86.33416334232754,-250.0,0.7144800424575806,-0.4787833982347049,2.1277519297566125,-3.141592653589793,-0.2175242117280117,-2.285276369252477,0.0,0.0,0.0,0.0,0.0,0.0
2.6399999999999877,98.84773484225384,85.92697928608703,-250.0,0.7155847549438477,-0.48418253853333276,2.1293377464818244,-3.141592653589793,-0.21422358740999853,-2.286381081738744,0.0,0.0,0.0,0.0,0.0,0.0
2.6499999999999875,98.16074316894749,85.51427630053462,-250.0,0.7166542410850525,-0.48959405956712415,2.130904360882383,-3.141592653589793,-0.21091629229926895,-2.287450567879949,0.0,0.0,0.0,0.0,0.0,0.0
2.6599999999999873,97.47708103423788,85.09608089281191,-250.0,0.7176879048347473,-0.49501782855554843,2.132451551107038,-3.141592653589793,-0.2076023403998871,-2.288484231629644,0.0,0.0,0.0,0.0,0.0,0.0
2.669999999999987,96.79679234846634,84.67241992282842,-250.0,0.7186850309371948,-0.5004536710209972,2.1339790845469517,-3.141592653589793,-0.20428176868579992,-2.2894813577320914,0.0,0.0,0.0,0.0,0.0,0.0
2.679999999999987,96.11992080530399,84.24332060153665,-250.0,0.7196449041366577,-0.5059013097702094,2.1354867019344215,-3.141592653589793,-0.20095467430911826,-2.2904412309315543,0.0,0.0,0.0,0.0,0.0,0.0
2.6899999999999866,95.44650987894512,83.80881048918408,-250.0,0.7205666303634644,-0.5113607029696486,2.136974210850984,-3.141592653589793,-0.19762100807630667,-2.291362957158361,0.0,0.0,0.0,0.0,0.0,0.0
2.6999999999999864,94.77660282131528,83.36891749354336,-250.0,0.7214497327804565,-0.5168315511823355,2.138441349753717,-3.141592653589793,-0.19428087560849114,-2.292246059575353,0.0,0.0,0.0,0.0,0.0,0.0
2.709999999999986,94.11024265929285,82.92366986811953,-250.0,0.7222931385040283,-0.5223137850423155,2.1398879206676473,-3.141592653589793,-0.19093423931103454,-2.293089465298925,0.0,0.0,0.0,0.0,0.0,0.0
2.719999999999986,93.44747219194588,82.47309621033558,-250.0,0.7230963110923767,-0.527807054917261,2.1413136531819577,-3.141592653589793,-0.18758123008609626,-2.2938926378872733,0.0,0.0,0.0,0.0,0.0,0.0
2.7299999999999858,92.78833398778305,82.01722545969561,-250.0,0.7238582968711853,-0.5333112680877572,2.142718346315714,-3.141592653589793,-0.18422181934078194,-2.294654623666082,0.0,0.0,0.0,0.0,0.0,0.0
2.7399999999999856,92.13287038201942,81.55608689592603,-250.0,0.7245782613754272,-0.5388262242637348,2.1441017722711777,-3.141592653589793,-0.1808560414676711,-2.295374588170324,0.0,0.0,0.0,0.0,0.0,0.0
2.7499999999999853,91.48112347385765,81.08971013709512,-250.0,0.7252554297447205,-0.5443516034442515,2.1454636757667727,-3.141592653589793,-0.17748400121123895,-2.296051756539617,0.0,0.0,0.0,0.0,0.0,0.0
2.759999999999985,90.83313512378368,80.61812513771056,-250.0,0.7258888483047485,-0.5498871901250324,2.1468038304130563,-3.141592653589793,-0.1741057368221487,-2.296685175099645,0.0,0.0,0.0,0.0,0.0,0.0
2.769999999999985,90.18894695087842,80.1413621867957,-250.0,0.7264776229858398,-0.5554327240239579,2.1481220017352913,-3.141592653589793,-0.17072131139298072,-2.2972739497807364,0.0,0.0,0.0,0.0,0.0,0.0
2.7799999999999847,89.54860033014442,79.65945190594388,-250.0,0.7270208597183228,-0.5609880581321226,2.1494179827573916,-3.141592653589793,-0.16733071547174524,-2.2978171865132193,0.0,0.0,0.0,0.0,0.0,0.0
2.7899999999999845,88.91213638984857,79.17242524735198,-250.0,0.7275175452232361,-0.5665528095254176,2.150691514926986,-3.141592653589793,-0.16393408143323915,-2.2983138720181326,0.0,0.0,0.0,0.0,0.0,0.0
2.7999999999999843,88.27959600888045,78.68031349183221,-250.0,0.727966845035553,-0.5721267136238668,2.1519423704314855,-3.141592653589793,-0.16053146650254355,-2.2987631718304495,0.0,0.0,0.0,0.0,0.0,0.0
2.809999999999984,87.65101981412666,78.183148246803,-250.0,0.7283676862716675,-0.5777095596203727,2.1531703358402314,-3.141592653589793,-0.15712289231590898,-2.299164013066564,0.0,0.0,0.0,0.0,0.0,0.0
2.819999999999984,87.02644817786165,77.68096144425903,-250.0,0.7287189960479736,-0.5833009601147827,2.1543751617390376,-3.141592653589793,-0.1537084855729401,-2.29951532284287,0.0,0.0,0.0,0.0,0.0,0.0
2.8299999999999836,86.40592121515449,77.1737853387202,-250.0,0.729019820690155,-0.5889006365238697,2.155556626229787,-3.141592653589793,-0.15028830380168676,-2.299816147485052,0.0,0.0,0.0,0.0,0.0,0.0
2.8399999999999834,85.78947878129247,76.66165250516005,-250.0,0.7292690277099609,-0.5945082888040585,2.1567145058466095,-3.141592653589793,-0.1468624148953027,-2.3000653545048575,0.0,0.0,0.0,0.0,0.0,0.0
2.849999999999983,85.17716046922118,76.14459583691347,-250.0,0.7294655442237854,-0.6001236242415947,2.157848581750741,-3.141592653589793,-0.14343087953633266,-2.300261871018682,0.0,0.0,0.0,0.0,0.0,0.0
2.859999999999983,84.56900560700157,75.62264854356404,-250.0,0.7296082973480225,-0.6057461307691951,2.158958595288395,-3.141592653589793,-0.13999388978874056,-2.300404624142919,0.0,0.0,0.0,0.0,0.0,0.0
2.869999999999983,83.96505325528408,75.09584414881115,-250.0,0.7296959757804871,-0.6113756903700991,2.160044369860368,-3.141592653589793,-0.13655139418024703,-2.3004923025753836,0.0,0.0,0.0,0.0,0.0,0.0
2.8799999999999826,83.3653422047996,74.56421648831657,-250.0,0.729727566242218,-0.6170117583289143,2.16110564922827,-3.141592653589793,-0.1331035994599015,-2.3005238930371146,0.0,0.0,0.0,0.0,0.0,0.0
2.8899999999999824,82.76991097386833,74.02779970753159,-250.0,0.7297017574310303,-0.6226539372633578,2.1621422113830073,-3.141592653589793,-0.12965061975661835,-2.300498084225927,0.0,0.0,0.0,0.0,0.0,0.0
2.899999999999982,82.17879780592551,73.48662825950358,-250.0,0.7296172976493835,-0.628302014728206,2.1631538717949472,-3.141592653589793,-0.12619245340231272,-2.30041362444428,0.0,0.0,0.0,0.0,0.0,0.0
2.909999999999982,81.59204066706542,72.94073690266343,-250.0,0.7294729351997375,-0.6339553481947359,2.1641403732119016,-3.141592653589793,-0.12272935952104154,-2.300269261994634,0.0,0.0,0.0,0.0,0.0,0.0
2.9199999999999817,81.00967724360252,72.39016069859291,-250.0,0.7292673587799072,-0.6396136570270889,2.1651015282724035,-3.141592653589793,-0.11926137320975409,-2.300063685574804,0.0,0.0,0.0,0.0,0.0,0.0
2.9299999999999815,80.43174493965135,71.83493500977276,-250.0,0.728999137878418,-0.6452764952111661,2.1660371252034536,-3.141592653589793,-0.11578862842677448,-2.2997954646733145,0.0,0.0,0.0,0.0,0.0,0.0
2.9399999999999813,79.85828087472385,71.27509549731148,-250.0,0.7286669611930847,-0.6509433496121556,2.1669469471824017,-3.141592653589793,-0.11231129801118295,-2.2994632879879813,0.0,0.0,0.0,0.0,0.0,0.0
2.949999999999981,79.28932188134524,70.71067811865477,-250.0,0.7282694578170776,-0.6566138333780552,2.1678308035815523,-3.141592653589793,-0.10882947508070735,-2.299065784611974,0.0,0.0,0.0,0.0,0.0,0.0
2.959999999999981,78.72490450268856,70.14171912527618,-250.0,0.7278050184249878,-0.6622873500170333,2.1686884769936223,-3.141592653589793,-0.10534337931073619,-2.2986013452198844,0.0,0.0,0.0,0.0,0.0,0.0
2.9699999999999807,78.16506499022724,69.56825506034865,-250.0,0.7272722721099854,-0.6679635583258645,2.169519795144546,-3.141592653589793,-0.10185307147039385,-2.298068598904882,0.0,0.0,0.0,0.0,0.0,0.0
2.9799999999999804,77.60983930140712,68.99032275639752,-250.0,0.7266697287559509,-0.6736417315407365,2.170324535541628,-3.141592653589793,-0.09835884742076667,-2.2974660555508475,0.0,0.0,0.0,0.0,0.0,0.0
2.9899999999999802,77.05926309733658,68.40795933293462,-250.0,0.7259956002235413,-0.6793215212253876,2.17110253742165,-3.141592653589793,-0.09486076848344911,-2.296791927018438,0.0,0.0,0.0,0.0,0.0,0.0
2.99999999999998,76.51337174049644,67.82120219407449,-250.0,0.7252484560012817,-0.6850022736981549,2.1718536040032714,-3.141592653589793,-0.09135908210371164,-2.2960447827961783,0.0,0.0,0.0,0.0,0.0,0.0
3.00999999999998,75.97220029246846,67.23008902613171,-250.0,0.7244265675544739,-0.6906835173547077,2.1725775706927792,-3.141592653589793,-0.08785392196121095,-2.2952228943493704,0.0,0.0,0.0,0.0,0.0,0.0
3.0199999999999796,75.43578351168344,66.63465779520041,-250.0,0.7235282063484192,-0.696364538652222,2.173274249744868,-3.141592653589793,-0.08434556953499867,-2.2943245331433157,0.0,0.0,0.0,0.0,0.0,0.0
3.0299999999999794,74.9041558511889,66.03494674471597,-250.0,0.7225516438484192,-0.7020447368437737,2.1739434770213246,-3.141592653589793,-0.08083423554654219,-2.2933479706433157,0.0,0.0,0.0,0.0,0.0,0.0
3.039999999999979,74.37735145643595,65.43099439299844,-250.0,0.7214951515197754,-0.7077236824029097,2.1745851157485356,-3.141592653589793,-0.07732002356941212,-2.292291478314672,0.0,0.0,0.0,0.0,0.0,0.0
3.049999999999979,73.85540416308658,64.82283953077888,-250.0,0.7203567624092102,-0.713400496731998,2.175198986800551,-3.141592653589793,-0.07380331404328906,-2.2911530892041068,0.0,0.0,0.0,0.0,0.0,0.0
3.0599999999999787,73.33834749484,64.21052121870756,-250.0,0.7191346883773804,-0.7190746667035376,2.1757849617589233,-3.141592653589793,-0.07028426049844377,-2.289931015172277,0.0,0.0,0.0,0.0,0.0,0.0
3.0699999999999785,72.8262146612798,63.59407878484552,-250.0,0.7178269624710083,-0.7247454000321338,2.176342892189962,-3.141592653589793,-0.0667631889114278,-2.288623289265905,0.0,0.0,0.0,0.0,0.0,0.0
3.0799999999999783,72.319038555741,62.97355182213839,-250.0,0.7164316177368164,-0.7304121025015929,2.1768726599382893,-3.141592653589793,-0.06324030202861104,-2.287227944531713,0.0,0.0,0.0,0.0,0.0,0.0
3.089999999999978,71.816851753197,62.348980185873366,-250.0,0.7149465084075928,-0.7360739771887307,2.177374137787894,-3.141592653589793,-0.059715928399172016,-2.2857428352024893,0.0,0.0,0.0,0.0,0.0,0.0
3.099999999999978,71.31968650816782,61.7204039911196,-250.0,0.7133696675300598,-0.74173027053564,2.1778472144687977,-3.141592653589793,-0.05619036989013409,-2.2841659943249564,0.0,0.0,0.0,0.0,0.0,0.0
3.1099999999999777,70.82757475264803,61.087863610151445,-250.0,0.7116988897323608,-0.7473803006041913,2.1782917957935912,-3.141592653589793,-0.05266388406027696,-2.2824952165272574,0.0,0.0,0.0,0.0,0.0,0.0
3.1199999999999775,70.34054809405615,60.451399669855626,-250.0,0.7099320292472839,-0.7530232002208852,2.1787077846252627,-3.141592653589793,-0.049136844694764696,-2.2807283560421805,0.0,0.0,0.0,0.0,0.0,0.0
3.1299999999999772,69.85863781320434,59.81105304912161,-250.0,0.7080667018890381,-0.7586581670981061,2.179095102110717,-3.141592653589793,-0.045609586168830214,-2.2788630286839346,0.0,0.0,0.0,0.0,0.0,0.0
3.139999999999977,69.38187486228945,59.16686487621634,-250.0,0.7061007022857666,-0.7642843469030811,2.1794536789762082,-3.141592653589793,-0.04208247674319938,-2.276897029080663,0.0,0.0,0.0,0.0,0.0,0.0
3.149999999999977,68.9102898629049,58.5188765261424,-250.0,0.7040315866470337,-0.7699009107883646,2.179783461173474,-3.141592653589793,-0.038555870285102385,-2.2748279134419302,0.0,0.0,0.0,0.0,0.0,0.0
3.1599999999999766,68.44391310407397,57.86712961798059,-250.0,0.7018570303916931,-0.7755070010713571,2.1800844068632603,-3.141592653589793,-0.035030140756275044,-2.2726533571865897,0.0,0.0,0.0,0.0,0.0,0.0
3.1699999999999764,67.98277454030442,57.211666012216995,-250.0,0.6995744705200195,-0.7811017285739402,2.1803564866695,-3.141592653589793,-0.0315056840536126,-2.270370797314916,0.0,0.0,0.0,0.0,0.0,0.0
3.179999999999976,67.52690378966443,56.55252780805412,-250.0,0.6971813440322876,-0.7866840571536897,2.180599680091588,-3.141592653589793,-0.027982991516673005,-2.267977670827184,0.0,0.0,0.0,0.0,0.0,0.0
3.189999999999976,67.07633013188051,55.8897573407072,-250.0,0.6946750283241272,-0.7922530661116761,2.1808139887151294,-3.141592653589793,-0.02446248497243981,-2.2654713551190238,0.0,0.0,0.0,0.0,0.0,0.0
3.1999999999999758,66.63108250645668,55.223397178684756,-250.0,0.692052960395813,-0.7978078299487705,2.180999429683898,-3.141592653589793,-0.020944592615268102,-2.2628492871907095,0.0,0.0,0.0,0.0,0.0,0.0
3.2099999999999755,66.19118951081596,54.55349012105491,-250.0,0.689312219619751,-0.8033472354800885,2.1811560312331655,-3.141592653589793,-0.017429865483459102,-2.2601085464146475,0.0,0.0,0.0,0.0,0.0,0.0
3.2199999999999753,65.75667939846339,53.88007919469606,-250.0,0.686450183391571,-0.8088703657490786,2.181283845523987,-3.141592653589793,-0.013918734624156109,-2.2572465101864676,0.0,0.0,0.0,0.0,0.0,0.0
3.229999999999975,65.32758007717158,53.20320765153367,-250.0,0.6834638714790344,-0.8143759954879125,2.1813829359577004,-3.141592653589793,-0.01041183191592327,-2.254260198273931,0.0,0.0,0.0,0.0,0.0,0.0
3.239999999999975,64.90391910718812,52.52291896576216,-250.0,0.6803504228591919,-0.8198632419802923,2.1814533919359804,-3.141592653589793,-0.006909576545653781,-2.2511467496540885,0.0,0.0,0.0,0.0,0.0,0.0
3.2499999999999747,64.48572369946538,51.839256831052516,-250.0,0.6771067380905151,-0.8253307731834658,2.1814953161411865,-3.141592653589793,-0.0034126801319832095,-2.2479030648854117,0.0,0.0,0.0,0.0,0.0,0.0
3.2599999999999745,64.073020713913,51.152265157746214,-250.0,0.6737298965454102,-0.8307775679610858,2.181508836238892,-3.141592653589793,7.833766744352304e-05,-2.2445262233403067,0.0,0.0,0.0,0.0,0.0,0.0
3.2699999999999743,63.66583665767248,50.46198807003458,-250.0,0.6702167391777039,-0.8362024065465031,2.1814940996861742,-3.141592653589793,0.0035628232362089835,-2.2410130659726004,0.0,0.0,0.0,0.0,0.0,0.0
3.279999999999974,63.26419768341493,49.76846990312517,-250.0,0.6665639877319336,-0.8416040631360328,2.181451277033409,-3.141592653589793,0.007040111331053584,-2.23736031452683,0.0,0.0,0.0,0.0,0.0,0.0
3.289999999999974,62.868129587661066,49.07175520039382,-250.0,0.662768542766571,-0.8469812882811147,2.1813805625357072,-3.141592653589793,0.01050951323681642,-2.2335648695614676,0.0,0.0,0.0,0.0,0.0,0.0
3.2999999999999736,62.47765780912462,48.37188871052399,-250.0,0.6588269472122192,-0.8523328691283932,2.1812821736837145,-3.141592653589793,0.013970355160566267,-2.229623274007116,0.0,0.0,0.0,0.0,0.0,0.0
3.3099999999999734,62.09280742707829,47.66891538463258,-250.0,0.6547359228134155,-0.8576574266552326,2.1811563557459985,-3.141592653589793,0.01742184648206762,-2.225532249608312,0.0,0.0,0.0,0.0,0.0,0.0
3.319999999999973,61.7136031597429,46.96288037338259,-250.0,0.6504919528961182,-0.862953655481112,2.1810033787546232,-3.141592653589793,0.020863234032987007,-2.2212882796910147,0.0,0.0,0.0,0.0,0.0,0.0
3.329999999999973,61.34006936270001,46.253829024083565,-250.0,0.6460916996002197,-0.8682202154589368,2.1808235397401066,-3.141592653589793,0.02429373150750352,-2.2168880263951163,0.0,0.0,0.0,0.0,0.0,0.0
3.3399999999999728,60.97223002732732,45.54180687777862,-250.0,0.6415315270423889,-0.8734556870673622,2.18061716570074,-3.141592653589793,0.027712489558620875,-2.2123278538372855,0.0,0.0,0.0,0.0,0.0,0.0
3.3499999999999726,60.610108779258056,44.82685966631975,-250.0,0.6368077993392944,-0.8786586311723782,2.180384613043191,-3.141592653589793,0.03111863384689911,-2.2076041261341914,0.0,0.0,0.0,0.0,0.0,0.0
3.3599999999999723,60.25372887686324,44.109033309430295,-250.0,0.631916880607605,-0.883827531786984,2.1801262712848395,-3.141592653589793,0.03451122677389623,-2.2027132074025015,0.0,0.0,0.0,0.0,0.0,0.0
3.369999999999972,59.90311320975808,43.38837391175583,-250.0,0.6268552541732788,-0.888960974151141,2.1798425549358535,-3.141592653589793,0.03788938367885246,-2.1976515809681754,0.0,0.0,0.0,0.0,0.0,0.0
3.379999999999972,59.55828429733172,42.664927759902824,-250.0,0.6216189861297607,-0.8940573896514609,2.1795339170976193,-3.141592653589793,0.0412521047047773,-2.1924153129246573,0.0,0.0,0.0,0.0,0.0,0.0
3.3899999999999717,59.21926428730079,41.9387413194657,-250.0,0.6162042617797852,-0.8991152167138894,2.179200842651239,-3.141592653589793,0.04459837955442752,-2.1870005885746817,0.0,0.0,0.0,0.0,0.0,0.0
3.3999999999999715,58.88607495428706,41.209861232042584,-250.0,0.6106075644493103,-0.9041328188767007,2.178843854240739,-3.141592653589793,0.047927132640707734,-2.181403891244207,0.0,0.0,0.0,0.0,0.0,0.0
3.4099999999999713,58.55873769841875,40.478334312239404,-250.0,0.6048247218132019,-0.9091085961855351,2.1784635055477595,-3.141592653589793,0.05123729613225198,-2.1756210486080985,0.0,0.0,0.0,0.0,0.0,0.0
3.419999999999971,58.237273543956164,39.744207544663325,-250.0,0.5988521575927734,-0.9140408697914213,2.178060390142046,-3.141592653589793,0.054527732727388256,-2.16964848438767,0.0,0.0,0.0,0.0,0.0,0.0
3.429999999999971,57.92170313794118,39.00752808090472,-250.0,0.5926859378814697,-0.9189279176197361,2.1776351404204157,-3.141592653589793,0.057797258355931136,-2.1634822646763663,0.0,0.0,0.0,0.0,0.0,0.0
3.4399999999999706,57.612046748871315,38.26834323650899,-250.0,0.5863221883773804,-0.9237679848941169,2.1771884277665174,-3.141592653589793,0.061044648391950174,-2.157118515172277,0.0,0.0,0.0,0.0,0.0,0.0
3.4499999999999704,57.30832426539782,37.526700487937454,-250.0,0.5797569155693054,-0.9285593469733824,2.176720957095605,-3.141592653589793,0.06426867925281014,-2.150553242364202,0.0,0.0,0.0,0.0,0.0,0.0
3.45999999999997,57.010555195048234,36.78264746951788,-250.0,0.5729864835739136,-0.9333001335440628,2.1762334845396163,-3.141592653589793,0.06746800947663217,-2.14378281036881,0.0,0.0,0.0,0.0,0.0,0.0
3.46999999999997,56.71875866297352,36.03623197038538,-250.0,0.5660070180892944,-0.9379885535587121,2.175726796260708,-3.141592653589793,0.07064133037648938,-2.136803344884191,0.0,0.0,0.0,0.0,0.0,0.0
3.47999999999997,56.43295341071966,35.287501931412564,-250.0,0.5588147044181824,-0.9426226784795906,2.1752017313333023,-3.141592653589793,0.07378721912049041,-2.129611031213079,0.0,0.0,0.0,0.0,0.0,0.0
3.4899999999999696,56.15315779502397,34.53650544213081,-250.0,0.5514059066772461,-0.9472006229825612,2.1746591632176737,-3.141592653589793,0.07690426025546543,-2.1222022334721427,0.0,0.0,0.0,0.0,0.0,0.0
3.4999999999999694,55.879389786635954,33.783290737641195,-250.0,0.54377681016922,-0.9517203976048502,2.1741000169471043,-3.141592653589793,0.07999094509134291,-2.1145731369641165,0.0,0.0,0.0,0.0,0.0,0.0
3.509999999999969,55.611666969163224,33.02790619551672,-250.0,0.5359238982200623,-0.9561800981927714,2.1735252465441195,-3.141592653589793,0.0830458003719489,-2.106720225014959,0.0,0.0,0.0,0.0,0.0,0.0
3.519999999999969,55.350006537942114,32.270400332695026,-250.0,0.5278438329696655,-0.960577628122805,2.1729358703100754,-3.141592653589793,0.08606719784274734,-2.098640159764562,0.0,0.0,0.0,0.0,0.0,0.0
3.5299999999999687,55.09442529893313,31.510821802362088,-250.0,0.5195331573486328,-0.964910995034098,2.172332933164986,-3.141592653589793,0.08905355693627372,-2.0903294841435294,0.0,0.0,0.0,0.0,0.0,0.0
3.5399999999999685,54.844939667641675,30.749219390827594,-250.0,0.5109885931015015,-0.9691780959978258,2.171717534863228,-3.141592653589793,0.0920031970782959,-2.081784919896398,0.0,0.0,0.0,0.0,0.0,0.0
3.5499999999999683,54.60156566806361,29.98564201439119,-250.0,0.5022071599960327,-0.9733768406238074,2.1710908133526545,-3.141592653589793,0.09491442202970685,-2.0730034867909293,0.0,0.0,0.0,0.0,0.0,0.0
3.559999999999968,54.36431893165619,29.220138716200985,-250.0,0.4931859076023102,-0.9775051172377055,2.1704539488838672,-3.141592653589793,0.09778549655031238,-2.0639822343972067,0.0,0.0,0.0,0.0,0.0,0.0
3.569999999999968,54.13321469633394,28.452758663103275,-250.0,0.48392221331596375,-0.9815607163096819,2.169808175928542,-3.141592653589793,0.1006145928517412,-2.0547185401108603,0.0,0.0,0.0,0.0,0.0,0.0
3.5799999999999677,53.90826780549005,27.683551142484948,-250.0,0.47441351413726807,-0.9855414897333562,2.1691547579180406,-3.141592653589793,0.10339990143948169,-2.0452098409321646,0.0,0.0,0.0,0.0,0.0,0.0
3.5899999999999674,53.68949270704296,26.912565559107723,-250.0,0.46465766429901123,-0.989445217854352,2.1684950074858764,-3.141592653589793,0.10613953851659812,-2.035453991093908,0.0,0.0,0.0,0.0,0.0,0.0
3.5999999999999672,53.47690345250844,26.13985143193482,-250.0,0.45465266704559326,-0.9932696845908946,2.1678302726756864,-3.141592653589793,0.10883159916646515,-2.02544899384049,0.0,0.0,0.0,0.0,0.0,0.0
3.609999999999967,53.27051369609706,25.365458390950778,-250.0,0.44439697265625,-0.9970126126271044,2.1671619482068287,-3.141592653589793,0.11147411139369716,-2.0151932994511466,0.0,0.0,0.0,0.0,0.0,0.0
3.619999999999967,53.07033669383718,24.589436173973475,-250.0,0.433889240026474,-1.000671817691154,2.1664914457609092,-3.141592653589793,0.11406514602968884,-2.0046855668213706,0.0,0.0,0.0,0.0,0.0,0.0
3.6299999999999666,52.87638530272362,23.811834623459866,-250.0,0.42312851548194885,-1.0042449622735103,2.1658202369173014,-3.141592653589793,0.11660264322604869,-1.9939248422768456,0.0,0.0,0.0,0.0,0.0,0.0
3.6399999999999664,52.68867197989179,23.03270368330439,-250.0,0.4121142625808716,-1.00772979774235,2.1651498074300264,-3.141592653589793,0.11908458447541152,-1.9829105893757681,0.0,0.0,0.0,0.0,0.0,0.0
3.649999999999966,52.507208781817624,22.25209339563145,-250.0,0.40084636211395264,-1.0111239783332515,2.1644816899539094,-3.141592653589793,0.12150886151898625,-1.9716426889088494,0.0,0.0,0.0,0.0,0.0,0.0
3.659999999999966,52.33200736354329,21.470053897581185,-250.0,0.3893251121044159,-1.0144252848186246,2.163817418209652,-3.141592653589793,0.12387343696860892,-1.9601214388993125,0.0,0.0,0.0,0.0,0.0,0.0
3.6699999999999657,52.163078977928464,20.6866354180891,-250.0,0.3775513768196106,-1.017631425192778,2.1631585629665953,-3.141592653589793,0.12617620351941244,-1.9483477036145072,0.0,0.0,0.0,0.0,0.0,0.0
3.6799999999999655,52.000434474927694,19.901888274660283,-250.0,0.36552637815475464,-1.0207400985280373,2.1625067172356767,-3.141592653589793,0.1284150307119089,-1.9363227049496512,0.0,0.0,0.0,0.0,0.0,0.0
3.6899999999999653,51.84408430089346,19.115862870137256,-250.0,0.353252112865448,-1.023749018978574,2.161863488218905,-3.141592653589793,0.13058778377443483,-1.9240484396603446,0.0,0.0,0.0,0.0,0.0,0.0
3.699999999999965,51.6940384979053,18.328609689463022,-250.0,0.3407309055328369,-1.0266559675012694,2.1612304823936426,-3.141592653589793,0.13269236296615175,-1.9115272323277335,0.0,0.0,0.0,0.0,0.0,0.0
3.709999999999965,51.55030670312474,17.540179296438193,-250.0,0.3279658555984497,-1.0294586942978716,2.160609322611647,-3.141592653589793,0.13472663512385713,-1.8987621823933463,0.0,0.0,0.0,0.0,0.0,0.0
3.7199999999999647,51.4128981481764,16.75062233047365,-250.0,0.3149605691432953,-1.0321549992683203,2.1600016268358124,-3.141592653589793,0.13668849394073798,-1.8857568959381918,0.0,0.0,0.0,0.0,0.0,0.0
3.7299999999999645,51.28182165855498,15.959989503337958,-250.0,0.30171939730644226,-1.0347427210720748,2.1594090060031856,-3.141592653589793,0.13857585448852866,-1.8725157241013388,0.0,0.0,0.0,0.0,0.0,0.0
3.7399999999999642,51.15708565305846,15.168331595900096,-250.0,0.288247287273407,-1.0372197196745738,2.1588330635497677,-3.141592653589793,0.14038664294820208,-1.8590436140683035,0.0,0.0,0.0,0.0,0.0,0.0
3.749999999999964,51.03869814324741,14.375699454868212,-250.0,0.2745499014854431,-1.0395839243841059,2.1582753796256053,-3.141592653589793,0.14211883429369937,-1.8453462282803397,0.0,0.0,0.0,0.0,0.0,0.0
3.759999999999964,50.926666732930336,13.58214398952348,-250.0,0.26063352823257446,-1.0418332781611161,2.1577375192425925,-3.141592653589793,0.14377041427014253,-1.831429855027471,0.0,0.0,0.0,0.0,0.0,0.0
3.7699999999999636,50.820998617675386,12.78771616845065,-250.0,0.24650530517101288,-1.0439657924426295,2.1572210144878996,-3.141592653589793,0.1453394223090893,-1.8173016319659094,0.0,0.0,0.0,0.0,0.0,0.0
3.7799999999999634,50.721700584348135,11.992467016264076,-250.0,0.23217296600341797,-1.045979625857618,2.1567273397914777,-3.141592653589793,0.14682401261464623,-1.8029692927983145,0.0,0.0,0.0,0.0,0.0,0.0
3.789999999999963,50.62877901067572,11.196447610330798,-250.0,0.21764492988586426,-1.0478728216764555,2.1562579710134258,-3.141592653589793,0.148222263614337,-1.7884412566807608,0.0,0.0,0.0,0.0,0.0,0.0
3.799999999999963,50.54223986483721,10.399709077489822,-250.0,0.20293043553829193,-1.0496437551202678,2.1558142700199534,-3.141592653589793,0.14953251097825807,-1.7737267623331885,0.0,0.0,0.0,0.0,0.0,0.0
3.8099999999999627,50.46208870508016,9.602302590768195,-250.0,0.1880393773317337,-1.051290649939046,2.1553975990929626,-3.141592653589793,0.15075299369459386,-1.7588357041266303,0.0,0.0,0.0,0.0,0.0,0.0
3.8199999999999625,50.388330679363854,8.804279366094573,-250.0,0.17298224568367004,-1.0528119535902443,2.1550092223416284,-3.141592653589793,0.1518821343528391,-1.7437785724785666,0.0,0.0,0.0,0.0,0.0,0.0
3.8299999999999623,50.320970525028414,8.00569065900936,-250.0,0.1577703207731247,-1.0542062293057213,2.1546503269785022,-3.141592653589793,0.15291846257248612,-1.7285666475680213,0.0,0.0,0.0,0.0,0.0,0.0
3.839999999999962,50.26001256849071,7.206587761373017,-250.0,0.14241540431976318,-1.055471997119787,2.1543220595970087,-3.141592653589793,0.15386049957032627,-1.7132117311146597,0.0,0.0,0.0,0.0,0.0,0.0
3.849999999999962,50.20546072496636,6.407021998071324,-250.0,0.12692995369434357,-1.0566081053938297,2.1540254254155307,-3.141592653589793,0.15470703725853943,-1.6977262804892401,0.0,0.0,0.0,0.0,0.0,0.0
3.8599999999999617,50.15731849821833,5.6070447237191905,-250.0,0.11132695525884628,-1.057613313557661,2.1537613918787386,-3.141592653589793,0.15545683038736813,-1.6821232820537428,0.0,0.0,0.0,0.0,0.0,0.0
3.8699999999999615,50.1155889803319,4.806707319362116,-250.0,0.09561992436647415,-1.0584866113400726,2.1535308014962764,-3.141592653589793,0.1561088366727622,-1.6664162511613707,0.0,0.0,0.0,0.0,0.0,0.0
3.8799999999999613,50.08027485151603,4.006061189175939,-250.0,0.07982282340526581,-1.0592271134191231,2.153334395233829,-3.141592653589793,0.15666214068704934,-1.6506191502001624,0.0,0.0,0.0,0.0,0.0,0.0
3.889999999999961,50.05137837993121,3.205157757165561,-250.0,0.06395003199577332,-1.059834054613808,2.153172810398874,-3.141592653589793,0.15711595225967429,-1.6347463587906699,0.0,0.0,0.0,0.0,0.0,0.0
3.899999999999961,50.0289014215438,2.4040484638617223,-250.0,0.048016257584095,-1.0603067899528453,2.153046577701841,-3.141592653589793,0.15746960825053946,-1.6188125843789916,0.0,0.0,0.0,0.0,0.0,0.0
3.9099999999999606,50.01284542000686,1.6027847630174248,-250.0,0.03203649818897247,-1.0606448129981132,2.1529561138916007,-3.141592653589793,0.15772258771420983,-1.602832824983869,0.0,0.0,0.0,0.0,0.0,0.0
3.9199999999999604,50.00321140656737,0.801418118302802,-250.0,0.016025960445404053,-1.0608477686274942,2.15290171632485,-3.141592653589793,0.1578745226473436,-1.5868222872403006,0.0,0.0,0.0,0.0,0.0,0.0
3.92999999999996,49.999999999999986,1.2246467991473532e-14,-250.0,2.4492934404725397e-16,-1.0609154400517127,2.1528835649897733,-3.141592653589793,0.15792518912528392,-1.5707963267948968,0.0,0.0,0.0,0.0,0.0,0.0
3.93999999999996,50.00321140656737,-0.801418118302733,-250.0,-0.016025960445404053,-1.0608477686274942,2.15290171632485,-3.141592653589793,0.1578745226473436,-1.5547703663494925,0.0,0.0,0.0,0.0,0.0,0.0
3.9499999999999598,50.01284542000686,-1.6027847630173562,-250.0,-0.03203649818897247,-1.0606448129981119,2.1529561138916,-3.141592653589793,0.15772258771420938,-1.538759828605924,0.0,0.0,0.0,0.0,0.0,0.0
3.9599999999999596,50.0289014215438,-2.404048463861654,-250.0,-0.048016257584095,-1.0603067899528453,2.153046577701841,-3.141592653589793,0.1574696082505395,-1.5227800692108016,0.0,0.0,0.0,0.0,0.0,0.0
3.9699999999999593,50.05137837993121,-3.2051577571654923,-250.0,-0.06395003199577332,-1.0598340546138083,2.1531728103988743,-3.141592653589793,0.15711595225967384,-1.5068462947991232,0.0,0.0,0.0,0.0,0.0,0.0
3.979999999999959,50.08027485151603,-4.00606118917587,-250.0,-0.07982282340526581,-1.0592271134191231,2.153334395233829,-3.141592653589793,0.15666214068704934,-1.4909735033896307,0.0,0.0,0.0,0.0,0.0,0.0
3.989999999999959,50.1155889803319,-4.806707319362047,-250.0,-0.09561992436647415,-1.0584866113400726,2.1535308014962764,-3.141592653589793,0.15610883667276224,-1.4751764024284224,0.0,0.0,0.0,0.0,0.0,0.0
3.9999999999999587,50.15731849821833,-5.6070447237191665,-250.0,-0.11132695525884628,-1.057613313557661,2.1537613918787386,-3.141592653589793,0.15545683038736816,-1.4594693715360503,0.0,0.0,0.0,0.0,0.0,0.0
4.009999999999959,50.20546072496636,-6.407021998071255,-250.0,-0.12692995369434357,-1.0566081053938297,2.1540254254155307,-3.141592653589793,0.15470703725853946,-1.443866373100553,0.0,0.0,0.0,0.0,0.0,0.0
4.019999999999959,50.26001256849071,-7.2065877613729485,-250.0,-0.14241540431976318,-1.055471997119787,2.1543220595970087,-3.141592653589793,0.1538604995703263,-1.4283809224751334,0.0,0.0,0.0,0.0,0.0,0.0
4.0299999999999585,50.320970525028414,-8.005690659009293,-250.0,-0.1577703207731247,-1.0542062293057217,2.1546503269785027,-3.141592653589793,0.15291846257248615,-1.4130260060217719,0.0,0.0,0.0,0.0,0.0,0.0
4.039999999999958,50.388330679363854,-8.804279366094505,-250.0,-0.17298224568367004,-1.0528119535902443,2.1550092223416284,-3.141592653589793,0.15188213435283912,-1.3978140811112265,0.0,0.0,0.0,0.0,0.0,0.0
4.049999999999958,50.46208870508016,-9.602302590768128,-250.0,-0.1880393773317337,-1.051290649939046,2.1553975990929626,-3.141592653589793,0.15075299369459388,-1.3827569494631629,0.0,0.0,0.0,0.0,0.0,0.0
4.059999999999958,50.54223986483719,-10.399709077489753,-250.0,-0.20293043553829193,-1.0496437551202678,2.1558142700199534,-3.141592653589793,0.1495325109782581,-1.3678658912566046,0.0,0.0,0.0,0.0,0.0,0.0
4.069999999999958,50.62877901067572,-11.196447610330774,-250.0,-0.21764492988586426,-1.0478728216764555,2.1562579710134258,-3.141592653589793,0.14822226361433702,-1.3531513969090323,0.0,0.0,0.0,0.0,0.0,0.0
4.079999999999957,50.721700584348135,-11.992467016264007,-250.0,-0.23217296600341797,-1.045979625857618,2.1567273397914777,-3.141592653589793,0.14682401261464623,-1.3386233607914786,0.0,0.0,0.0,0.0,0.0,0.0
4.089999999999957,50.82099861767538,-12.787716168450585,-250.0,-0.24650530517101288,-1.0439657924426295,2.1572210144878996,-3.141592653589793,0.1453394223090893,-1.3242910216238837,0.0,0.0,0.0,0.0,0.0,0.0
4.099999999999957,50.92666673293032,-13.582143989523411,-250.0,-0.26063352823257446,-1.0418332781611161,2.1577375192425925,-3.141592653589793,0.1437704142701425,-1.310162798562322,0.0,0.0,0.0,0.0,0.0,0.0
4.109999999999957,51.038698143247395,-14.375699454868142,-250.0,-0.2745499014854431,-1.0395839243841059,2.158275379625605,-3.141592653589793,0.14211883429369976,-1.2962464253094534,0.0,0.0,0.0,0.0,0.0,0.0
4.119999999999957,51.15708565305846,-15.168331595900026,-250.0,-0.288247287273407,-1.0372197196745743,2.158833063549768,-3.141592653589793,0.14038664294820205,-1.2825490395214896,0.0,0.0,0.0,0.0,0.0,0.0
4.129999999999956,51.28182165855497,-15.959989503337889,-250.0,-0.30171939730644226,-1.0347427210720748,2.1594090060031856,-3.141592653589793,0.13857585448852866,-1.2690769294884543,0.0,0.0,0.0,0.0,0.0,0.0
4.139999999999956,51.4128981481764,-16.75062233047363,-250.0,-0.3149605691432953,-1.0321549992683203,2.1600016268358124,-3.141592653589793,0.13668849394073795,-1.2558357576516013,0.0,0.0,0.0,0.0,0.0,0.0
4.149999999999956,51.55030670312474,-17.540179296438126,-250.0,-0.3279658555984497,-1.0294586942978716,2.160609322611647,-3.141592653589793,0.1347266351238571,-1.2428304711964469,0.0,0.0,0.0,0.0,0.0,0.0
4.159999999999956,51.6940384979053,-18.328609689462954,-250.0,-0.3407309055328369,-1.0266559675012694,2.1612304823936426,-3.141592653589793,0.13269236296615172,-1.2300654212620596,0.0,0.0,0.0,0.0,0.0,0.0
4.1699999999999555,51.84408430089345,-19.11586287013719,-250.0,-0.353252112865448,-1.023749018978574,2.161863488218905,-3.141592653589793,0.13058778377443483,-1.2175442139294488,0.0,0.0,0.0,0.0,0.0,0.0
4.179999999999955,52.000434474927665,-19.901888274660216,-250.0,-0.36552637815475464,-1.0207400985280373,2.1625067172356767,-3.141592653589793,0.12841503071190885,-1.205269948640142,0.0,0.0,0.0,0.0,0.0,0.0
4.189999999999955,52.16307897792845,-20.68663541808903,-250.0,-0.3775513768196106,-1.017631425192778,2.1631585629665953,-3.141592653589793,0.12617620351941242,-1.1932449499752862,0.0,0.0,0.0,0.0,0.0,0.0
4.199999999999955,52.332007363543276,-21.470053897581117,-250.0,-0.3893251121044159,-1.0144252848186246,2.163817418209652,-3.141592653589793,0.12387343696860892,-1.1814712146904807,0.0,0.0,0.0,0.0,0.0,0.0
4.209999999999955,52.507208781817624,-22.25209339563143,-250.0,-0.40084636211395264,-1.0111239783332515,2.1644816899539094,-3.141592653589793,0.12150886151898625,-1.169949964680944,0.0,0.0,0.0,0.0,0.0,0.0
4.2199999999999545,52.68867197989177,-23.032703683304323,-250.0,-0.4121142625808716,-1.00772979774235,2.1651498074300264,-3.141592653589793,0.11908458447541151,-1.158682064214025,0.0,0.0,0.0,0.0,0.0,0.0
4.229999999999954,52.876385302723605,-23.811834623459802,-250.0,-0.42312851548194885,-1.0042449622735103,2.1658202369173014,-3.141592653589793,0.11660264322604869,-1.1476678113129477,0.0,0.0,0.0,0.0,0.0,0.0
4.239999999999954,53.07033669383716,-24.589436173973407,-250.0,-0.433889240026474,-1.000671817691154,2.1664914457609092,-3.141592653589793,0.11406514602968883,-1.1369070867684228,0.0,0.0,0.0,0.0,0.0,0.0
4.249999999999954,53.27051369609705,-25.365458390950714,-250.0,-0.44439697265625,-0.9970126126271044,2.1671619482068287,-3.141592653589793,0.11147411139369716,-1.1263993541386466,0.0,0.0,0.0,0.0,0.0,0.0
4.259999999999954,53.47690345250841,-26.139851431934755,-250.0,-0.45465266704559326,-0.9932696845908946,2.1678302726756864,-3.141592653589793,0.10883159916646515,-1.1161436597493033,0.0,0.0,0.0,0.0,0.0,0.0
4.269999999999953,53.689492707042945,-26.912565559107655,-250.0,-0.46465766429901123,-0.989445217854352,2.1684950074858764,-3.141592653589793,0.10613953851659812,-1.1061386624958853,0.0,0.0,0.0,0.0,0.0,0.0
4.279999999999953,53.908267805490034,-27.683551142484927,-250.0,-0.47441351413726807,-0.9855414897333562,2.1691547579180406,-3.141592653589793,0.10339990143948169,-1.0963828126576287,0.0,0.0,0.0,0.0,0.0,0.0
4.289999999999953,54.13321469633392,-28.452758663103207,-250.0,-0.48392221331596375,-0.9815607163096819,2.169808175928542,-3.141592653589793,0.1006145928517412,-1.086874113478933,0.0,0.0,0.0,0.0,0.0,0.0
4.299999999999953,54.36431893165618,-29.220138716200918,-250.0,-0.4931859076023102,-0.9775051172377055,2.1704539488838672,-3.141592653589793,0.09778549655031238,-1.0776104191925864,0.0,0.0,0.0,0.0,0.0,0.0
4.3099999999999525,54.60156566806359,-29.985642014391125,-250.0,-0.5022071599960327,-0.9733768406238074,2.1710908133526545,-3.141592653589793,0.09491442202970686,-1.0685891667988638,0.0,0.0,0.0,0.0,0.0,0.0
4.319999999999952,54.84493966764165,-30.749219390827527,-250.0,-0.5109885931015015,-0.9691780959978258,2.171717534863228,-3.141592653589793,0.0920031970782959,-1.0598077336933953,0.0,0.0,0.0,0.0,0.0,0.0
4.329999999999952,55.0944252989331,-31.510821802362024,-250.0,-0.5195331573486328,-0.964910995034098,2.172332933164986,-3.141592653589793,0.08905355693627372,-1.0512631694462637,0.0,0.0,0.0,0.0,0.0,0.0
4.339999999999952,55.3500065379421,-32.27040033269496,-250.0,-0.5278438329696655,-0.960577628122805,2.1729358703100754,-3.141592653589793,0.08606719784274734,-1.042952493825231,0.0,0.0,0.0,0.0,0.0,0.0
4.349999999999952,55.611666969163224,-33.02790619551669,-250.0,-0.5359238982200623,-0.9561800981927714,2.1735252465441195,-3.141592653589793,0.0830458003719489,-1.0348724285748343,0.0,0.0,0.0,0.0,0.0,0.0
4.3599999999999515,55.879389786635926,-33.78329073764113,-250.0,-0.54377681016922,-0.9517203976048502,2.1741000169471043,-3.141592653589793,0.0799909450913429,-1.0270195166256766,0.0,0.0,0.0,0.0,0.0,0.0
4.369999999999951,56.153157795023944,-34.536505442130746,-250.0,-0.5514059066772461,-0.9472006229825612,2.1746591632176737,-3.141592653589793,0.07690426025546541,-1.0193904201176505,0.0,0.0,0.0,0.0,0.0,0.0
4.379999999999951,56.43295341071965,-35.28750193141249,-250.0,-0.5588147044181824,-0.9426226784795906,2.1752017313333023,-3.141592653589793,0.07378721912049041,-1.0119816223767142,0.0,0.0,0.0,0.0,0.0,0.0
4.389999999999951,56.71875866297351,-36.036231970385316,-250.0,-0.5660070180892944,-0.9379885535587117,2.1757267962607068,-3.141592653589793,0.07064133037649027,-1.0047893087056021,0.0,0.0,0.0,0.0,0.0,0.0
4.399999999999951,57.010555195048205,-36.78264746951782,-250.0,-0.5729864835739136,-0.9333001335440628,2.1762334845396163,-3.141592653589793,0.06746800947663217,-0.9978098432209831,0.0,0.0,0.0,0.0,0.0,0.0
4.40999999999995,57.30832426539781,-37.52670048793738,-250.0,-0.5797569155693054,-0.9285593469733824,2.176720957095605,-3.141592653589793,0.06426867925281014,-0.9910394112255912,0.0,0.0,0.0,0.0,0.0,0.0
4.41999999999995,57.6120467488713,-38.26834323650897,-250.0,-0.5863221883773804,-0.9237679848941169,2.1771884277665174,-3.141592653589793,0.061044648391950174,-0.9844741384175162,0.0,0.0,0.0,0.0,0.0,0.0
4.42999999999995,57.92170313794115,-39.007528080904656,-250.0,-0.5926859378814697,-0.9189279176197361,2.1776351404204157,-3.141592653589793,0.057797258355931136,-0.9781103889134269,0.0,0.0,0.0,0.0,0.0,0.0
4.43999999999995,58.23727354395612,-39.74420754466326,-250.0,-0.5988521575927734,-0.9140408697914213,2.178060390142046,-3.141592653589793,0.054527732727388256,-0.9719441692021232,0.0,0.0,0.0,0.0,0.0,0.0
4.4499999999999496,58.55873769841871,-40.47833431223934,-250.0,-0.6048247218132019,-0.9091085961855351,2.1784635055477595,-3.141592653589793,0.05123729613225198,-0.9659716049816948,0.0,0.0,0.0,0.0,0.0,0.0
4.459999999999949,58.88607495428702,-41.20986123204253,-250.0,-0.6106075644493103,-0.9041328188767007,2.178843854240739,-3.141592653589793,0.047927132640707734,-0.9601887623455863,0.0,0.0,0.0,0.0,0.0,0.0
4.469999999999949,59.21926428730076,-41.938741319465635,-250.0,-0.6162042617797852,-0.8991152167138894,2.179200842651239,-3.141592653589793,0.04459837955442752,-0.9545920650151116,0.0,0.0,0.0,0.0,0.0,0.0
4.479999999999949,59.55828429733169,-42.664927759902774,-250.0,-0.6216189861297607,-0.8940573896514609,2.1795339170976193,-3.141592653589793,0.0412521047047773,-0.9491773406651358,0.0,0.0,0.0,0.0,0.0,0.0
4.489999999999949,59.90311320975808,-43.38837391175581,-250.0,-0.6268552541732788,-0.888960974151141,2.1798425549358535,-3.141592653589793,0.03788938367885246,-0.9439410726216179,0.0,0.0,0.0,0.0,0.0,0.0
4.4999999999999485,60.253728876863214,-44.10903330943023,-250.0,-0.631916880607605,-0.883827531786984,2.1801262712848395,-3.141592653589793,0.03451122677389623,-0.9388794461872918,0.0,0.0,0.0,0.0,0.0,0.0
4.509999999999948,60.61010877925801,-44.82685966631969,-250.0,-0.6368077993392944,-0.8786586311723782,2.180384613043191,-3.141592653589793,0.031118633846899106,-0.933988527455602,0.0,0.0,0.0,0.0,0.0,0.0
4.519999999999948,60.97223002732729,-45.541806877778555,-250.0,-0.6415315270423889,-0.8734556870673622,2.18061716570074,-3.141592653589793,0.027712489558620868,-0.9292647997525076,0.0,0.0,0.0,0.0,0.0,0.0
4.529999999999948,61.340069362699964,-46.25382902408351,-250.0,-0.6460916996002197,-0.8682202154589368,2.1808235397401066,-3.141592653589793,0.024293731507503517,-0.9247046271946768,0.0,0.0,0.0,0.0,0.0,0.0
4.539999999999948,61.71360315974287,-46.96288037338253,-250.0,-0.6504919528961182,-0.862953655481112,2.1810033787546232,-3.141592653589793,0.020863234032987003,-0.9203043738987784,0.0,0.0,0.0,0.0,0.0,0.0
4.549999999999947,62.09280742707826,-47.66891538463251,-250.0,-0.6547359228134155,-0.8576574266552326,2.1811563557459985,-3.141592653589793,0.01742184648206762,-0.9160604039814813,0.0,0.0,0.0,0.0,0.0,0.0
4.559999999999947,62.477657809124594,-48.37188871052393,-250.0,-0.6588269472122192,-0.8523328691283932,2.1812821736837145,-3.141592653589793,0.013970355160566267,-0.9119693795826773,0.0,0.0,0.0,0.0,0.0,0.0
4.569999999999947,62.86812958766104,-49.07175520039375,-250.0,-0.662768542766571,-0.8469812882811147,2.1813805625357072,-3.141592653589793,0.01050951323681642,-0.9080277840283254,0.0,0.0,0.0,0.0,0.0,0.0
4.579999999999947,63.26419768341488,-49.76846990312511,-250.0,-0.6665639877319336,-0.8416040631360328,2.181451277033409,-3.141592653589793,0.007040111331053584,-0.9042323390629631,0.0,0.0,0.0,0.0,0.0,0.0
4.589999999999947,63.66583665767245,-50.46198807003453,-250.0,-0.6702167391777039,-0.8362024065465031,2.1814940996861742,-3.141592653589793,0.0035628232362089835,-0.9005795876171927,0.0,0.0,0.0,0.0,0.0,0.0
4.599999999999946,64.07302071391297,-51.15226515774615,-250.0,-0.6737298965454102,-0.8307775679610858,2.181508836238892,-3.141592653589793,7.833766744352304e-05,-0.8970664302494864,0.0,0.0,0.0,0.0,0.0,0.0
4.609999999999946,64.48572369946534,-51.83925683105247,-250.0,-0.6771067380905151,-0.8253307731834658,2.1814953161411865,-3.141592653589793,-0.0034126801319832095,-0.8936895887043814,0.0,0.0,0.0,0.0,0.0,0.0
4.619999999999946,64.90391910718809,-52.5229189657621,-250.0,-0.6803504228591919,-0.8198632419802923,2.1814533919359804,-3.141592653589793,-0.00690957654565378,-0.8904459039357048,0.0,0.0,0.0,0.0,0.0,0.0
4.629999999999946,65.32758007717155,-53.20320765153361,-250.0,-0.6834638714790344,-0.8143759954879125,2.1813829359577004,-3.141592653589793,-0.01041183191592327,-0.8873324553158621,0.0,0.0,0.0,0.0,0.0,0.0
4.6399999999999455,65.75667939846335,-53.880079194696,-250.0,-0.686450183391571,-0.8088703657490786,2.181283845523987,-3.141592653589793,-0.01391873462415611,-0.8843461434033255,0.0,0.0,0.0,0.0,0.0,0.0
4.649999999999945,66.1911895108159,-54.55349012105485,-250.0,-0.689312219619751,-0.8033472354800885,2.1811560312331655,-3.141592653589793,-0.017429865483459105,-0.8814841071751457,0.0,0.0,0.0,0.0,0.0,0.0
4.659999999999945,66.63108250645664,-55.2233971786847,-250.0,-0.692052960395813,-0.7978078299487705,2.180999429683898,-3.141592653589793,-0.020944592615268102,-0.8787433663990835,0.0,0.0,0.0,0.0,0.0,0.0
4.669999999999945,67.07633013188047,-55.88975734070714,-250.0,-0.6946750283241272,-0.7922530661116761,2.1808139887151294,-3.141592653589793,-0.02446248497243981,-0.8761212984707694,0.0,0.0,0.0,0.0,0.0,0.0
4.679999999999945,67.52690378966439,-56.552527808054066,-250.0,-0.6971813440322876,-0.7866840571536897,2.180599680091588,-3.141592653589793,-0.027982991516673012,-0.873614982762609,0.0,0.0,0.0,0.0,0.0,0.0
4.689999999999944,67.98277454030438,-57.21166601221694,-250.0,-0.6995744705200195,-0.7811017285739402,2.1803564866695,-3.141592653589793,-0.031505684053612606,-0.8712218562748772,0.0,0.0,0.0,0.0,0.0,0.0
4.699999999999944,68.44391310407394,-57.86712961798053,-250.0,-0.7018570303916931,-0.7755070010713571,2.1800844068632603,-3.141592653589793,-0.035030140756275044,-0.8689392964032036,0.0,0.0,0.0,0.0,0.0,0.0
4.709999999999944,68.91028986290488,-58.51887652614234,-250.0,-0.7040315866470337,-0.7699009107883646,2.179783461173474,-3.141592653589793,-0.03855587028510238,-0.8667647401478629,0.0,0.0,0.0,0.0,0.0,0.0
4.719999999999944,69.38187486228944,-59.16686487621632,-250.0,-0.7061007022857666,-0.7642843469030811,2.1794536789762082,-3.141592653589793,-0.04208247674319937,-0.86469562450913,0.0,0.0,0.0,0.0,0.0,0.0
4.729999999999944,69.8586378132043,-59.811053049121554,-250.0,-0.7080667018890381,-0.7586581670981061,2.179095102110717,-3.141592653589793,-0.04560958616883021,-0.8627296249058586,0.0,0.0,0.0,0.0,0.0,0.0
4.739999999999943,70.3405480940561,-60.45139966985557,-250.0,-0.7099320292472839,-0.7530232002208852,2.1787077846252627,-3.141592653589793,-0.049136844694764696,-0.8608642975476127,0.0,0.0,0.0,0.0,0.0,0.0
4.749999999999943,70.82757475264798,-61.08786361015139,-250.0,-0.7116988897323608,-0.7473803006041913,2.1782917957935912,-3.141592653589793,-0.05266388406027696,-0.8590974370625357,0.0,0.0,0.0,0.0,0.0,0.0
4.759999999999943,71.31968650816778,-61.72040399111955,-250.0,-0.7133696675300598,-0.7417302705356403,2.1778472144687977,-3.141592653589793,-0.05619036989013365,-0.8574266592648369,0.0,0.0,0.0,0.0,0.0,0.0
4.769999999999943,71.81685175319697,-62.34898018587331,-250.0,-0.7149465084075928,-0.7360739771887307,2.177374137787894,-3.141592653589793,-0.059715928399172,-0.8558498183873038,0.0,0.0,0.0,0.0,0.0,0.0
4.7799999999999425,72.31903855574096,-62.97355182213833,-250.0,-0.7164316177368164,-0.7304121025015929,2.1768726599382893,-3.141592653589793,-0.06324030202861103,-0.8543647090580803,0.0,0.0,0.0,0.0,0.0,0.0
4.789999999999942,72.82621466127979,-63.59407878484551,-250.0,-0.7178269624710083,-0.7247454000321343,2.1763428921899624,-3.141592653589793,-0.0667631889114278,-0.8529693643238884,0.0,0.0,0.0,0.0,0.0,0.0
4.799999999999942,73.33834749483995,-64.2105212187075,-250.0,-0.7191346883773804,-0.7190746667035377,2.1757849617589238,-3.141592653589793,-0.07028426049844376,-0.8516616384175162,0.0,0.0,0.0,0.0,0.0,0.0
4.809999999999942,73.85540416308653,-64.82283953077882,-250.0,-0.7203567624092102,-0.713400496731998,2.175198986800551,-3.141592653589793,-0.07380331404328905,-0.8504395643856865,0.0,0.0,0.0,0.0,0.0,0.0
4.819999999999942,74.37735145643592,-65.43099439299839,-250.0,-0.7214951515197754,-0.7077236824029097,2.1745851157485356,-3.141592653589793,-0.0773200235694121,-0.8493011752751214,0.0,0.0,0.0,0.0,0.0,0.0
4.8299999999999415,74.90415585118885,-66.03494674471592,-250.0,-0.7225516438484192,-0.7020447368437737,2.1739434770213246,-3.141592653589793,-0.08083423554654218,-0.8482446829464775,0.0,0.0,0.0,0.0,0.0,0.0
4.839999999999941,75.43578351168338,-66.63465779520035,-250.0,-0.7235282063484192,-0.696364538652222,2.173274249744868,-3.141592653589793,-0.08434556953499867,-0.8472681204464773,0.0,0.0,0.0,0.0,0.0,0.0
4.849999999999941,75.97220029246841,-67.23008902613165,-250.0,-0.7244265675544739,-0.6906835173547077,2.1725775706927792,-3.141592653589793,-0.08785392196121095,-0.8463697592404227,0.0,0.0,0.0,0.0,0.0,0.0
4.859999999999941,76.51337174049642,-67.82120219407447,-250.0,-0.7252484560012817,-0.6850022736981549,2.1718536040032714,-3.141592653589793,-0.09135908210371164,-0.8455478707936149,0.0,0.0,0.0,0.0,0.0,0.0
4.869999999999941,77.05926309733654,-68.40795933293457,-250.0,-0.7259956002235413,-0.6793215212253876,2.17110253742165,-3.141592653589793,-0.0948607684834491,-0.8448007265713555,0.0,0.0,0.0,0.0,0.0,0.0
4.87999999999994,77.60983930140706,-68.99032275639746,-250.0,-0.7266697287559509,-0.6736417315407365,2.170324535541628,-3.141592653589793,-0.09835884742076664,-0.8441265980389457,0.0,0.0,0.0,0.0,0.0,0.0
4.88999999999994,78.1650649902272,-69.5682550603486,-250.0,-0.7272722721099854,-0.6679635583258645,2.169519795144546,-3.141592653589793,-0.10185307147039385,-0.8435240546849113,0.0,0.0,0.0,0.0,0.0,0.0
4.89999999999994,78.7249045026885,-70.14171912527614,-250.0,-0.7278050184249878,-0.6622873500170333,2.1686884769936223,-3.141592653589793,-0.10534337931073619,-0.8429913083699088,0.0,0.0,0.0,0.0,0.0,0.0
4.90999999999994,79.2893218813452,-70.71067811865471,-250.0,-0.7282694578170776,-0.6566138333780552,2.1678308035815523,-3.141592653589793,-0.10882947508070734,-0.842526868977819,0.0,0.0,0.0,0.0,0.0,0.0
4.9199999999999395,79.8582808747238,-71.27509549731144,-250.0,-0.7286669611930847,-0.6509433496121556,2.1669469471824017,-3.141592653589793,-0.11231129801118295,-0.842129365601812,0.0,0.0,0.0,0.0,0.0,0.0
