Suke0811/REMS/trajectory/target_robot_circle_line.csv
timestamp,x,y,z,j.0,j.1,j.2,j.3,j.4,j.5,d_j.0,d_j.1,d_j.2,d_j.3,d_j.4,d_j.5
0.01,0.25,0.0,-0.25,0.0,-1.0786662699069645,3.1384371933020887,-3.141592653589793,-0.5737269192067783,-1.5707963267948966,0.0,0.0,0.0,0.0,0.0,0.0
0.02,0.24999678859343266,0.0008014181183027707,-0.25,0.0032057026401162148,-1.0602497110963665,3.140157339900714,-3.141592653589793,-0.5818561421711195,-1.5740020294350128,0.0,0.0,0.0,0.0,0.0,0.0
0.03,0.24998715457999315,0.0016027847630173744,-0.25,0.006411380134522915,-1.060249552520176,3.140157252379735,-3.141592653589793,-0.5818561250532464,-1.5772077069294195,0.0,0.0,0.0,0.0,0.0,0.0
0.04,0.24997109857845623,0.0024040484638616975,-0.25,0.00961701013147831,-1.0602489584343218,3.140157084524544,-3.141592653589793,-0.5818561973463982,-1.5804133369263749,0.0,0.0,0.0,0.0,0.0,0.0
0.05,0.2499486216200688,0.0032051577571655175,-0.25,0.012822563759982586,-1.0602481274177258,3.1401568497090597,-3.141592653589793,-0.5818562984568089,-1.5836188905548791,0.0,0.0,0.0,0.0,0.0,0.0
0.060000000000000005,0.24991972514848398,0.00400606118917592,-0.25,0.016028018668293953,-1.0602470592204103,3.14015654793722,-3.141592653589793,-0.5818564284785874,-1.5868243454631905,0.0,0.0,0.0,0.0,0.0,0.0
0.07,0.24988441101966813,0.004806707319362079,-0.25,0.019233351573348045,-1.060245753030733,3.140156178901183,-3.141592653589793,-0.5818565874437223,-1.5900296783682446,0.0,0.0,0.0,0.0,0.0,0.0
0.08,0.24984268150178168,0.0056070447237191795,-0.25,0.0224385354667902,-1.0602442096956537,3.1401557428905456,-3.141592653589793,-0.5818567752922162,-1.5932348622616868,0.0,0.0,0.0,0.0,0.0,0.0
0.09,0.24979453927503364,0.006407021998071291,-0.25,0.025643544271588326,-1.0602424293814554,3.140155239822233,-3.141592653589793,-0.5818569918931905,-1.5964398710664849,0.0,0.0,0.0,0.0,0.0,0.0
0.09999999999999999,0.24973998743150932,0.007206587761372965,-0.25,0.028848355636000633,-1.0602404112610468,3.140154669705673,-3.141592653589793,-0.5818572375548056,-1.5996446824308972,0.0,0.0,0.0,0.0,0.0,0.0
0.10999999999999999,0.24967902947497161,0.008005690659009334,-0.25,0.03205294907093048,-1.0602381558399347,3.140154032473612,-3.141592653589793,-0.5818575120367544,-1.602849275865827,0.0,0.0,0.0,0.0,0.0,0.0
0.11999999999999998,0.24961166932063616,0.00880427936609453,-0.25,0.035257287323474884,-1.0602356636719037,3.140153328382091,-3.141592653589793,-0.5818578153568613,-1.6060536141183714,0.0,0.0,0.0,0.0,0.0,0.0
0.12999999999999998,0.24953791129491987,0.009602302590768176,-0.25,0.0384613573551178,-1.0602329335831389,3.1401525571064433,-3.141592653589793,-0.5818581476642911,-1.6092576841500144,0.0,0.0,0.0,0.0,0.0,0.0
0.13999999999999999,0.2494577601351628,0.010399709077489784,-0.25,0.04166513308882713,-1.0602299660241687,3.140151718562864,-3.141592653589793,-0.5818585087246646,-1.612461459883724,0.0,0.0,0.0,0.0,0.0,0.0
0.15,0.2493712209893243,0.011196447610330786,-0.25,0.044868580996990204,-1.0602265649089961,3.1401508004272305,-3.141592653589793,-0.5818589591241309,-1.6156649077918868,0.0,0.0,0.0,0.0,0.0,0.0
0.16,0.24927829941565188,0.011992467016264045,-0.25,0.048071686178445816,-1.0602233200710103,3.14014984092319,-3.141592653589793,-0.5818593176015368,-1.6188680129733424,0.0,0.0,0.0,0.0,0.0,0.0
0.17,0.24917900138232463,0.0127877161684506,-0.25,0.051274415105581284,-1.0602196428528519,3.1401488019553305,-3.141592653589793,-0.5818597651019526,-1.622070741900478,0.0,0.0,0.0,0.0,0.0,0.0
0.18000000000000002,0.2490733332670697,0.013582143989523452,-0.25,0.054476749151945114,-1.0602157275703092,3.140147695781602,-3.141592653589793,-0.5818602416255922,-1.6252730759468417,0.0,0.0,0.0,0.0,0.0,0.0
0.19000000000000003,0.24896130185675264,0.014375699454868163,-0.25,0.05767865851521492,-1.0602115761021178,3.1401465228278287,-3.141592653589793,-0.581860746854889,-1.6284749853101115,0.0,0.0,0.0,0.0,0.0,0.0
0.20000000000000004,0.24884291434694156,0.015168331595900076,-0.25,0.06088012456893921,-1.0602071869716667,3.1401452828360643,-3.141592653589793,-0.5818612811059133,-1.6316764513638358,0.0,0.0,0.0,0.0,0.0,0.0
0.21000000000000005,0.24871817834144505,0.015959989503337917,-0.25,0.0640811175107956,-1.0602025613463884,3.1401439759345084,-3.141592653589793,-0.5818618440653363,-1.6348774443056924,0.0,0.0,0.0,0.0,0.0,0.0
0.22000000000000006,0.24858710185182362,0.01675062233047364,-0.25,0.06728160381317139,-1.0601976996833358,3.1401426022845893,-3.141592653589793,-0.5818624357057393,-1.638077930608068,0.0,0.0,0.0,0.0,0.0,0.0
0.23000000000000007,0.24844969329687527,0.017540179296438165,-0.25,0.0704815685749054,-1.0601927981661916,3.1401411747342536,-3.141592653589793,-0.5818629958521578,-1.641277895369802,0.0,0.0,0.0,0.0,0.0,0.0
0.24000000000000007,0.24830596150209472,0.018328609689462972,-0.25,0.07368098944425583,-1.0601872664583851,3.140139654523656,-3.141592653589793,-0.5818637054955875,-1.6444773162391524,0.0,0.0,0.0,0.0,0.0,0.0
0.25000000000000006,0.24815591569910656,0.01911586287013723,-0.25,0.0768798366189003,-1.060181696173899,3.1401380807400994,-3.141592653589793,-0.5818643834625674,-1.6476761634137969,0.0,0.0,0.0,0.0,0.0,0.0
0.26000000000000006,0.24799956552507235,0.01990188827466024,-0.25,0.08007808029651642,-1.0601758876343386,3.14013643960838,-3.141592653589793,-0.5818650904061805,-1.6508744070914132,0.0,0.0,0.0,0.0,0.0,0.0
0.2700000000000001,0.24783692102207155,0.02068663541808908,-0.25,0.083275705575943,-1.0601698442666283,3.140134732034044,-3.141592653589793,-0.581865825856753,-1.6540720323708396,0.0,0.0,0.0,0.0,0.0,0.0
0.2800000000000001,0.24766799263645672,0.021470053897581148,-0.25,0.08647266775369644,-1.060163565209855,3.140132958013135,-3.141592653589793,-0.5818665901239278,-1.657268994548593,0.0,0.0,0.0,0.0,0.0,0.0
0.2900000000000001,0.2474927912181824,0.02225209339563144,-0.25,0.08966896682977676,-1.0601570498103765,3.1401311170925172,-3.141592653589793,-0.5818673830593283,-1.6604652936246735,0.0,0.0,0.0,0.0,0.0,0.0
0.3000000000000001,0.24731132802010825,0.02303270368330436,-0.25,0.09286455810070038,-1.0601502982278443,3.14012920943569,-3.141592653589793,-0.5818682047454011,-1.663660884895597,0.0,0.0,0.0,0.0,0.0,0.0
0.3100000000000001,0.2471236146972764,0.023811834623459815,-0.25,0.0960594117641449,-1.0601433115862964,3.1401272355000085,-3.141592653589793,-0.5818690551654715,-1.6668557385590417,0.0,0.0,0.0,0.0,0.0,0.0
0.3200000000000001,0.24692966330616284,0.02458943617397345,-0.25,0.09925351291894913,-1.0601360893012473,3.1401251948081903,-3.141592653589793,-0.5818699341256096,-1.6700498397138457,0.0,0.0,0.0,0.0,0.0,0.0
0.3300000000000001,0.24672948630390296,0.025365458390950738,-0.25,0.10244683921337128,-1.060128631185222,3.1401230875840103,-3.141592653589793,-0.5818708418856007,-1.6732431660082678,0.0,0.0,0.0,0.0,0.0,0.0
0.34000000000000014,0.2465230965474916,0.026139851431934803,-0.25,0.10563935339450836,-1.060120938335011,3.140120913887232,-3.141592653589793,-0.5818717780998166,-1.676435680189405,0.0,0.0,0.0,0.0,0.0,0.0
0.35000000000000014,0.24631050729295706,0.026912565559107683,-0.25,0.10883104801177979,-1.0601130094916655,3.140118673646146,-3.141592653589793,-0.5818727431647068,-1.6796273748066763,0.0,0.0,0.0,0.0,0.0,0.0
0.36000000000000015,0.24609173219450997,0.027683551142484938,-0.25,0.11202185600996017,-1.0601048474883328,3.1401163675025394,-3.141592653589793,-0.5818737366013003,-1.6828181828048567,0.0,0.0,0.0,0.0,0.0,0.0
0.37000000000000016,0.2458667853036661,0.02845275866310324,-0.25,0.11521179229021072,-1.0600964489098388,3.140113994508898,-3.141592653589793,-0.5818747588413208,-1.6860081190851073,0.0,0.0,0.0,0.0,0.0,0.0
0.38000000000000017,0.24563568106834383,0.029220138716200935,-0.25,0.11840082705020905,-1.0600878170751233,3.1401115555665786,-3.141592653589793,-0.5818758094509948,-1.6891971538451056,0.0,0.0,0.0,0.0,0.0,0.0
0.3900000000000002,0.24539843433193642,0.02998564201439116,-0.25,0.12158890813589096,-1.06007894863939,3.140109049750091,-3.141592653589793,-0.5818768888553844,-1.6923852349307877,0.0,0.0,0.0,0.0,0.0,0.0
0.4000000000000002,0.24515506033235834,0.03074921939082755,-0.25,0.12477602809667587,-1.0600698475960222,3.1401064782135766,-3.141592653589793,-0.5818779965917177,-1.6955723548915724,0.0,0.0,0.0,0.0,0.0,0.0
0.4100000000000002,0.24490557470106689,0.03151082180236207,-0.25,0.1279621571302414,-1.0600605118069844,3.1401038402622543,-3.141592653589793,-0.5818791328442532,-1.698758483925138,0.0,0.0,0.0,0.0,0.0,0.0
0.4200000000000002,0.2446499934620579,0.03227040033269499,-0.25,0.13114726543426514,-1.0600509420924062,3.140101136282544,-3.141592653589793,-0.5818802976463867,-1.7019435922291617,0.0,0.0,0.0,0.0,0.0,0.0
0.4300000000000002,0.2443883330308368,0.03302790619551671,-0.25,0.13433131575584412,-1.0600411383859356,3.1400983661131114,-3.141592653589793,-0.5818814908860358,-1.7051276425507407,0.0,0.0,0.0,0.0,0.0,0.0
0.4400000000000002,0.24412061021336406,0.03378329073764116,-0.25,0.13751427829265594,-1.060031101415463,3.140095530152861,-3.141592653589793,-0.5818827126407414,-1.7083106050875525,0.0,0.0,0.0,0.0,0.0,0.0
0.45000000000000023,0.24384684220497607,0.034536505442130765,-0.25,0.14069616794586182,-1.0600208312089627,3.1400926280953527,-3.141592653589793,-0.5818839626405926,-1.7114924947407584,0.0,0.0,0.0,0.0,0.0,0.0
0.46000000000000024,0.24356704658928036,0.035287501931412536,-0.25,0.14387691020965576,-1.0600103277434378,3.1400896601709345,-3.141592653589793,-0.5818852410917672,-1.7146732370045523,0.0,0.0,0.0,0.0,0.0,0.0
0.47000000000000025,0.2432812413370265,0.036036231970385336,-0.25,0.14705650508403778,-1.0599995900414534,3.1400866261225406,-3.141592653589793,-0.5818865481310613,-1.7178528318789343,0.0,0.0,0.0,0.0,0.0,0.0
0.48000000000000026,0.2429894448049518,0.036782647469517864,-0.25,0.1502349078655243,-1.0599886201453135,3.1400835263483255,-3.141592653589793,-0.5818878833589113,-1.7210312346604208,0.0,0.0,0.0,0.0,0.0,0.0
0.49000000000000027,0.2426916757346022,0.03752670048793741,-0.25,0.1534120887517929,-1.059977417690389,3.140080360879155,-3.141592653589793,-0.5818892469354207,-1.7242084155466897,0.0,0.0,0.0,0.0,0.0,0.0
0.5000000000000002,0.24238795325112872,0.03826834323650898,-0.25,0.15658803284168243,-1.0599659820843694,3.14007712954934,-3.141592653589793,-0.5818906389357333,-1.7273843596365792,0.0,0.0,0.0,0.0,0.0,0.0
0.5100000000000002,0.24207829686205884,0.039007528080904685,-0.25,0.15976271033287048,-1.059954315825271,3.140073832899372,-3.141592653589793,-0.5818920589164605,-1.730559037127767,0.0,0.0,0.0,0.0,0.0,0.0
0.5200000000000002,0.24176272645604388,0.03974420754466328,-0.25,0.16293607652187347,-1.0599424156538486,3.1400704703287463,-3.141592653589793,-0.5818935075491832,-1.73373240331677,0.0,0.0,0.0,0.0,0.0,0.0
0.5300000000000002,0.24144126230158128,0.04047833431223938,-0.25,0.1661081165075302,-1.0599302844839436,3.1400670422862174,-3.141592653589793,-0.5818949841615951,-1.7369044433024268,0.0,0.0,0.0,0.0,0.0,0.0
0.5400000000000003,0.241113925045713,0.041209861232042545,-0.25,0.1692788004875183,-1.0599179219257557,3.140063548937748,-3.141592653589793,-0.5818964890382468,-1.740075127282415,0.0,0.0,0.0,0.0,0.0,0.0
0.5500000000000003,0.24078073571269926,0.04193874131946568,-0.25,0.17244811356067657,-1.0599053277374306,3.1400599899973347,-3.141592653589793,-0.5818980220248157,-1.7432444403555734,0.0,0.0,0.0,0.0,0.0,0.0
0.5600000000000003,0.2404417157026683,0.0426649277599028,-0.25,0.17561601102352142,-1.059892501450566,3.1400563655849822,-3.141592653589793,-0.5818995833952489,-1.746412337818418,0.0,0.0,0.0,0.0,0.0,0.0
0.5700000000000003,0.24009688679024194,0.04338837391175582,-0.25,0.17878244817256927,-1.0598794449152837,3.1400526760075795,-3.141592653589793,-0.5819011727421205,-1.7495787749674658,0.0,0.0,0.0,0.0,0.0,0.0
0.5800000000000003,0.2397462711231368,0.044109033309430265,-0.25,0.18194741010665894,-1.0598661578119888,3.1400489212639098,-3.141592653589793,-0.5819027901821459,-1.7527437369015555,0.0,0.0,0.0,0.0,0.0,0.0
0.5900000000000003,0.239389891220742,0.044826859666319704,-0.25,0.1851108819246292,-1.0598524446591906,3.140045088775537,-3.141592653589793,-0.581904495878956,-1.7559072087195258,0.0,0.0,0.0,0.0,0.0,0.0
0.6000000000000003,0.23902776997267272,0.04554180687777859,-0.25,0.18827281892299652,-1.0598388928659315,3.140041216523649,-3.141592653589793,-0.5819061092091152,-1.759069145717893,0.0,0.0,0.0,0.0,0.0,0.0
0.6100000000000003,0.23865993063730004,0.04625382902408353,-0.25,0.19143317639827728,-1.0598249156437038,3.1400372665706016,-3.141592653589793,-0.5819078106120542,-1.7622295031931738,0.0,0.0,0.0,0.0,0.0,0.0
0.6200000000000003,0.23828639684025713,0.04696288037338257,-0.25,0.1945919543504715,-1.0598107075469283,3.1400332514004425,-3.141592653589793,-0.5819095401837528,-1.765388281145368,0.0,0.0,0.0,0.0,0.0,0.0
0.6300000000000003,0.23790719257292176,0.04766891538463253,-0.25,0.1977490931749344,-1.059796270460044,3.1400291715456383,-3.141592653589793,-0.5819112976967822,-1.7685454199698312,0.0,0.0,0.0,0.0,0.0,0.0
0.6400000000000003,0.2375223421908754,0.048371888710523975,-0.25,0.20090457797050476,-1.0597816056422822,3.140025027263505,-3.141592653589793,-0.5819130829159012,-1.7717009047654013,0.0,0.0,0.0,0.0,0.0,0.0
0.6500000000000004,0.23713187041233896,0.049071755200393787,-0.25,0.20405837893486023,-1.0597667099090469,3.1400208178858815,-3.141592653589793,-0.5819148964284612,-1.7748547057297568,0.0,0.0,0.0,0.0,0.0,0.0
0.6600000000000004,0.23673580231658514,0.049768469903125126,-0.25,0.2072104513645172,-1.0597515873668861,3.140016544054948,-3.141592653589793,-0.5819167372948386,-1.7780067781594138,0.0,0.0,0.0,0.0,0.0,0.0
0.6700000000000004,0.23633416334232754,0.05046198807003456,-0.25,0.2103607952594757,-1.0597362350241735,3.1400122054204864,-3.141592653589793,-0.5819186063034941,-1.7811571220543723,0.0,0.0,0.0,0.0,0.0,0.0
0.6800000000000004,0.23592697928608702,0.05115226515774617,-0.25,0.21350933611392975,-1.0597206564420656,3.140007802675285,-3.141592653589793,-0.5819205027557461,-1.7843056629088263,0.0,0.0,0.0,0.0,0.0,0.0
0.6900000000000004,0.23551427630053465,0.0518392568310525,-0.25,0.21665607392787933,-1.0597048483820828,3.1400033351581804,-3.141592653589793,-0.581922427264607,-1.7874524007227761,0.0,0.0,0.0,0.0,0.0,0.0
0.7000000000000004,0.23509608089281192,0.052522918965762125,-0.25,0.21980096399784088,-1.0596888127529809,3.1399988033406974,-3.141592653589793,-0.5819243795420568,-1.7905972907927377,0.0,0.0,0.0,0.0,0.0,0.0
0.7100000000000004,0.23467241992282845,0.05320320765153366,-0.25,0.2229439616203308,-1.0596725506575915,3.1399942074877156,-3.141592653589793,-0.5819263594162074,-1.7937402884152274,0.0,0.0,0.0,0.0,0.0,0.0
0.7200000000000004,0.23424332060153663,0.053880079194696034,-0.25,0.22608508169651031,-1.0596560613848176,3.139989547318782,-3.141592653589793,-0.5819283669081697,-1.7968814084914069,0.0,0.0,0.0,0.0,0.0,0.0
0.7300000000000004,0.23380881048918412,0.054553490121054864,-0.25,0.22922423481941223,-1.0596393462403793,3.1399848231155847,-3.141592653589793,-0.5819304017868593,-1.8000205616143088,0.0,0.0,0.0,0.0,0.0,0.0
0.7400000000000004,0.23336891749354335,0.05522339717868474,-0.25,0.23236140608787537,-1.059622404254137,3.1399800349386293,-3.141592653589793,-0.5819324644580104,-1.803157732882772,0.0,0.0,0.0,0.0,0.0,0.0
0.7500000000000004,0.23292366986811952,0.05588975734070715,-0.25,0.23549656569957733,-1.0596052366321782,3.139975182997995,-3.141592653589793,-0.5819345546656852,-1.806292892494474,0.0,0.0,0.0,0.0,0.0,0.0
0.7600000000000005,0.2324730962103356,0.0565525278080541,-0.25,0.23862971365451813,-1.0595878428332384,3.1399702669947622,-3.141592653589793,-0.581936672353794,-1.809426040449415,0.0,0.0,0.0,0.0,0.0,0.0
0.7700000000000005,0.2320172254596956,0.05721166601221696,-0.25,0.2417607605457306,-1.0595702235879223,3.1399652872391552,-3.141592653589793,-0.581938817524243,-1.8125570873406271,0.0,0.0,0.0,0.0,0.0,0.0
0.7800000000000005,0.23155608689592605,0.05786712961798057,-0.25,0.24488967657089233,-1.059552380810798,3.1399602441942296,-3.141592653589793,-0.5819409898798524,-1.815686003365789,0.0,0.0,0.0,0.0,0.0,0.0
0.7900000000000005,0.23108971013709512,0.05851887652614236,-0.25,0.24801646173000336,-1.0595343121381493,3.1399551374263694,-3.141592653589793,-0.5819431899107339,-1.8188127885249001,0.0,0.0,0.0,0.0,0.0,0.0
0.8000000000000005,0.23061812513771057,0.059166864876216335,-0.25,0.2511410713195801,-1.059516215998201,3.1399499799242196,-3.141592653589793,-0.5819453567278768,-1.8219373981144766,0.0,0.0,0.0,0.0,0.0,0.0
0.8100000000000005,0.2301413621867957,0.05981105304912159,-0.25,0.2542634606361389,-1.0594975018769865,3.139944733386372,-3.141592653589793,-0.5819476718447115,-1.8250597874310357,0.0,0.0,0.0,0.0,0.0,0.0
0.8200000000000005,0.2296594519059439,0.06045139966985558,-0.25,0.2573835849761963,-1.0594787622216995,3.139939436646719,-3.141592653589793,-0.5819499535056726,-1.828179911771093,0.0,0.0,0.0,0.0,0.0,0.0
0.8300000000000005,0.229172425247352,0.06108786361015143,-0.25,0.2605014443397522,-1.0594597985413845,3.1399340765425183,-3.141592653589793,-0.5819522624792729,-1.8312977711346488,0.0,0.0,0.0,0.0,0.0,0.0
0.8400000000000005,0.2286803134918322,0.06172040399111957,-0.25,0.2636169493198395,-1.0594406125324465,3.1399286536024533,-3.141592653589793,-0.5819545986035197,-1.8344132761147363,0.0,0.0,0.0,0.0,0.0,0.0
0.8500000000000005,0.22818314824680302,0.06234898018587335,-0.25,0.26673009991645813,-1.0594212033002481,3.13992316758179,-3.141592653589793,-0.5819569619969358,-1.837526426711355,0.0,0.0,0.0,0.0,0.0,0.0
0.8600000000000005,0.22768096144425903,0.06297355182213836,-0.25,0.2698408365249634,-1.0594015721757977,3.1399176186047804,-3.141592653589793,-0.5819593522853872,-1.8406371633198602,0.0,0.0,0.0,0.0,0.0,0.0
0.8700000000000006,0.2271737853387202,0.0635940787848455,-0.25,0.2729491889476776,-1.059381719155816,3.139912006990693,-3.141592653589793,-0.5819617697448868,-1.8437455157425744,0.0,0.0,0.0,0.0,0.0,0.0
0.8800000000000006,0.22666165250516007,0.06421052121870754,-0.25,0.2760550379753113,-1.0593616449015908,3.1399063326268095,-3.141592653589793,-0.5819642140422617,-1.8468513647702078,0.0,0.0,0.0,0.0,0.0,0.0
0.8900000000000006,0.2261445958369135,0.06482283953077884,-0.25,0.2791583836078644,-1.059341349187239,3.1399005959003237,-3.141592653589793,-0.5819666855922071,-1.849954710402761,0.0,0.0,0.0,0.0,0.0,0.0
0.9000000000000006,0.22562264854356406,0.06543099439299842,-0.25,0.28225913643836975,-1.059320833166277,3.1398947965883153,-3.141592653589793,-0.5819691837891487,-1.8530554632332665,0.0,0.0,0.0,0.0,0.0,0.0
0.9100000000000006,0.22509584414881117,0.06603494674471592,-0.25,0.28535738587379456,-1.0593000961456447,3.1398889347594725,-3.141592653589793,-0.5819717089458109,-1.8561537126686911,0.0,0.0,0.0,0.0,0.0,0.0
0.9200000000000006,0.2245642164883166,0.06663465779520039,-0.25,0.2884529232978821,-1.059279139774091,3.1398830108619986,-3.141592653589793,-0.5819742608490452,-1.8592492500927786,0.0,0.0,0.0,0.0,0.0,0.0
0.9300000000000006,0.2240277997075316,0.06723008902613169,-0.25,0.2915458679199219,-1.0592579637779327,3.1398770248649317,-3.141592653589793,-0.5819768395745878,-1.8623421947148184,0.0,0.0,0.0,0.0,0.0,0.0
0.9400000000000006,0.2234866282595036,0.06782120219407448,-0.25,0.294636070728302,-1.059236569105387,3.1398709769690036,-3.141592653589793,-0.5819794449524878,-1.8654323975231988,0.0,0.0,0.0,0.0,0.0,0.0
0.9500000000000006,0.22294073690266347,0.0684079593329346,-0.25,0.29772353172302246,-1.0592149548738732,3.1398648669717097,-3.141592653589793,-0.5819820771331843,-1.868519858517919,0.0,0.0,0.0,0.0,0.0,0.0
0.9600000000000006,0.2223901606985929,0.06899032275639748,-0.25,0.3008081912994385,-1.0591933196599665,3.1398587080627625,-3.141592653589793,-0.5819846753351143,-1.8716045180943353,0.0,0.0,0.0,0.0,0.0,0.0
0.9700000000000006,0.2218349350097728,0.06956825506034864,-0.25,0.30389004945755005,-1.0591710712919085,3.139852461501512,-3.141592653589793,-0.5819874213303735,-1.8746863762524468,0.0,0.0,0.0,0.0,0.0,0.0
0.9800000000000006,0.2212750954973115,0.07014171912527616,-0.25,0.3069690465927124,-1.059148804653459,3.1398461666762767,-3.141592653589793,-0.5819901329211238,-1.8777653733876092,0.0,0.0,0.0,0.0,0.0,0.0
0.9900000000000007,0.2207106781186548,0.07071067811865475,-0.25,0.31004512310028076,-1.0591265172430386,3.1398398232412177,-3.141592653589793,-0.5819928107208173,-1.8808414498951773,0.0,0.0,0.0,0.0,0.0,0.0
1.0000000000000007,0.2201417191252762,0.07127509549731147,-0.25,0.31311821937561035,-1.0591036189410357,3.139833392656131,-3.141592653589793,-0.5819956359346052,-1.8839145461705071,0.0,0.0,0.0,0.0,0.0,0.0
1.0100000000000007,0.21956825506034866,0.07183493500977275,-0.25,0.31618836522102356,-1.0590807006876481,3.139826913543379,-3.141592653589793,-0.5819984271358193,-1.8869846920159201,0.0,0.0,0.0,0.0,0.0,0.0
1.0200000000000007,0.21899032275639752,0.07239016069859289,-0.25,0.31925544142723083,-1.059057567127585,3.1398203735217898,-3.141592653589793,-0.5820012446348894,-1.8900517682221274,0.0,0.0,0.0,0.0,0.0,0.0
1.0300000000000007,0.21840795933293464,0.07294073690266342,-0.25,0.3223194479942322,-1.059034218182152,3.139813772413355,-3.141592653589793,-0.5820040883117559,-1.893115774789129,0.0,0.0,0.0,0.0,0.0,0.0
1.0400000000000007,0.21782120219407453,0.07348662825950356,-0.25,0.3253803253173828,-1.0590106545755642,3.1398071105228116,-3.141592653589793,-0.582006958166558,-1.8961766521122796,0.0,0.0,0.0,0.0,0.0,0.0
1.0500000000000007,0.21723008902613172,0.07402779970753155,-0.25,0.32843804359436035,-1.058986876853421,3.13980038809491,-3.141592653589793,-0.582009854213118,-1.899234370389257,0.0,0.0,0.0,0.0,0.0,0.0
1.0600000000000007,0.2166346577952004,0.07456421648831656,-0.25,0.3314925730228424,-1.0589628840538285,3.1397936047657726,-3.141592653589793,-0.5820127764934208,-1.9022888998177392,0.0,0.0,0.0,0.0,0.0,0.0
1.0700000000000007,0.21603494674471596,0.07509584414881113,-0.25,0.3345438241958618,-1.0589386787107085,3.1397867612430677,-3.141592653589793,-0.5820157246945944,-1.9053401509907584,0.0,0.0,0.0,0.0,0.0,0.0
1.0800000000000007,0.21543099439299845,0.07562264854356404,-0.25,0.3375917375087738,-1.0589142593397582,3.139779856998059,-3.141592653589793,-0.58201869890768,-1.9083880643036706,0.0,0.0,0.0,0.0,0.0,0.0
1.0900000000000007,0.21482283953077888,0.07614459583691344,-0.25,0.34063634276390076,-1.058889628220216,3.1397728929786446,-3.141592653589793,-0.5820216991169369,-1.9114326695587975,0.0,0.0,0.0,0.0,0.0,0.0
1.1000000000000008,0.2142105212187076,0.07666165250516002,-0.25,0.3436775207519531,-1.0588647844390184,3.139765868677806,-3.141592653589793,-0.5820247252247498,-1.91447384754685,0.0,0.0,0.0,0.0,0.0,0.0
1.1100000000000008,0.21359407878484554,0.07717378533872017,-0.25,0.3467152416706085,-1.058839728310037,3.139758784262371,-3.141592653589793,-0.5820277772627228,-1.9175115684655053,0.0,0.0,0.0,0.0,0.0,0.0
1.1200000000000008,0.2129735518221384,0.07768096144425901,-0.25,0.34974950551986694,-1.0588144620586064,3.1397516403237233,-3.141592653589793,-0.5820308549308649,-1.9205458323147635,0.0,0.0,0.0,0.0,0.0,0.0
1.1300000000000008,0.2123489801858734,0.07818314824680299,-0.25,0.35278022289276123,-1.0587889843980793,3.1397444364644347,-3.141592653589793,-0.5820339583605606,-1.9235765496876578,0.0,0.0,0.0,0.0,0.0,0.0
1.1400000000000008,0.2117204039911196,0.07868031349183219,-0.25,0.3558073043823242,-1.0587632970926801,3.1397371731174974,-3.141592653589793,-0.582037087284141,-1.9266036311772208,0.0,0.0,0.0,0.0,0.0,0.0
1.1500000000000008,0.21108786361015147,0.07917242524735198,-0.25,0.3588307797908783,-1.0587373995121343,3.1397298504106512,-3.141592653589793,-0.5820402420424724,-1.929627106585775,0.0,0.0,0.0,0.0,0.0,0.0
1.1600000000000008,0.21045139966985563,0.07965945190594387,-0.25,0.3618505895137787,-1.0587112924122923,3.139722468306342,-3.141592653589793,-0.5820434223327348,-1.9326469163086755,0.0,0.0,0.0,0.0,0.0,0.0
1.1700000000000008,0.20981105304912162,0.08014136218679567,-0.25,0.3648666441440582,-1.058684976729241,3.139715027078836,-3.141592653589793,-0.58204662805246,-1.9356629709389548,0.0,0.0,0.0,0.0,0.0,0.0
1.1800000000000008,0.20916686487621636,0.08061812513771055,-0.25,0.36787888407707214,-1.0586584537113932,3.139707527144605,-3.141592653589793,-0.582049859107063,-1.9386752108719687,0.0,0.0,0.0,0.0,0.0,0.0
1.1900000000000008,0.2085188765261424,0.0810897101370951,-0.25,0.37088727951049805,-1.0586317222861457,3.139699968157446,-3.141592653589793,-0.5820531155940872,-1.9416836063053948,0.0,0.0,0.0,0.0,0.0,0.0
1.2000000000000008,0.2078671296179806,0.08155608689592601,-0.25,0.37389180064201355,-1.0586047833658778,3.139692350375034,-3.141592653589793,-0.5820563974055754,-1.9446881274369103,0.0,0.0,0.0,0.0,0.0,0.0
1.2100000000000009,0.207211666012217,0.08201722545969559,-0.25,0.3768923282623291,-1.0585776385849002,3.139684674242485,-3.141592653589793,-0.582059704331389,-1.9476886550572259,0.0,0.0,0.0,0.0,0.0,0.0
1.2200000000000009,0.20655252780805414,0.08247309621033556,-0.25,0.3798889219760895,-1.0585502863757714,3.139676939388373,-3.141592653589793,-0.5820630366271846,-1.950685248770986,0.0,0.0,0.0,0.0,0.0,0.0
1.2300000000000009,0.2058897573407072,0.0829236698681195,-0.25,0.38288140296936035,-1.058522729930857,3.139669146599733,-3.141592653589793,-0.5820663938089372,-1.953677729764257,0.0,0.0,0.0,0.0,0.0,0.0
1.2400000000000009,0.20522339717868476,0.08336891749354333,-0.25,0.3858697712421417,-1.0584949670818595,3.1396612953964524,-3.141592653589793,-0.5820697762577344,-1.9566660980370385,0.0,0.0,0.0,0.0,0.0,0.0
1.2500000000000009,0.2045534901210549,0.08380881048918407,-0.25,0.3888539671897888,-1.0584669994296814,3.139653386119873,-3.141592653589793,-0.5820731836871774,-1.9596502939846856,0.0,0.0,0.0,0.0,0.0,0.0
1.260000000000001,0.20388007919469606,0.08424332060153662,-0.25,0.39183393120765686,-1.0584388289869313,3.139645419498885,-3.141592653589793,-0.5820766159917237,-1.9626302580025534,0.0,0.0,0.0,0.0,0.0,0.0
1.270000000000001,0.20320320765153368,0.08467241992282842,-0.25,0.39480963349342346,-1.0584104542964816,3.139637394750892,-3.141592653589793,-0.5820800730367606,-1.9656059602883202,0.0,0.0,0.0,0.0,0.0,0.0
1.280000000000001,0.20252291896576216,0.0850960808928119,-0.25,0.39778101444244385,-1.058381876370559,3.1396293125255745,-3.141592653589793,-0.5820835550122428,-1.9685773412373406,0.0,0.0,0.0,0.0,0.0,0.0
1.290000000000001,0.20183925683105253,0.08551427630053461,-0.25,0.40074795484542847,-1.058353096283538,3.1396211731373302,-3.141592653589793,-0.5820870617998726,-1.9715442816403252,0.0,0.0,0.0,0.0,0.0,0.0
1.300000000000001,0.2011522651577462,0.08592697928608702,-0.25,0.4037104547023773,-1.0583241150130505,3.1396129764949805,-3.141592653589793,-0.5820905929708613,-1.9745067814972739,0.0,0.0,0.0,0.0,0.0,0.0
1.310000000000001,0.2004619880700346,0.08633416334232752,-0.25,0.40666842460632324,-1.0582949314477297,3.1396047225932353,-3.141592653589793,-0.5820941489276034,-1.97746475140122,0.0,0.0,0.0,0.0,0.0,0.0
1.320000000000001,0.19976846990312516,0.08673580231658509,-0.25,0.40962180495262146,-1.0582655482871761,3.139596412060829,-3.141592653589793,-0.5820977292299709,-1.980418131747518,0.0,0.0,0.0,0.0,0.0,0.0
1.330000000000001,0.19907175520039383,0.08713187041233894,-0.25,0.4125705659389496,-1.0582359638341003,3.139588044465084,-3.141592653589793,-0.5821013341288223,-1.9833668927338464,0.0,0.0,0.0,0.0,0.0,0.0
1.340000000000001,0.198371888710524,0.08752234219087537,-0.25,0.41551458835601807,-1.0582061813373667,3.1395796207465683,-3.141592653589793,-0.582104963250433,-1.9863109151509146,0.0,0.0,0.0,0.0,0.0,0.0
1.350000000000001,0.19766891538463258,0.08790719257292172,-0.25,0.4184538722038269,-1.0581761985273257,3.1395711403748248,-3.141592653589793,-0.5821086169700775,-1.9892501989987237,0.0,0.0,0.0,0.0,0.0,0.0
1.360000000000001,0.1969628803733826,0.08828639684025709,-0.25,0.42138832807540894,-1.0581460176868394,3.139562603717186,-3.141592653589793,-0.582112294776119,-1.9921846548703057,0.0,0.0,0.0,0.0,0.0,0.0
1.370000000000001,0.19625382902408356,0.0886599306373,-0.25,0.4243178367614746,-1.0581156392912998,3.139554011175546,-3.141592653589793,-0.5821159968422269,-1.9951141635563714,0.0,0.0,0.0,0.0,0.0,0.0
1.380000000000001,0.19554180687777864,0.08902776997267267,-0.25,0.4272424280643463,-1.0580850638549908,3.1395453625734415,-3.141592653589793,-0.582119722835172,-1.998038754859243,0.0,0.0,0.0,0.0,0.0,0.0
1.390000000000001,0.19482685966631974,0.08938989122074195,-0.25,0.4301619827747345,-1.0580542909586228,3.1395366579595265,-3.141592653589793,-0.5821234729523349,-2.000958309569631,0.0,0.0,0.0,0.0,0.0,0.0
1.400000000000001,0.1941090333094303,0.08974627112313677,-0.25,0.4330764412879944,-1.0580231266926585,3.139527885335781,-3.141592653589793,-0.5821273073420792,-2.003872768082891,0.0,0.0,0.0,0.0,0.0,0.0
1.410000000000001,0.19338837391175584,0.09009688679024191,-0.25,0.4359856843948364,-1.05799196283386,3.139519069878588,-3.141592653589793,-0.5821311052895755,-2.006782011189733,0.0,0.0,0.0,0.0,0.0,0.0
1.420000000000001,0.19266492775990282,0.09044171570266829,-0.25,0.4388897716999054,-1.0579608007283223,3.139510212035839,-3.141592653589793,-0.5821348666887416,-2.009686098494802,0.0,0.0,0.0,0.0,0.0,0.0
1.430000000000001,0.1919387413194657,0.09078073571269922,-0.25,0.4417884647846222,-1.0579292489113072,3.139501286665169,-3.141592653589793,-0.5821387121817724,-2.0125847915795188,0.0,0.0,0.0,0.0,0.0,0.0
1.440000000000001,0.1912098612320426,0.09111392504571295,-0.25,0.4446818232536316,-1.057897503590528,3.139492306197438,-3.141592653589793,-0.5821425811617426,-2.015478150048528,0.0,0.0,0.0,0.0,0.0,0.0
1.450000000000001,0.19047833431223943,0.09144126230158124,-0.25,0.44756972789764404,-1.057865564274584,3.1394832708292526,-3.141592653589793,-0.5821464739783454,-2.0183660546925406,0.0,0.0,0.0,0.0,0.0,0.0
1.460000000000001,0.1897442075446633,0.09176272645604384,-0.25,0.45045211911201477,-1.0578334329869659,3.139474180938164,-3.141592653589793,-0.582150390222775,-2.0212484459069113,0.0,0.0,0.0,0.0,0.0,0.0
1.470000000000001,0.1890075280809047,0.09207829686205883,-0.25,0.4533289074897766,-1.0576587814533234,3.1394906233063313,-3.141592653589793,-0.5822277843876806,-2.024125234284673,0.0,0.0,0.0,0.0,0.0,0.0
1.480000000000001,0.188268343236509,0.09238795325112868,-0.25,0.45619997382164,-1.0574498900658291,3.139512512250967,-3.141592653589793,-0.5823222487811415,-2.0269963006165366,0.0,0.0,0.0,0.0,0.0,0.0
1.490000000000001,0.18752670048793746,0.09269167573460219,-0.25,0.459065318107605,-1.0572391290388659,3.1395339005135714,-3.141592653589793,-0.5824169688175962,-2.0298616449025015,0.0,0.0,0.0,0.0,0.0,0.0
1.500000000000001,0.1867826474695179,0.09298944480495176,-0.25,0.46192485094070435,-1.0570277939653732,3.1395546929447775,-3.141592653589793,-0.5825113933024687,-2.032721177735601,0.0,0.0,0.0,0.0,0.0,0.0
1.5100000000000011,0.18603623197038538,0.09328124133702648,-0.25,0.46477845311164856,-1.0568145971742346,3.1395749567483247,-3.141592653589793,-0.5826060470128971,-2.035574779906545,0.0,0.0,0.0,0.0,0.0,0.0
1.5200000000000011,0.18528750193141258,0.09356704658928033,-0.25,0.46762606501579285,-1.0565999740615748,3.1395946505103787,-3.141592653589793,-0.58270073676721,-2.03842239181069,0.0,0.0,0.0,0.0,0.0,0.0
1.5300000000000011,0.1845365054421308,0.09384684220497604,-0.25,0.47046762704849243,-1.0563839089087903,3.1396137619731324,-3.141592653589793,-0.5827954579694904,-2.041263953843389,0.0,0.0,0.0,0.0,0.0,0.0
1.5400000000000011,0.1837832907376412,0.09412061021336406,-0.25,0.47330302000045776,-1.0561664173211103,3.139632275599361,-3.141592653589793,-0.5828901918619032,-2.0440993467953543,0.0,0.0,0.0,0.0,0.0,0.0
1.5500000000000012,0.18302790619551673,0.09438833303083677,-0.25,0.47613224387168884,-1.0559479247456363,3.1396501563007213,-3.141592653589793,-0.5829847542227965,-2.0469285706665854,0.0,0.0,0.0,0.0,0.0,0.0
1.5600000000000012,0.18227040033269504,0.09464999346205788,-0.25,0.4789550304412842,-1.0557271346773547,3.139667454760966,-3.141592653589793,-0.5830796591304842,-2.0497513572361807,0.0,0.0,0.0,0.0,0.0,0.0
1.5700000000000012,0.1815108218023621,0.09490557470106686,-0.25,0.4817714989185333,-1.0555053411240731,3.139684092058758,-3.141592653589793,-0.5831743696620164,-2.05256782571343,0.0,0.0,0.0,0.0,0.0,0.0
1.5800000000000012,0.18074921939082758,0.09515506033235833,-0.25,0.4845814108848572,-1.0552821234569851,3.1397000745161954,-3.141592653589793,-0.5832690440869888,-2.0553777376797537,0.0,0.0,0.0,0.0,0.0,0.0
1.5900000000000012,0.1799856420143912,0.0953984343319364,-0.25,0.4873847961425781,-1.0550579058199148,3.1397153704321994,-3.141592653589793,-0.5833635015202333,-2.0581811229374747,0.0,0.0,0.0,0.0,0.0,0.0
1.6000000000000012,0.179220138716201,0.0956356810683438,-0.25,0.49018150568008423,-1.054831382504723,3.1397300191997104,-3.141592653589793,-0.5834582498888331,-2.060977832474981,0.0,0.0,0.0,0.0,0.0,0.0
1.6100000000000012,0.17845275866310328,0.09586678530366606,-0.25,0.49297142028808594,-1.054603870844815,3.139743951206121,-3.141592653589793,-0.583552751632528,-2.0637677470829825,0.0,0.0,0.0,0.0,0.0,0.0
1.6200000000000012,0.17768355114248496,0.09609173219450995,-0.25,0.49575451016426086,-1.0543749223658772,3.139757170650311,-3.141592653589793,-0.5836471733763511,-2.0665508369591574,0.0,0.0,0.0,0.0,0.0,0.0
1.6300000000000012,0.17691256555910773,0.09631050729295704,-0.25,0.49853062629699707,-1.0541445494202577,3.1397696615759045,-3.141592653589793,-0.5837414972164706,-2.0693269530918936,0.0,0.0,0.0,0.0,0.0,0.0
1.6400000000000012,0.17613985143193484,0.09652309654749155,-0.25,0.5012996792793274,-1.0539127461579945,3.139781409437399,-3.141592653589793,-0.5838357130662599,-2.072096006074224,0.0,0.0,0.0,0.0,0.0,0.0
1.6500000000000012,0.17536545839095077,0.09672948630390293,-0.25,0.5040615797042847,-1.0536795152761673,3.139792398880312,-3.141592653589793,-0.5839298070493842,-2.0748579064991812,0.0,0.0,0.0,0.0,0.0,0.0
1.6600000000000013,0.1745894361739735,0.09692966330616282,-0.25,0.5068162679672241,-1.0581891186782268,3.1405720436420967,-3.141592653589793,-0.5829568591042221,-2.0776125947621207,0.0,0.0,0.0,0.0,0.0,0.0
1.6700000000000013,0.17381183462345987,0.09712361469727637,-0.25,0.5095636248588562,-1.0585753209711637,3.140523113387488,-3.141592653589793,-0.5827750823433984,-2.0803599516537528,0.0,0.0,0.0,0.0,0.0,0.0
1.6800000000000013,0.17303270368330442,0.09731132802010822,-0.25,0.5123035907745361,-1.0589492850905504,3.1405806769627382,-3.141592653589793,-0.5826885252084184,-2.0830999175694327,0.0,0.0,0.0,0.0,0.0,0.0
1.6900000000000013,0.17225209339563147,0.09749279121818237,-0.25,0.5150359272956848,-1.0593254558617708,3.140640433044961,-3.141592653589793,-0.5826030591982847,-2.0858322540905814,0.0,0.0,0.0,0.0,0.0,0.0
1.7000000000000013,0.1714700538975812,0.0976679926364567,-0.25,0.5177606344223022,-1.0597038225196176,3.1407024141513844,-3.141592653589793,-0.582518716680938,-2.088556961217199,0.0,0.0,0.0,0.0,0.0,0.0
1.7100000000000013,0.17068663541808912,0.09783692102207153,-0.25,0.5204775333404541,-1.060084403641321,3.1407666577650417,-3.141592653589793,-0.5824355236356552,-2.0912738601353507,0.0,0.0,0.0,0.0,0.0,0.0
1.7200000000000013,0.1699018882746603,0.09799956552507232,-0.25,0.5231866240501404,-1.0604671662894951,3.1408331936263973,-3.141592653589793,-0.5823535181317446,-2.093982950845037,0.0,0.0,0.0,0.0,0.0,0.0
1.7300000000000013,0.16911586287013727,0.09815591569910653,-0.25,0.5258878469467163,-1.0608521396713844,3.14090206149835,-3.141592653589793,-0.5822727242736255,-2.096684173741613,0.0,0.0,0.0,0.0,0.0,0.0
1.7400000000000013,0.168328609689463,0.0983059615020947,-0.25,0.5285807847976685,-1.0612395935050678,3.1409733767876116,-3.141592653589793,-0.5821931435542123,-2.099377111592565,0.0,0.0,0.0,0.0,0.0,0.0
1.7500000000000013,0.16754017929643822,0.09844969329687525,-0.25,0.5312656164169312,-1.0616286564480752,3.141046924629526,-3.141592653589793,-0.582114909267908,-2.1020619432118277,0.0,0.0,0.0,0.0,0.0,0.0
1.7600000000000013,0.16675062233047366,0.0985871018518236,-0.25,0.5339421629905701,-1.062020189148674,3.141122989918424,-3.141592653589793,-0.582037953363365,-2.1047384897854666,0.0,0.0,0.0,0.0,0.0,0.0
1.7700000000000014,0.16595998950333796,0.09871817834144501,-0.25,0.5366102457046509,-1.062413919043376,3.1412015286237462,-3.141592653589793,-0.5819623379026075,-2.1074065724995474,0.0,0.0,0.0,0.0,0.0,0.0
1.7800000000000014,0.1651683315959001,0.09884291434694153,-0.25,0.539269745349884,-1.0628098245811035,3.141282573693026,-3.141592653589793,-0.5818880996572152,-2.1100660721447806,0.0,0.0,0.0,0.0,0.0,0.0
1.7900000000000014,0.1643756994548682,0.09896130185675259,-0.25,0.5419206619262695,-1.0632079152281584,3.141366163688513,-3.141592653589793,-0.5818152689717808,-2.112716988721166,0.0,0.0,0.0,0.0,0.0,0.0
1.8000000000000014,0.1635821439895235,0.09907333326706967,-0.25,0.5445626974105835,-1.0636081717846704,3.1414523322672743,-3.141592653589793,-0.5817438824043397,-2.11535902420548,0.0,0.0,0.0,0.0,0.0,0.0
1.8100000000000014,0.16278771616845064,0.0991790013823246,-0.25,0.5471958518028259,-1.0640106129677136,3.14154112090214,-3.141592653589793,-0.5816739694721572,-2.1179921785977225,0.0,0.0,0.0,0.0,0.0,0.0
1.8200000000000014,0.1619924670162641,0.09927829941565186,-0.25,0.5498199462890625,-1.0642360921202698,3.141585524453774,-3.141592653589793,-0.5816302525122033,-2.120616273083959,0.0,0.0,0.0,0.0,0.0,0.0
1.8300000000000014,0.1611964476103308,0.09937122098932427,-0.25,0.5524349212646484,-1.0812161164324543,3.1377441039888527,-3.141592653589793,-0.5722145775055002,-2.123231248059545,0.0,0.0,0.0,0.0,0.0,0.0
1.8400000000000014,0.16039970907748982,0.09945776013516279,-0.25,0.5550404787063599,-1.081173293405472,3.137755219582294,-3.141592653589793,-0.5722395256534762,-2.1258368055012564,0.0,0.0,0.0,0.0,0.0,0.0
1.8500000000000014,0.1596023025907682,0.09953791129491983,-0.25,0.5576366782188416,-1.0811303472329268,3.137766382032593,-3.141592653589793,-0.5722645583599089,-2.128433005013738,0.0,0.0,0.0,0.0,0.0,0.0
1.8600000000000014,0.15880427936609456,0.09961166932063614,-0.25,0.5602232813835144,-1.0810872829512892,3.137777591140953,-3.141592653589793,-0.5722896736389639,-2.1310196081784114,0.0,0.0,0.0,0.0,0.0,0.0
1.8700000000000014,0.15800569065900938,0.09967902947497158,-0.25,0.5628001689910889,-1.0810440987284924,3.1377888468964734,-3.141592653589793,-0.5723148721425304,-2.1335964957859854,0.0,0.0,0.0,0.0,0.0,0.0
1.8800000000000014,0.157206587761373,0.09973998743150929,-0.25,0.5653671622276306,-1.0810008000430518,3.1378001484424605,-3.141592653589793,-0.5723401511627633,-2.136163489022527,0.0,0.0,0.0,0.0,0.0,0.0
1.8900000000000015,0.15640702199807133,0.09979453927503364,-0.25,0.5679242014884949,-1.0809573857530665,3.137811496386618,-3.141592653589793,-0.5723655116315683,-2.1387205282833914,0.0,0.0,0.0,0.0,0.0,0.0
1.9000000000000015,0.1556070447237192,0.09984268150178166,-0.25,0.5704711675643921,-1.0809138599757713,3.13782289032091,-3.141592653589793,-0.5723909517156162,-2.1412674943592886,0.0,0.0,0.0,0.0,0.0,0.0
1.9100000000000015,0.1548067073193621,0.09988441101966809,-0.25,0.5730077624320984,-1.080870222891983,3.137834329635563,-3.141592653589793,-0.5724164708287443,-2.143804089226995,0.0,0.0,0.0,0.0,0.0,0.0
1.9200000000000015,0.15400606118917595,0.09991972514848396,-0.25,0.5755338668823242,-1.0808264766881592,3.137845814168939,-3.141592653589793,-0.5724420680446148,-2.1463301936772208,0.0,0.0,0.0,0.0,0.0,0.0
1.9300000000000015,0.15320515775716556,0.09994862162006879,-0.25,0.5780494809150696,-1.0807826240946952,3.137857343838512,-3.141592653589793,-0.5724677423083292,-2.148845807709966,0.0,0.0,0.0,0.0,0.0,0.0
1.9400000000000015,0.15240404846386174,0.0999710985784562,-0.25,0.5805542469024658,-1.0807386688571476,3.1378689182375066,-3.141592653589793,-0.5724934919215806,-2.1513505736973624,0.0,0.0,0.0,0.0,0.0,0.0
1.9500000000000015,0.15160278476301742,0.09998715457999313,-0.25,0.5830481648445129,-1.080694607706091,3.1378805373870957,-3.141592653589793,-0.5725193180820286,-2.1538444916394095,0.0,0.0,0.0,0.0,0.0,0.0
1.9600000000000015,0.1508014181183028,0.09999678859343263,-0.25,0.5855309963226318,-1.0806504475620518,3.1378922009881407,-3.141592653589793,-0.5725452180382513,-2.1563273231175284,0.0,0.0,0.0,0.0,0.0,0.0
1.9700000000000015,0.15000000000000002,0.1,-0.25,0.5880025625228882,-1.080606187419555,3.1379039083473383,-3.141592653589793,-0.5725711915604588,-2.1587988893177847,0.0,0.0,0.0,0.0,0.0,0.0
1.9800000000000015,0.14919858188169727,0.09999678859343263,-0.25,0.5904628038406372,-1.0805618294114279,3.1379156599365317,-3.141592653589793,-0.5725972382831711,-2.1612591306355338,0.0,0.0,0.0,0.0,0.0,0.0
1.9900000000000015,0.14839721523698265,0.09998715457999313,-0.25,0.592911422252655,-1.0805173794064533,3.137927454807569,-3.141592653589793,-0.5726233552792787,-2.1637077490475516,0.0,0.0,0.0,0.0,0.0,0.0
2.0000000000000013,0.14759595153613833,0.0999710985784562,-0.25,0.5953482985496521,-1.080472833662597,3.1379392932960517,-3.141592653589793,-0.5726495441857136,-2.1661446253445487,0.0,0.0,0.0,0.0,0.0,0.0
2.010000000000001,0.1467948422428345,0.09994862162006879,-0.25,0.5977733135223389,-1.0804281961488424,3.137951174815285,-3.141592653589793,-0.5726758030696081,-2.1685696403172354,0.0,0.0,0.0,0.0,0.0,0.0
2.020000000000001,0.14599393881082412,0.09991972514848396,-0.25,0.6001861095428467,-1.0803834705160025,3.1379630994405456,-3.141592653589793,-0.572702130678798,-2.1709824363377432,0.0,0.0,0.0,0.0,0.0,0.0
2.0300000000000007,0.14519329268063796,0.09988441101966809,-0.25,0.6025867462158203,-1.0803386587568777,3.1379750660379635,-3.141592653589793,-0.5727285253253043,-2.173383073010717,0.0,0.0,0.0,0.0,0.0,0.0
2.0400000000000005,0.14439295527628085,0.09984268150178166,-0.25,0.6049748659133911,-1.0802937599918963,3.137987075180531,-3.141592653589793,-0.5727549878165439,-2.1757711927082877,0.0,0.0,0.0,0.0,0.0,0.0
2.0500000000000003,0.14359297800192874,0.09979453927503364,-0.25,0.60735023021698,-1.0802487796156264,3.1379991265139715,-3.141592653589793,-0.5727815159040468,-2.1781465570118765,0.0,0.0,0.0,0.0,0.0,0.0
2.06,0.14279341223862707,0.09973998743150929,-0.25,0.6097128391265869,-1.08020371742621,3.13801121950317,-3.141592653589793,-0.5728081092033254,-2.1805091659214835,0.0,0.0,0.0,0.0,0.0,0.0
2.07,0.1419943093409907,0.09967902947497158,-0.25,0.6120623350143433,-1.080158575885525,3.138023354028242,-3.141592653589793,-0.5728347667240863,-2.18285866180924,0.0,0.0,0.0,0.0,0.0,0.0
2.0799999999999996,0.1411957206339055,0.09961166932063614,-0.25,0.614398717880249,-1.0801131554609213,3.1380355422969277,-3.141592653589793,-0.5728615708772917,-2.1851950446751456,0.0,0.0,0.0,0.0,0.0,0.0
2.0899999999999994,0.14039769740923186,0.09953791129491983,-0.25,0.616721510887146,-1.080068064981548,3.1380477467813215,-3.141592653589793,-0.5728882699668508,-2.1875178376820426,0.0,0.0,0.0,0.0,0.0,0.0
2.099999999999999,0.13960029092251025,0.09945776013516279,-0.25,0.6190307140350342,-1.0800226987486319,3.138060004175717,-3.141592653589793,-0.5729151138473171,-2.1898270408299307,0.0,0.0,0.0,0.0,0.0,0.0
2.109999999999999,0.13880355238966924,0.09937122098932427,-0.25,0.6213259696960449,-1.0799772634793392,3.1380723020423336,-3.141592653589793,-0.5729420173198388,-2.1921222964909415,0.0,0.0,0.0,0.0,0.0,0.0
2.1199999999999988,0.138007532983736,0.09927829941565186,-0.25,0.6236071586608887,-1.0799317566682962,3.13808463994423,-3.141592653589793,-0.5729689809147179,-2.1944034854557852,0.0,0.0,0.0,0.0,0.0,0.0
2.1299999999999986,0.13721228383154943,0.09917900138232462,-0.25,0.6258740425109863,-1.0798863859156391,3.138097005730131,-3.141592653589793,-0.5729959193566461,-2.196670369305883,0.0,0.0,0.0,0.0,0.0,0.0
2.1399999999999983,0.1364178560104766,0.09907333326706967,-0.25,0.6281263828277588,-1.079840548011541,3.13810943518345,-3.141592653589793,-0.5730230808320799,-2.1989227096226553,0.0,0.0,0.0,0.0,0.0,0.0
2.149999999999998,0.1356243005451319,0.0989613018567526,-0.25,0.630363941192627,-1.0797950513774914,3.138121879696298,-3.141592653589793,-0.5730501321641622,-2.2011602679875235,0.0,0.0,0.0,0.0,0.0,0.0
2.159999999999998,0.13483166840409996,0.09884291434694153,-0.25,0.6325865387916565,-1.0797490905919052,3.138134387687364,-3.141592653589793,-0.5730774052882698,-2.203382865586553,0.0,0.0,0.0,0.0,0.0,0.0
2.1699999999999977,0.13404001049666212,0.09871817834144503,-0.25,0.6347938776016235,-1.0797032732501055,3.1381469217689393,-3.141592653589793,-0.5731046490611004,-2.2055902043965205,0.0,0.0,0.0,0.0,0.0,0.0
2.1799999999999975,0.13324937766952638,0.0985871018518236,-0.25,0.6369857788085938,-1.0796574002372292,3.138159494568658,-3.141592653589793,-0.5731319461056514,-2.2077821056034903,0.0,0.0,0.0,0.0,0.0,0.0
2.1899999999999973,0.13245982070356188,0.09844969329687525,-0.25,0.6391618847846985,-1.0796114732546922,3.138172105098967,-3.141592653589793,-0.5731592949638844,-2.209958211579595,0.0,0.0,0.0,0.0,0.0,0.0
2.199999999999997,0.13167139031053707,0.0983059615020947,-0.25,0.6413220763206482,-1.0795654951606952,3.1381847537718404,-3.141592653589793,-0.5731866949569266,-2.2121184031155448,0.0,0.0,0.0,0.0,0.0,0.0
2.209999999999997,0.1308841371298628,0.09815591569910655,-0.25,0.6434659361839294,-1.0795194673309947,3.1381974393838608,-3.141592653589793,-0.5732141445596386,-2.214262262978826,0.0,0.0,0.0,0.0,0.0,0.0
2.2199999999999966,0.1300981117253398,0.09799956552507233,-0.25,0.6455934047698975,-1.0794733913869372,3.138210162640446,-3.141592653589793,-0.5732416437901642,-2.216389731564794,0.0,0.0,0.0,0.0,0.0,0.0
2.2299999999999964,0.12931336458191095,0.09783692102207153,-0.25,0.647704005241394,-1.079427271304695,3.1382229223751708,-3.141592653589793,-0.5732691902168511,-2.2185003320362906,0.0,0.0,0.0,0.0,0.0,0.0
2.239999999999996,0.1285299461024189,0.09766799263645672,-0.25,0.6497975587844849,-1.079381109773676,3.1382357186667456,-3.141592653589793,-0.5732967829366961,-2.2205938855793814,0.0,0.0,0.0,0.0,0.0,0.0
2.249999999999996,0.12774790660436858,0.09749279121818237,-0.25,0.6518738865852356,-1.0793349062126243,3.1382485510970284,-3.141592653589793,-0.573324421801839,-2.222670213380132,0.0,0.0,0.0,0.0,0.0,0.0
2.259999999999996,0.12696729631669568,0.09731132802010822,-0.25,0.6539325714111328,-1.0792886631650678,3.1382614193271525,-3.141592653589793,-0.5733521056048888,-2.2247288982060294,0.0,0.0,0.0,0.0,0.0,0.0
2.2699999999999956,0.1261881653765402,0.09712361469727639,-0.25,0.6559733748435974,-1.0792423863498346,3.1382743233131585,-3.141592653589793,-0.5733798322449917,-2.226769701638494,0.0,0.0,0.0,0.0,0.0,0.0
2.2799999999999954,0.12541056382602658,0.09692966330616282,-0.25,0.6579959392547607,-1.0791960746176343,3.1382872623890687,-3.141592653589793,-0.5734076015672979,-2.2287922660496577,0.0,0.0,0.0,0.0,0.0,0.0
2.289999999999995,0.1246345416090493,0.09672948630390295,-0.25,0.6600000262260437,-1.0791497313652005,3.1383002359672236,-3.141592653589793,-0.5734354118438432,-2.2307963530209403,0.0,0.0,0.0,0.0,0.0,0.0
2.299999999999995,0.12386014856806524,0.09652309654749157,-0.25,0.6619853377342224,-1.0791033592365586,3.1383132441859267,-3.141592653589793,-0.5734632622387955,-2.232781664529119,0.0,0.0,0.0,0.0,0.0,0.0
2.3099999999999947,0.12308743444089236,0.09631050729295705,-0.25,0.6639514565467834,-1.0790569586223278,3.138326286703066,-3.141592653589793,-0.5734911523185865,-2.23474778334168,0.0,0.0,0.0,0.0,0.0,0.0
2.3199999999999945,0.12231644885751511,0.09609173219450996,-0.25,0.6658982038497925,-1.0790105345359375,3.138339362613582,-3.141592653589793,-0.5735190795005641,-2.236694530644689,0.0,0.0,0.0,0.0,0.0,0.0
2.3299999999999943,0.12154724133689679,0.09586678530366607,-0.25,0.6678251624107361,-1.0789640878589921,3.1383524723488705,-3.141592653589793,-0.5735470438352246,-2.2386214892056326,0.0,0.0,0.0,0.0,0.0,0.0
2.339999999999994,0.1207798612837991,0.09563568106834382,-0.25,0.6697320342063904,-1.078917621481775,3.138365614835486,-3.141592653589793,-0.5735750433619105,-2.240528361001287,0.0,0.0,0.0,0.0,0.0,0.0
2.349999999999994,0.12001435798560887,0.0953984343319364,-0.25,0.6716184616088867,-1.078871137368381,3.1383787902505613,-3.141592653589793,-0.5736030775231695,-2.2424147884037833,0.0,0.0,0.0,0.0,0.0,0.0
2.3599999999999937,0.11925078060917249,0.09515506033235835,-0.25,0.6734840869903564,-1.078824637515865,3.1383919978167754,-3.141592653589793,-0.5736311449337193,-2.244280413785253,0.0,0.0,0.0,0.0,0.0,0.0
2.3699999999999934,0.11848917819763796,0.09490557470106688,-0.25,0.6753285527229309,-1.07877812478654,3.138405237310762,-3.141592653589793,-0.5736592443696216,-2.2461248795178275,0.0,0.0,0.0,0.0,0.0,0.0
2.3799999999999932,0.11772959966730506,0.0946499934620579,-0.25,0.6771515011787415,-1.0787316005135157,3.1384185083103215,-3.141592653589793,-0.5736873749886829,-2.247947827973638,0.0,0.0,0.0,0.0,0.0,0.0
2.389999999999993,0.11697209380448334,0.09438833303083677,-0.25,0.6789525151252747,-1.0786850690080918,3.1384318105819897,-3.141592653589793,-0.5737155350354848,-2.249748841920171,0.0,0.0,0.0,0.0,0.0,0.0
2.399999999999993,0.11621670926235886,0.09412061021336406,-0.25,0.6807312965393066,-1.0786385324319596,3.1384451436869742,-3.141592653589793,-0.5737437233546403,-2.251527623334203,0.0,0.0,0.0,0.0,0.0,0.0
2.4099999999999926,0.11546349455786928,0.09384684220497605,-0.25,0.6824873685836792,-1.0785919909346102,3.1384585070529063,-3.141592653589793,-0.5737719394025863,-2.2532836953785758,0.0,0.0,0.0,0.0,0.0,0.0
2.4199999999999924,0.11471249806858749,0.09356704658928033,-0.25,0.6842204332351685,-1.07854544827617,3.138471900351341,-3.141592653589793,-0.5738001815415036,-2.255016760030065,0.0,0.0,0.0,0.0,0.0,0.0
2.429999999999992,0.11396376802961469,0.09328124133702649,-0.25,0.6859300136566162,-1.0784989077857912,3.1384853232260568,-3.141592653589793,-0.5738284482652964,-2.2567263404515128,0.0,0.0,0.0,0.0,0.0,0.0
2.439999999999992,0.11321735253048218,0.09298944480495178,-0.25,0.6876157522201538,-1.0784523707983276,3.138498775141839,-3.141592653589793,-0.5738567386344117,-2.2584120790150504,0.0,0.0,0.0,0.0,0.0,0.0
2.4499999999999917,0.11247329951206264,0.09269167573460219,-0.25,0.689277172088623,-1.0784058400380694,3.138512255889964,-3.141592653589793,-0.5738850514870361,-2.2600734988835196,0.0,0.0,0.0,0.0,0.0,0.0
2.4599999999999915,0.11173165676349106,0.0923879532511287,-0.25,0.6909137964248657,-1.0783591191523154,3.1385257772360706,-3.141592653589793,-0.5739134677295602,-2.2617101232197623,0.0,0.0,0.0,0.0,0.0,0.0
2.4699999999999913,0.11099247191909534,0.09207829686205883,-0.25,0.692525327205658,-1.078312806795438,3.138539301755353,-3.141592653589793,-0.5739417393595617,-2.2633216540005545,0.0,0.0,0.0,0.0,0.0,0.0
2.479999999999991,0.11025579245533676,0.09176272645604387,-0.25,0.694111168384552,-1.0782661102211453,3.1385528780330016,-3.141592653589793,-0.5739701939533433,-2.2649074951794486,0.0,0.0,0.0,0.0,0.0,0.0
2.489999999999991,0.10952166568776064,0.09144126230158126,-0.25,0.6956709027290344,-1.0782198282941629,3.138566457313706,-3.141592653589793,-0.5739985015783114,-2.266467229523931,0.0,0.0,0.0,0.0,0.0,0.0
2.4999999999999907,0.10879013876795748,0.09111392504571296,-0.25,0.697204053401947,-1.0781733659977188,3.138580074861144,-3.141592653589793,-0.5740269070793607,-2.2680003801968436,0.0,0.0,0.0,0.0,0.0,0.0
2.5099999999999905,0.10806125868053434,0.09078073571269922,-0.25,0.6987101435661316,-1.0781269251397774,3.1385937186482344,-3.141592653589793,-0.5740553273561347,-2.269506470361028,0.0,0.0,0.0,0.0,0.0,0.0
2.5199999999999902,0.10733507224009725,0.0904417157026683,-0.25,0.7001886963844299,-1.078080507754617,3.1386073878191656,-3.141592653589793,-0.5740837609425162,-2.2709850231793265,0.0,0.0,0.0,0.0,0.0,0.0
2.52999999999999,0.1066116260882442,0.09009688679024191,-0.25,0.7016391754150391,-1.0780341162985057,3.1386210825698377,-3.141592653589793,-0.5741122071190806,-2.2724355022099356,0.0,0.0,0.0,0.0,0.0,0.0
2.53999999999999,0.10589096669056978,0.08974627112313678,-0.25,0.7030611038208008,-1.07798775366237,3.1386348012860434,-3.141592653589793,-0.5741406634622997,-2.2738574306156973,0.0,0.0,0.0,0.0,0.0,0.0
2.5499999999999896,0.10517314033368033,0.08938989122074197,-0.25,0.7044538855552673,-1.0779416212768975,3.1386485323289097,-3.141592653589793,-0.5741690473358655,-2.275250212350164,0.0,0.0,0.0,0.0,0.0,0.0
2.5599999999999894,0.10445819312222146,0.0890277699726727,-0.25,0.7058170437812805,-1.0778951259712368,3.138662311313338,-3.141592653589793,-0.574197603230144,-2.276613370576177,0.0,0.0,0.0,0.0,0.0,0.0
2.569999999999989,0.10374617097591651,0.08865993063730002,-0.25,0.7071499228477478,-1.0778488667818138,3.138676101235802,-3.141592653589793,-0.5742260833499852,-2.2779462496426444,0.0,0.0,0.0,0.0,0.0,0.0
2.579999999999989,0.10303711962661745,0.0882863968402571,-0.25,0.7084521055221558,-1.0778026456741916,3.1386899137686566,-3.141592653589793,-0.5742545691335766,-2.2792484323170523,0.0,0.0,0.0,0.0,0.0,0.0
2.5899999999999888,0.1023310846153675,0.08790719257292173,-0.25,0.7097228169441223,-1.0777564668074913,3.1387037482779387,-3.141592653589793,-0.5742830585375281,-2.280519143739019,0.0,0.0,0.0,0.0,0.0,0.0
2.5999999999999885,0.10162811128947605,0.08752234219087537,-0.25,0.710961639881134,-1.0777103318520744,3.1387176043293348,-3.141592653589793,-0.574311550587181,-2.2817579666760306,0.0,0.0,0.0,0.0,0.0,0.0
2.6099999999999883,0.10092824479960627,0.08713187041233895,-0.25,0.7121678590774536,-1.0776642454820937,3.138731481239166,-3.141592653589793,-0.5743400430107353,-2.28296418587235,0.0,0.0,0.0,0.0,0.0,0.0
2.619999999999988,0.10023153009687491,0.0867358023165851,-0.25,0.7133408784866333,-1.077618208136995,3.1387453788526383,-3.141592653589793,-0.5743685355166095,-2.28413720528153,0.0,0.0,0.0,0.0,0.0,0.0
2.629999999999988,0.0995380119299655,0.08633416334232755,-0.25,0.7144800424575806,-1.0775722229077385,3.138759296340698,-3.141592653589793,-0.5743970262800344,-2.285276369252477,0.0,0.0,0.0,0.0,0.0,0.0
2.6399999999999877,0.09884773484225387,0.08592697928608703,-0.25,0.7155847549438477,-1.0775262940037074,3.1387732329594282,-3.141592653589793,-0.5744255131453723,-2.286381081738744,0.0,0.0,0.0,0.0,0.0,0.0
2.6499999999999875,0.09816074316894752,0.08551427630053463,-0.25,0.7166542410850525,-1.0774804231957074,3.1387871883444074,-3.141592653589793,-0.5744539951613571,-2.287450567879949,0.0,0.0,0.0,0.0,0.0,0.0
2.6599999999999873,0.09747708103423791,0.08509608089281191,-0.25,0.7176879644393921,-1.0774346125239997,3.1388011617957936,-3.141592653589793,-0.5744824709927775,-2.288484291234289,0.0,0.0,0.0,0.0,0.0,0.0
2.669999999999987,0.09679679234846637,0.08467241992282842,-0.25,0.7186850309371948,-1.0773888653246004,3.138815152851505,-3.141592653589793,-0.5745109390400042,-2.2894813577320914,0.0,0.0,0.0,0.0,0.0,0.0
2.679999999999987,0.09611992080530402,0.08424332060153665,-0.25,0.7196449041366577,-1.077343184671161,3.138829160897245,-3.141592653589793,-0.5745393976679655,-2.2904412309315543,0.0,0.0,0.0,0.0,0.0,0.0
2.6899999999999866,0.09544650987894515,0.08380881048918408,-0.25,0.7205666303634644,-1.0772975733052483,3.1388431850217913,-3.141592653589793,-0.5745678451076288,-2.291362957158361,0.0,0.0,0.0,0.0,0.0,0.0
2.6999999999999864,0.09477660282131531,0.08336891749354336,-0.25,0.7214497327804565,-1.0772520339361247,3.138857224875693,-3.141592653589793,-0.5745962800817562,-2.292246059575353,0.0,0.0,0.0,0.0,0.0,0.0
2.709999999999986,0.09411024265929288,0.08292366986811953,-0.25,0.7222931981086731,-1.0772065695271174,3.138871279756616,-3.141592653589793,-0.574624700919782,-2.2930895249035697,0.0,0.0,0.0,0.0,0.0,0.0
2.719999999999986,0.09344747219194591,0.08247309621033558,-0.25,0.7230963706970215,-1.0771611822229197,3.1388853489028197,-3.141592653589793,-0.5746531061957977,-2.293892697491918,0.0,0.0,0.0,0.0,0.0,0.0
2.7299999999999858,0.09278833398778308,0.08201722545969561,-0.25,0.7238583564758301,-1.0771158763610185,3.138899431866184,-3.141592653589793,-0.5746814939605387,-2.2946546832707266,0.0,0.0,0.0,0.0,0.0,0.0
2.7399999999999856,0.09213287038201945,0.08155608689592603,-0.25,0.7245782613754272,-1.0770708487036025,3.1389135150519163,-3.141592653589793,-0.5747097815803978,-2.295374588170324,0.0,0.0,0.0,0.0,0.0,0.0
2.7499999999999853,0.09148112347385767,0.08108971013709512,-0.25,0.7252554297447205,-1.0770255161336255,3.1389276353927222,-3.141592653589793,-0.5747382110732326,-2.296051756539617,0.0,0.0,0.0,0.0,0.0,0.0
2.759999999999985,0.0908331351237837,0.08061812513771056,-0.25,0.7258888483047485,-1.0769804686113424,3.1389417550880925,-3.141592653589793,-0.5747665372079528,-2.296685175099645,0.0,0.0,0.0,0.0,0.0,0.0
2.769999999999985,0.09018894695087845,0.0801413621867957,-0.25,0.7264776229858398,-1.0769355126637379,3.138955885216051,-3.141592653589793,-0.5747948392782668,-2.2972739497807364,0.0,0.0,0.0,0.0,0.0,0.0
2.7799999999999847,0.08954860033014445,0.07965945190594388,-0.25,0.7270208597183228,-1.0768906532788005,3.138970025881571,-3.141592653589793,-0.5748231155727309,-2.2978171865132193,0.0,0.0,0.0,0.0,0.0,0.0
2.7899999999999845,0.0889121363898486,0.07917242524735198,-0.25,0.7275176048278809,-1.076845890770489,3.138984175625934,-3.141592653589793,-0.5748513647303803,-2.2983139316227774,0.0,0.0,0.0,0.0,0.0,0.0
2.7999999999999843,0.08827959600888047,0.07868031349183222,-0.25,0.727966845035553,-1.076801229985378,3.1389983337315037,-3.141592653589793,-0.574879584387709,-2.2987631718304495,0.0,0.0,0.0,0.0,0.0,0.0
2.809999999999984,0.08765101981412668,0.078183148246803,-0.25,0.7283676862716675,-1.0767564777879777,3.1390125120619814,-3.141592653589793,-0.5749078543914995,-2.299164013066564,0.0,0.0,0.0,0.0,0.0,0.0
2.819999999999984,0.08702644817786168,0.07768096144425903,-0.25,0.7287189960479736,-1.0767122224540486,3.1390266726738947,-3.141592653589793,-0.5749359299859704,-2.29951532284287,0.0,0.0,0.0,0.0,0.0,0.0
2.8299999999999836,0.08640592121515452,0.0771737853387202,-0.25,0.729019820690155,-1.076667883988046,3.1390408516339647,-3.141592653589793,-0.5749640513324189,-2.299816147485052,0.0,0.0,0.0,0.0,0.0,0.0
2.8399999999999834,0.0857894787812925,0.07666165250516005,-0.25,0.7292690277099609,-1.0766234639483336,3.1390550482793493,-3.141592653589793,-0.5749922173023396,-2.300065354504858,0.0,0.0,0.0,0.0,0.0,0.0
2.849999999999983,0.0851771604692212,0.07614459583691346,-0.25,0.7294656038284302,-1.0765795492523242,3.1390692244386127,-3.141592653589793,-0.5750201834310161,-2.3002619306233267,0.0,0.0,0.0,0.0,0.0,0.0
2.859999999999983,0.0845690056070016,0.07562264854356404,-0.25,0.7296082377433777,-1.0765355598322763,3.1390834166648407,-3.141592653589793,-0.5750481903257542,-2.3004045645382742,0.0,0.0,0.0,0.0,0.0,0.0
2.869999999999983,0.0839650532552841,0.07509584414881115,-0.25,0.7296960353851318,-1.0764916941339013,3.1390976114374034,-3.141592653589793,-0.5750761548036216,-2.3004923621800284,0.0,0.0,0.0,0.0,0.0,0.0
2.8799999999999826,0.08336534220479963,0.07456421648831657,-0.25,0.729727566242218,-1.0764479529166149,3.1391118079862252,-3.141592653589793,-0.5751040759313583,-2.3005238930371146,0.0,0.0,0.0,0.0,0.0,0.0
2.8899999999999824,0.08276991097386836,0.07402779970753158,-0.25,0.7297017574310303,-1.076404341881343,3.139126005164366,-3.141592653589793,-0.5751319506699897,-2.300498084225927,0.0,0.0,0.0,0.0,0.0,0.0
2.899999999999982,0.08217879780592555,0.07348662825950357,-0.25,0.7296172976493835,-1.0763608638921252,3.139140202205631,-3.141592653589793,-0.5751597773298835,-2.30041362444428,0.0,0.0,0.0,0.0,0.0,0.0
2.909999999999982,0.08159204066706545,0.07294073690266344,-0.25,0.7294729351997375,-1.0763175220325252,3.139154398044351,-3.141592653589793,-0.5751875538862166,-2.300269261994634,0.0,0.0,0.0,0.0,0.0,0.0
2.9199999999999817,0.08100967724360256,0.07239016069859291,-0.25,0.7292672991752625,-1.076274318757367,3.1391685916086427,-3.141592653589793,-0.5752152785357963,-2.300063625970159,0.0,0.0,0.0,0.0,0.0,0.0
2.9299999999999815,0.08043174493965138,0.07183493500977277,-0.25,0.728999137878418,-1.076231451602082,3.1391827696402643,-3.141592653589793,-0.5752428686442308,-2.299795464673315,0.0,0.0,0.0,0.0,0.0,0.0
2.9399999999999813,0.07985828087472388,0.07127509549731148,-0.25,0.7286669611930847,-1.0761883441602436,3.1391969681491734,-3.141592653589793,-0.5752705630455037,-2.2994632879879813,0.0,0.0,0.0,0.0,0.0,0.0
2.949999999999981,0.07928932188134527,0.07071067811865477,-0.25,0.7282694578170776,-1.076145579415746,3.1392111488585535,-3.141592653589793,-0.5752981185919658,-2.2990657846119746,0.0,0.0,0.0,0.0,0.0,0.0
2.959999999999981,0.07872490450268858,0.07014171912527618,-0.25,0.7278050184249878,-1.0761029680763734,3.139225323188734,-3.141592653589793,-0.5753256133696608,-2.2986013452198844,0.0,0.0,0.0,0.0,0.0,0.0
2.9699999999999807,0.07816506499022727,0.06956825506034865,-0.25,0.7272723317146301,-1.076060512156511,3.139239490039582,-3.141592653589793,-0.5753530457101809,-2.2980686585095267,0.0,0.0,0.0,0.0,0.0,0.0
2.9799999999999804,0.07760983930140715,0.06899032275639752,-0.25,0.7266696691513062,-1.0760182166759087,3.1392536480755187,-3.141592653589793,-0.5753804126590519,-2.2974659959462027,0.0,0.0,0.0,0.0,0.0,0.0
2.9899999999999802,0.07705926309733661,0.06840795933293463,-0.25,0.7259956002235413,-1.075976084391197,3.1392677960678324,-3.141592653589793,-0.5754077121700353,-2.296791927018438,0.0,0.0,0.0,0.0,0.0,0.0
2.99999999999998,0.07651337174049647,0.06782120219407449,-0.25,0.7252484560012817,-1.075934120735134,3.1392819331302046,-3.141592653589793,-0.575434941523469,-2.2960447827961783,0.0,0.0,0.0,0.0,0.0,0.0
3.00999999999998,0.07597220029246848,0.0672300890261317,-0.25,0.7244265675544739,-1.0758923269110596,3.1392960578956774,-3.141592653589793,-0.5754620991156535,-2.2952228943493704,0.0,0.0,0.0,0.0,0.0,0.0
3.0199999999999796,0.07543578351168347,0.0666346577952004,-0.25,0.7235282063484192,-1.0758507065817113,3.1393101689052934,-3.141592653589793,-0.5754891823764767,-2.2943245331433157,0.0,0.0,0.0,0.0,0.0,0.0
3.0299999999999794,0.07490415585118892,0.06603494674471597,-0.25,0.7225516438484192,-1.0758092663057486,3.1393242647931068,-3.141592653589793,-0.5755161877699195,-2.2933479706433157,0.0,0.0,0.0,0.0,0.0,0.0
3.039999999999979,0.07437735145643598,0.06543099439299845,-0.25,0.7214951515197754,-1.0757680060068644,3.139338344656954,-3.141592653589793,-0.5755431145514085,-2.292291478314672,0.0,0.0,0.0,0.0,0.0,0.0
3.049999999999979,0.0738554041630866,0.06482283953077887,-0.25,0.7203567624092102,-1.0757269320108733,3.139352406685468,-3.141592653589793,-0.5755699588883051,-2.2911530892041068,0.0,0.0,0.0,0.0,0.0,0.0
3.0599999999999787,0.07333834749484001,0.06421052121870756,-0.25,0.7191346883773804,-1.075686048183167,3.139366449919933,-3.141592653589793,-0.5755967185647868,-2.2899310151722774,0.0,0.0,0.0,0.0,0.0,0.0
3.0699999999999785,0.07282621466127984,0.06359407878484552,-0.25,0.7178270220756531,-1.07564535853302,3.1393804725338796,-3.141592653589793,-0.5756233905715242,-2.2886233488705496,0.0,0.0,0.0,0.0,0.0,0.0
3.0799999999999783,0.07231903855574102,0.06297355182213839,-0.25,0.7164316177368164,-1.075604865399006,3.139394473197015,-3.141592653589793,-0.5756499729263177,-2.287227944531713,0.0,0.0,0.0,0.0,0.0,0.0
3.089999999999978,0.07181685175319703,0.062348980185873364,-0.25,0.7149465084075928,-1.0755645756710717,3.1394084505333524,-3.141592653589793,-0.5756764619648755,-2.2857428352024893,0.0,0.0,0.0,0.0,0.0,0.0
3.099999999999978,0.07131968650816785,0.0617204039911196,-0.25,0.7133696675300598,-1.0755244895829392,3.139422402715949,-3.141592653589793,-0.5757028560404183,-2.2841659943249564,0.0,0.0,0.0,0.0,0.0,0.0
3.1099999999999777,0.07082757475264806,0.06108786361015144,-0.25,0.7116989493370056,-1.0754846134152558,3.1394363282111755,-3.141592653589793,-0.5757291515738797,-2.2824952761319026,0.0,0.0,0.0,0.0,0.0,0.0
3.1199999999999775,0.07034054809405617,0.060451399669855625,-0.25,0.7099319696426392,-1.075444951783858,3.139450225531329,-3.141592653589793,-0.5757553456264206,-2.2807282964375357,0.0,0.0,0.0,0.0,0.0,0.0
3.1299999999999772,0.06985863781320437,0.05981105304912161,-0.25,0.7080666422843933,-1.075405508022115,3.139464092959786,-3.141592653589793,-0.5757814355265506,-2.27886296907929,0.0,0.0,0.0,0.0,0.0,0.0
3.139999999999977,0.06938187486228947,0.059166864876216335,-0.25,0.7061007022857666,-1.07536628765763,3.1394779288819095,-3.141592653589793,-0.5758074178977862,-2.276897029080663,0.0,0.0,0.0,0.0,0.0,0.0
3.149999999999977,0.06891028986290493,0.0585188765261424,-0.25,0.7040315866470337,-1.0753272934757874,3.1394917311887642,-3.141592653589793,-0.5758332899312101,-2.2748279134419302,0.0,0.0,0.0,0.0,0.0,0.0
3.1599999999999766,0.068443913104074,0.05786712961798059,-0.25,0.7018569707870483,-1.0752885302443218,3.1395054984099104,-3.141592653589793,-0.5758590486478751,-2.272653297581945,0.0,0.0,0.0,0.0,0.0,0.0
3.1699999999999764,0.06798277454030445,0.05721166601221699,-0.25,0.6995744705200195,-1.0752500027713712,3.1395192284216744,-3.141592653589793,-0.5758846904960234,-2.270370797314916,0.0,0.0,0.0,0.0,0.0,0.0
3.179999999999976,0.06752690378966446,0.05655252780805412,-0.25,0.6971813440322876,-1.0752117159763799,3.1395329195035284,-3.141592653589793,-0.5759102122282109,-2.267977670827184,0.0,0.0,0.0,0.0,0.0,0.0
3.189999999999976,0.06707633013188054,0.0558897573407072,-0.25,0.6946750283241272,-1.075173673934442,3.139546569687658,-3.141592653589793,-0.5759356106905003,-2.2654713551190238,0.0,0.0,0.0,0.0,0.0,0.0
3.1999999999999758,0.0666310825064567,0.055223397178684755,-0.25,0.6920529007911682,-1.075135882322673,3.1395601767544274,-3.141592653589793,-0.5759608819353973,-2.2628492275860648,0.0,0.0,0.0,0.0,0.0,0.0
3.2099999999999755,0.06619118951081598,0.054553490121054905,-0.25,0.6893122792243958,-1.0750983433501915,3.139573738697404,-3.141592653589793,-0.5759860234496271,-2.2601086060192923,0.0,0.0,0.0,0.0,0.0,0.0
3.2199999999999753,0.06575667939846341,0.053880079194696055,-0.25,0.686450183391571,-1.0750610645068512,3.139587253451273,-3.141592653589793,-0.5760110307631164,-2.2572465101864676,0.0,0.0,0.0,0.0,0.0,0.0
3.229999999999975,0.0653275800771716,0.05320320765153367,-0.25,0.6834639310836792,-1.0750240508326527,3.1396007190773982,-3.141592653589793,-0.5760359003984901,-2.2542602578785758,0.0,0.0,0.0,0.0,0.0,0.0
3.239999999999975,0.06490391910718814,0.05252291896576216,-0.25,0.6803503632545471,-1.0749873056592083,3.1396141325223113,-3.141592653589793,-0.5760606285425142,-2.2511466900494437,0.0,0.0,0.0,0.0,0.0,0.0
3.2499999999999747,0.06448572369946541,0.05183925683105252,-0.25,0.6771067976951599,-1.07495083512163,3.1396274925171745,-3.141592653589793,-0.5760852118947981,-2.2479031244900565,0.0,0.0,0.0,0.0,0.0,0.0
3.2599999999999745,0.06407302071391302,0.051152265157746214,-0.25,0.6737299561500549,-1.074914832528055,3.1396407835147535,-3.141592653589793,-0.5761095673776127,-2.2445262829449515,0.0,0.0,0.0,0.0,0.0,0.0
3.2699999999999743,0.0636658366576725,0.05046198807003458,-0.25,0.6702167391777039,-1.0748787383277723,3.139654040634211,-3.141592653589793,-0.576133927017686,-2.2410130659726004,0.0,0.0,0.0,0.0,0.0,0.0
3.279999999999974,0.06326419768341496,0.049768469903125175,-0.25,0.6665639877319336,-1.0748431216439762,3.1396672238610925,-3.141592653589793,-0.5761580511468672,-2.23736031452683,0.0,0.0,0.0,0.0,0.0,0.0
3.289999999999974,0.0628681295876611,0.049071755200393814,-0.25,0.6627684831619263,-1.0748078019293903,3.1396803432795686,-3.141592653589793,-0.5761820135651583,-2.233564809956823,0.0,0.0,0.0,0.0,0.0,0.0
3.2999999999999736,0.06247765780912465,0.04837188871052399,-0.25,0.6588269472122192,-1.0747727829891893,3.1396933960731968,-3.141592653589793,-0.5762058104909151,-2.229623274007116,0.0,0.0,0.0,0.0,0.0,0.0
3.3099999999999734,0.06209280742707832,0.047668915384632575,-0.25,0.6547359228134155,-1.0747380712047505,3.139706379640632,-3.141592653589793,-0.576229437396183,-2.225532249608312,0.0,0.0,0.0,0.0,0.0,0.0
3.319999999999973,0.06171360315974293,0.04696288037338259,-0.25,0.6504920125007629,-1.0747034838799863,3.1397193034322246,-3.141592653589793,-0.5762529683171118,-2.2212883392956595,0.0,0.0,0.0,0.0,0.0,0.0
3.329999999999973,0.061340069362700034,0.046253829024083565,-0.25,0.6460916996002197,-1.0746695923091654,3.1397321274237804,-3.141592653589793,-0.5762761627875729,-2.2168880263951163,0.0,0.0,0.0,0.0,0.0,0.0
3.3399999999999728,0.06097223002732735,0.04554180687777862,-0.25,0.6415315270423889,-1.0746358360397323,3.139744885683392,-3.141592653589793,-0.5762992522675928,-2.2123278538372855,0.0,0.0,0.0,0.0,0.0,0.0
3.3499999999999726,0.060610108779258084,0.044826859666319746,-0.25,0.6368077993392944,-1.074602410922715,3.1397575630134558,-3.141592653589793,-0.5763221530581869,-2.2076041261341914,0.0,0.0,0.0,0.0,0.0,0.0
3.3599999999999723,0.06025372887686327,0.04410903330943029,-0.25,0.6319169402122498,-1.0745693242688734,3.139770156315219,-3.141592653589793,-0.576344859870814,-2.2027132670071463,0.0,0.0,0.0,0.0,0.0,0.0
3.369999999999972,0.05990311320975811,0.043388373911755825,-0.25,0.6268552541732788,-1.0745365802053914,3.1397826619119265,-3.141592653589793,-0.5763673680724954,-2.1976515809681754,0.0,0.0,0.0,0.0,0.0,0.0
3.379999999999972,0.059558284297331746,0.042664927759902826,-0.25,0.621618926525116,-1.0745041855840007,3.139795076784768,-3.141592653589793,-0.5763896726087503,-2.1924152533200125,0.0,0.0,0.0,0.0,0.0,0.0
3.3899999999999717,0.059219264287300816,0.0419387413194657,-0.25,0.6162043213844299,-1.0744721485845705,3.1398073977248266,-3.141592653589793,-0.5764117677831196,-2.1870006481793265,0.0,0.0,0.0,0.0,0.0,0.0
3.3999999999999715,0.05888607495428709,0.04120986123204259,-0.25,0.6106075644493103,-1.0744404734675363,3.1398196207084013,-3.141592653589793,-0.5764336486180887,-2.181403891244207,0.0,0.0,0.0,0.0,0.0,0.0
3.4099999999999713,0.05855873769841878,0.040478334312239406,-0.25,0.6048247814178467,-1.0744091699121263,3.139831742663155,-3.141592653589793,-0.5764553089925505,-2.1756211082127432,0.0,0.0,0.0,0.0,0.0,0.0
3.419999999999971,0.05823727354395619,0.039744207544663325,-0.25,0.5988521575927734,-1.0743782433733493,3.139843759652793,-3.141592653589793,-0.576476743572378,-2.16964848438767,0.0,0.0,0.0,0.0,0.0,0.0
3.429999999999971,0.057921703137941205,0.03900752808090472,-0.25,0.5926859378814697,-1.074347701574176,3.1398556677732987,-3.141592653589793,-0.5764979462321597,-2.1634822646763663,0.0,0.0,0.0,0.0,0.0,0.0
3.4399999999999706,0.05761204674887134,0.03826834323650899,-0.25,0.5863221287727356,-1.0743175506869136,3.139867463207425,-3.141592653589793,-0.5765189114805247,-2.157118455567632,0.0,0.0,0.0,0.0,0.0,0.0
3.4499999999999704,0.05730832426539785,0.03752670048793745,-0.25,0.5797569155693054,-1.0742877986937192,3.1398791419329104,-3.141592653589793,-0.5765396329974589,-2.150553242364202,0.0,0.0,0.0,0.0,0.0,0.0
3.45999999999997,0.05701055519504826,0.036782647469517885,-0.25,0.5729865431785583,-1.0742584552439194,3.13989070021335,-3.141592653589793,-0.5765601041052385,-2.143782869973455,0.0,0.0,0.0,0.0,0.0,0.0
3.46999999999997,0.056718758662973545,0.03603623197038538,-0.25,0.5660069584846497,-1.0742295253213783,3.13990213338605,-3.141592653589793,-0.5765803190192355,-2.136803285279546,0.0,0.0,0.0,0.0,0.0,0.0
3.47999999999997,0.05643295341071969,0.035287501931412564,-0.25,0.5588147044181824,-1.0742010169501004,3.139913437025502,-3.141592653589793,-0.5766002710597956,-2.129611031213079,0.0,0.0,0.0,0.0,0.0,0.0
3.4899999999999696,0.056153157795024,0.03453650544213081,-0.25,0.5514058470726013,-1.0741729401689,3.1399246072775533,-3.141592653589793,-0.5766199533079734,-2.122202173867498,0.0,0.0,0.0,0.0,0.0,0.0
3.4999999999999694,0.05587938978663598,0.03378329073764119,-0.25,0.54377681016922,-1.0741453001935355,3.1399356390458415,-3.141592653589793,-0.5766393595249101,-2.1145731369641165,0.0,0.0,0.0,0.0,0.0,0.0
3.509999999999969,0.055611666969163254,0.033027906195516724,-0.25,0.535923957824707,-1.0741181085960747,3.139946528230851,-3.141592653589793,-0.5766584820284028,-2.1067202846196036,0.0,0.0,0.0,0.0,0.0,0.0
3.519999999999969,0.05535000653794214,0.03227040033269503,-0.25,0.5278438925743103,-1.0740913719687768,3.1399572696895888,-3.141592653589793,-0.5766773140427554,-2.098640219369207,0.0,0.0,0.0,0.0,0.0,0.0
3.5299999999999687,0.05509442529893316,0.03151082180236209,-0.25,0.5195332169532776,-1.0740650990363356,3.139967858745374,-3.141592653589793,-0.5766958484207528,-2.090329543748174,0.0,0.0,0.0,0.0,0.0,0.0
3.5399999999999685,0.0548449396676417,0.030749219390827594,-0.25,0.5109885931015015,-1.0740392975204642,3.139978290285436,-3.141592653589793,-0.5767140780047346,-2.081784919896398,0.0,0.0,0.0,0.0,0.0,0.0
3.5499999999999683,0.05460156566806364,0.02998564201439119,-0.25,0.5022071599960327,-1.0740139783238227,3.1399885594918615,-3.141592653589793,-0.576731994740414,-2.0730034867909293,0.0,0.0,0.0,0.0,0.0,0.0
3.559999999999968,0.05436431893165622,0.029220138716200984,-0.25,0.4931859076023102,-1.073989150638166,3.1399986613095017,-3.141592653589793,-0.5767495909885818,-2.0639822343972067,0.0,0.0,0.0,0.0,0.0,0.0
3.569999999999968,0.05413321469633396,0.028452758663103275,-0.25,0.48392215371131897,-1.0739646358020352,3.140008602475289,-3.141592653589793,-0.5767669370167405,-2.0547184805062155,0.0,0.0,0.0,0.0,0.0,0.0
3.5799999999999677,0.05390826780549007,0.027683551142484948,-0.25,0.47441351413726807,-1.0739410006313719,3.1400183409410367,-3.141592653589793,-0.5767837922273945,-2.0452098409321646,0.0,0.0,0.0,0.0,0.0,0.0
3.5899999999999674,0.053689492707042985,0.02691256555910772,-0.25,0.46465766429901123,-1.0739176989349684,3.1400279081129217,-3.141592653589793,-0.5768003806761213,-2.035453991093908,0.0,0.0,0.0,0.0,0.0,0.0
3.5999999999999672,0.05347690345250847,0.02613985143193482,-0.25,0.45465266704559326,-1.0738951095473723,3.140037273901747,-3.141592653589793,-0.576816539860487,-2.02544899384049,0.0,0.0,0.0,0.0,0.0,0.0
3.609999999999967,0.05327051369609709,0.02536545839095078,-0.25,0.44439697265625,-1.0738726877376514,3.1400464697527486,-3.141592653589793,-0.5768324933438707,-2.0151932994511466,0.0,0.0,0.0,0.0,0.0,0.0
3.619999999999967,0.053070336693837206,0.024589436173973474,-0.25,0.433889240026474,-1.0738509987194078,3.140055453208797,-3.141592653589793,-0.5768480007563205,-2.0046855668213706,0.0,0.0,0.0,0.0,0.0,0.0
3.6299999999999666,0.05287638530272365,0.023811834623459868,-0.25,0.42312848567962646,-1.0738298648164513,3.140064230362853,-3.141592653589793,-0.576863131460021,-1.9939248124745232,0.0,0.0,0.0,0.0,0.0,0.0
3.6399999999999664,0.05268867197989181,0.02303270368330439,-0.25,0.4121142625808716,-1.0738092970587036,3.140072795814211,-3.141592653589793,-0.5768778768569015,-1.9829105893757681,0.0,0.0,0.0,0.0,0.0,0.0
3.649999999999966,0.05250720878181765,0.022252093395631452,-0.25,0.40084633231163025,-1.0737893065670043,3.1400811436594083,-3.141592653589793,-0.5768922278865066,-1.971642659106527,0.0,0.0,0.0,0.0,0.0,0.0
3.659999999999966,0.05233200736354332,0.021470053897581186,-0.25,0.3893250823020935,-1.0737699019247522,3.1400892682624413,-3.141592653589793,-0.5769061766331756,-1.9601214090969903,0.0,0.0,0.0,0.0,0.0,0.0
3.6699999999999657,0.05216307897792849,0.0206866354180891,-0.25,0.3775513470172882,-1.0737510936023327,3.1400971633775985,-3.141592653589793,-0.5769197139789407,-1.948347673812185,0.0,0.0,0.0,0.0,0.0,0.0
3.6799999999999655,0.05200043447492772,0.019901888274660287,-0.25,0.365526407957077,-1.073732890571259,3.1401048232852453,-3.141592653589793,-0.576932831796584,-1.9363227347519736,0.0,0.0,0.0,0.0,0.0,0.0
3.6899999999999653,0.05184408430089349,0.019115862870137255,-0.25,0.353252112865448,-1.073715304684848,3.1401122421872874,-3.141592653589793,-0.5769455208512588,-1.9240484396603446,0.0,0.0,0.0,0.0,0.0,0.0
3.699999999999965,0.051694038497905326,0.01832860968946302,-0.25,0.3407308757305145,-1.0736983441008974,3.1401194140436957,-3.141592653589793,-0.5769577730358673,-1.911527202525411,0.0,0.0,0.0,0.0,0.0,0.0
3.709999999999965,0.05155030670312477,0.017540179296438193,-0.25,0.3279658257961273,-1.0736820191745409,3.1401263332621365,-3.141592653589793,-0.5769695798323994,-1.8987621525910239,0.0,0.0,0.0,0.0,0.0,0.0
3.7199999999999647,0.05141289814817643,0.01675062233047365,-0.25,0.3149605989456177,-1.0736663387257046,3.140132993613266,-3.141592653589793,-0.5769809327329587,-1.8857569257405145,0.0,0.0,0.0,0.0,0.0,0.0
3.7299999999999645,0.05128182165855501,0.01595998950333796,-0.25,0.30171939730644226,-1.0736513126920997,3.1401393896727345,-3.141592653589793,-0.5769918235138389,-1.872515724101339,0.0,0.0,0.0,0.0,0.0,0.0
3.7399999999999642,0.05115708565305849,0.015168331595900095,-0.25,0.288247287273407,-1.07363695049556,3.1401455155729536,-3.141592653589793,-0.5770022437589293,-1.8590436140683038,0.0,0.0,0.0,0.0,0.0,0.0
3.749999999999964,0.051038698143247435,0.014375699454868211,-0.25,0.2745499014854431,-1.0736232625301199,3.140151366139227,-3.141592653589793,-0.5770121852930955,-1.8453462282803397,0.0,0.0,0.0,0.0,0.0,0.0
3.759999999999964,0.050926666732930365,0.01358214398952348,-0.25,0.26063352823257446,-1.0736102565346535,3.1401569356551757,-3.141592653589793,-0.5770216404371872,-1.831429855027471,0.0,0.0,0.0,0.0,0.0,0.0
3.7699999999999636,0.05082099861767542,0.01278771616845065,-0.25,0.24650530517101288,-1.0735977563853751,3.140162230762469,-3.141592653589793,-0.5770306784642939,-1.8173016319659094,0.0,0.0,0.0,0.0,0.0,0.0
3.7799999999999634,0.05072170058434816,0.011992467016264077,-0.25,0.23217295110225677,-1.0735863238069978,3.14016721007558,-3.141592653589793,-0.577039061173255,-1.8029692778971536,0.0,0.0,0.0,0.0,0.0,0.0
3.789999999999963,0.05062877901067575,0.011196447610330798,-0.25,0.21764494478702545,-1.07357541603794,3.1401719052655928,-3.141592653589793,-0.5770470116166213,-1.788441271581922,0.0,0.0,0.0,0.0,0.0,0.0
3.799999999999963,0.05054223986483723,0.010399709077489822,-0.25,0.20293046534061432,-1.0735652221235217,3.140176299030763,-3.141592653589793,-0.5770544467463823,-1.7737267921355109,0.0,0.0,0.0,0.0,0.0,0.0
3.8099999999999627,0.05046208870508019,0.009602302590768195,-0.25,0.1880393773317337,-1.0735557515659995,3.1401803869887672,-3.141592653589793,-0.577061359386578,-1.7588357041266303,0.0,0.0,0.0,0.0,0.0,0.0
3.8199999999999625,0.05038833067936388,0.008804279366094573,-0.25,0.17298224568367004,-1.073547012008536,3.1401841650091917,-3.141592653589793,-0.5770677432478357,-1.7437785724785666,0.0,0.0,0.0,0.0,0.0,0.0
3.8299999999999623,0.050320970525028444,0.00800569065900936,-0.25,0.1577703207731247,-1.0735390080232268,3.140187628760092,-3.141592653589793,-0.5770735929775973,-1.7285666475680213,0.0,0.0,0.0,0.0,0.0,0.0
3.839999999999962,0.05026001256849073,0.007206587761373017,-0.25,0.14241540431976318,-1.0735317471127157,3.1401907746573645,-3.141592653589793,-0.5770789028040528,-1.7132117311146597,0.0,0.0,0.0,0.0,0.0,0.0
3.849999999999962,0.050205460724966386,0.006407021998071323,-0.25,0.12692993879318237,-1.0735252349998294,3.140193599081254,-3.141592653589793,-0.5770836675676608,-1.697726265588079,0.0,0.0,0.0,0.0,0.0,0.0
3.8599999999999617,0.05015731849821836,0.005607044723719191,-0.25,0.11132694780826569,-1.0735194764624687,3.1401960988975812,-3.141592653589793,-0.5770878828650025,-1.6821232746031622,0.0,0.0,0.0,0.0,0.0,0.0
3.8699999999999615,0.05011558898033193,0.004806707319362116,-0.25,0.09561991691589355,-1.073514474810393,3.1401982711423457,-3.141592653589793,-0.5770915449682447,-1.6664162437107901,0.0,0.0,0.0,0.0,0.0,0.0
3.8799999999999613,0.05008027485151606,0.004006061189175939,-0.25,0.0798228308558464,-1.0735102373438252,3.140200113777315,-3.141592653589793,-0.5770946494995756,-1.650619157650743,0.0,0.0,0.0,0.0,0.0,0.0
3.889999999999961,0.05005137837993123,0.0032051577571655613,-0.25,0.06395003199577332,-1.0735067654783474,3.1402016241950346,-3.141592653589793,-0.5770971937198501,-1.63474635879067,0.0,0.0,0.0,0.0,0.0,0.0
3.899999999999961,0.05002890142154383,0.0024040484638617222,-0.25,0.048016257584095,-1.0735040612138267,3.140202800772334,-3.141592653589793,-0.5770991755199373,-1.6188125843789916,0.0,0.0,0.0,0.0,0.0,0.0
3.9099999999999606,0.05001284542000689,0.0016027847630174247,-0.25,0.03203649818897247,-1.0735021283649218,3.14020364220284,-3.141592653589793,-0.5771005924060698,-1.602832824983869,0.0,0.0,0.0,0.0,0.0,0.0
3.9199999999999604,0.0500032114065674,0.0008014181183028019,-0.25,0.016025958582758904,-1.0735009679419498,3.140204147460704,-3.141592653589793,-0.5771014431368587,-1.5868222853776555,0.0,0.0,0.0,0.0,0.0,0.0
3.92999999999996,0.05000000000000002,1.2246467991473533e-17,-0.25,2.4492934404725397e-16,-1.0735005801410207,3.140204315813582,-3.141592653589793,-0.5771017270157306,-1.570796326794897,0.0,0.0,0.0,0.0,0.0,0.0
3.93999999999996,0.0500032114065674,-0.000801418118302733,-0.25,-0.016025958582758904,-1.0735009679419498,3.140204147460704,-3.141592653589793,-0.5771014431368587,-1.5547703682121377,0.0,0.0,0.0,0.0,0.0,0.0
3.9499999999999598,0.05001284542000689,-0.0016027847630173562,-0.25,-0.03203649818897247,-1.0735021280331054,3.1402036421116932,-3.141592653589793,-0.5771005924480154,-1.538759828605924,0.0,0.0,0.0,0.0,0.0,0.0
3.9599999999999596,0.05002890142154383,-0.0024040484638616537,-0.25,-0.048016257584095,-1.0735040612138267,3.140202800772334,-3.141592653589793,-0.5770991755199373,-1.5227800692108016,0.0,0.0,0.0,0.0,0.0,0.0
3.9699999999999593,0.05005137837993123,-0.0032051577571654923,-0.25,-0.06395003199577332,-1.0735067654201362,3.1402016241953206,-3.141592653589793,-0.577097193741115,-1.5068462947991232,0.0,0.0,0.0,0.0,0.0,0.0
3.979999999999959,0.05008027485151606,-0.00400606118917587,-0.25,-0.0798228308558464,-1.0735102373438252,3.140200113777315,-3.141592653589793,-0.5770946494995756,-1.4909734959390504,0.0,0.0,0.0,0.0,0.0,0.0
3.989999999999959,0.05011558898033193,-0.0048067073193620476,-0.25,-0.09561991691589355,-1.073514474810393,3.1401982711423457,-3.141592653589793,-0.5770915449682447,-1.475176409879003,0.0,0.0,0.0,0.0,0.0,0.0
3.9999999999999587,0.05015731849821836,-0.0056070447237191665,-0.25,-0.11132694780826569,-1.0735194764624687,3.1401960988975812,-3.141592653589793,-0.5770878828650025,-1.4594693789866309,0.0,0.0,0.0,0.0,0.0,0.0
4.009999999999959,0.050205460724966386,-0.006407021998071256,-0.25,-0.12692993879318237,-1.0735252349998294,3.140193599081254,-3.141592653589793,-0.5770836675676608,-1.4438663880017142,0.0,0.0,0.0,0.0,0.0,0.0
4.019999999999959,0.05026001256849073,-0.007206587761372949,-0.25,-0.14241540431976318,-1.0735317470717707,3.1401907746084294,-3.141592653589793,-0.5770789027770278,-1.4283809224751334,0.0,0.0,0.0,0.0,0.0,0.0
4.0299999999999585,0.050320970525028444,-0.008005690659009293,-0.25,-0.1577703207731247,-1.0735390079099965,3.1401876287543136,-3.141592653589793,-0.5770735930135481,-1.413026006021772,0.0,0.0,0.0,0.0,0.0,0.0
4.039999999999958,0.05038833067936388,-0.008804279366094505,-0.25,-0.17298224568367004,-1.073547012008536,3.1401841650091917,-3.141592653589793,-0.5770677432478357,-1.3978140811112265,0.0,0.0,0.0,0.0,0.0,0.0
4.049999999999958,0.05046208870508019,-0.009602302590768127,-0.25,-0.1880393773317337,-1.0735557515659995,3.1401803869887672,-3.141592653589793,-0.577061359386578,-1.3827569494631629,0.0,0.0,0.0,0.0,0.0,0.0
4.059999999999958,0.05054223986483722,-0.010399709077489752,-0.25,-0.20293046534061432,-1.0735652221235217,3.140176299030763,-3.141592653589793,-0.5770544467463823,-1.3678658614542825,0.0,0.0,0.0,0.0,0.0,0.0
4.069999999999958,0.05062877901067575,-0.011196447610330774,-0.25,-0.21764494478702545,-1.0735754159231483,3.140171905257592,-3.141592653589793,-0.5770470116512372,-1.353151382007871,0.0,0.0,0.0,0.0,0.0,0.0
4.079999999999957,0.05072170058434816,-0.011992467016264007,-0.25,-0.23217295110225677,-1.0735863238069978,3.14016721007558,-3.141592653589793,-0.577039061173255,-1.3386233756926398,0.0,0.0,0.0,0.0,0.0,0.0
4.089999999999957,0.0508209986176754,-0.012787716168450584,-0.25,-0.24650530517101288,-1.0735979400889146,3.1401622185076334,-3.141592653589793,-0.5770306016577281,-1.3242910216238837,0.0,0.0,0.0,0.0,0.0,0.0
4.099999999999957,0.05092666673293035,-0.01358214398952341,-0.25,-0.26063352823257446,-1.0736102565346535,3.1401569356551757,-3.141592653589793,-0.5770216404371872,-1.3101627985623223,0.0,0.0,0.0,0.0,0.0,0.0
4.109999999999957,0.05103869814324742,-0.014375699454868142,-0.25,-0.2745499014854431,-1.0736232625301199,3.140151366139227,-3.141592653589793,-0.5770121852930955,-1.2962464253094537,0.0,0.0,0.0,0.0,0.0,0.0
4.119999999999957,0.05115708565305849,-0.015168331595900026,-0.25,-0.288247287273407,-1.07363695049556,3.1401455155729536,-3.141592653589793,-0.5770022437589293,-1.2825490395214898,0.0,0.0,0.0,0.0,0.0,0.0
4.129999999999956,0.051281821658554994,-0.01595998950333789,-0.25,-0.30171939730644226,-1.0736513126920997,3.1401393896727345,-3.141592653589793,-0.5769918235138389,-1.2690769294884543,0.0,0.0,0.0,0.0,0.0,0.0
4.139999999999956,0.05141289814817643,-0.016750622330473627,-0.25,-0.3149605989456177,-1.0736663387257046,3.140132993613266,-3.141592653589793,-0.5769809327329587,-1.2558357278492789,0.0,0.0,0.0,0.0,0.0,0.0
4.149999999999956,0.05155030670312477,-0.017540179296438127,-0.25,-0.3279658257961273,-1.0736820192613425,3.1401263332591096,-3.141592653589793,-0.5769695797984694,-1.2428305009987695,0.0,0.0,0.0,0.0,0.0,0.0
4.159999999999956,0.051694038497905326,-0.018328609689462955,-0.25,-0.3407308757305145,-1.0736983441008974,3.1401194140436957,-3.141592653589793,-0.5769577730358673,-1.2300654510643823,0.0,0.0,0.0,0.0,0.0,0.0
4.1699999999999555,0.051844084300893475,-0.01911586287013719,-0.25,-0.353252112865448,-1.073715304684848,3.1401122421872874,-3.141592653589793,-0.5769455208512588,-1.2175442139294488,0.0,0.0,0.0,0.0,0.0,0.0
4.179999999999955,0.05200043447492769,-0.019901888274660218,-0.25,-0.365526407957077,-1.073732890571259,3.1401048232852453,-3.141592653589793,-0.5769328317965838,-1.2052699188378198,0.0,0.0,0.0,0.0,0.0,0.0
4.189999999999955,0.052163078977928476,-0.02068663541808903,-0.25,-0.3775513470172882,-1.0737510936023327,3.1400971633775985,-3.141592653589793,-0.5769197139789407,-1.1932449797776083,0.0,0.0,0.0,0.0,0.0,0.0
4.199999999999955,0.052332007363543306,-0.021470053897581116,-0.25,-0.3893250823020935,-1.0737699019247522,3.1400892682624413,-3.141592653589793,-0.5769061766331754,-1.181471244492803,0.0,0.0,0.0,0.0,0.0,0.0
4.209999999999955,0.05250720878181765,-0.02225209339563143,-0.25,-0.40084633231163025,-1.0737893065670043,3.1400811436594083,-3.141592653589793,-0.5768922278865066,-1.1699499944832663,0.0,0.0,0.0,0.0,0.0,0.0
4.2199999999999545,0.0526886719798918,-0.023032703683304324,-0.25,-0.4121142625808716,-1.0738092970587036,3.140072795814211,-3.141592653589793,-0.5768778768569015,-1.1586820642140252,0.0,0.0,0.0,0.0,0.0,0.0
4.229999999999954,0.052876385302723636,-0.0238118346234598,-0.25,-0.42312848567962646,-1.0738298648164513,3.140064230362853,-3.141592653589793,-0.576863131460021,-1.1476678411152703,0.0,0.0,0.0,0.0,0.0,0.0
4.239999999999954,0.05307033669383719,-0.024589436173973408,-0.25,-0.433889240026474,-1.0738509987194078,3.140055453208797,-3.141592653589793,-0.5768480007563204,-1.1369070867684228,0.0,0.0,0.0,0.0,0.0,0.0
4.249999999999954,0.053270513696097074,-0.025365458390950713,-0.25,-0.44439697265625,-1.0738726877376514,3.1400464697527486,-3.141592653589793,-0.5768324933438707,-1.1263993541386466,0.0,0.0,0.0,0.0,0.0,0.0
4.259999999999954,0.05347690345250844,-0.026139851431934754,-0.25,-0.45465266704559326,-1.0738951095473723,3.140037273901747,-3.141592653589793,-0.576816539860487,-1.1161436597493033,0.0,0.0,0.0,0.0,0.0,0.0
4.269999999999953,0.05368949270704297,-0.026912565559107655,-0.25,-0.46465766429901123,-1.0739176989349684,3.1400279081129217,-3.141592653589793,-0.5768003806761213,-1.1061386624958853,0.0,0.0,0.0,0.0,0.0,0.0
4.279999999999953,0.05390826780549006,-0.027683551142484927,-0.25,-0.47441351413726807,-1.0739410006313719,3.1400183409410367,-3.141592653589793,-0.5767837922273944,-1.0963828126576287,0.0,0.0,0.0,0.0,0.0,0.0
4.289999999999953,0.05413321469633395,-0.028452758663103206,-0.25,-0.48392215371131897,-1.0739646358020352,3.140008602475289,-3.141592653589793,-0.5767669370167405,-1.0868741730835778,0.0,0.0,0.0,0.0,0.0,0.0
4.299999999999953,0.054364318931656205,-0.029220138716200918,-0.25,-0.4931859076023102,-1.073989150638166,3.1399986613095017,-3.141592653589793,-0.5767495909885818,-1.0776104191925864,0.0,0.0,0.0,0.0,0.0,0.0
4.3099999999999525,0.05460156566806362,-0.029985642014391124,-0.25,-0.5022071599960327,-1.0740139783238227,3.1399885594918615,-3.141592653589793,-0.576731994740414,-1.0685891667988638,0.0,0.0,0.0,0.0,0.0,0.0
4.319999999999952,0.05484493966764167,-0.030749219390827528,-0.25,-0.5109885931015015,-1.0740392975204642,3.139978290285436,-3.141592653589793,-0.5767140780047346,-1.059807733693395,0.0,0.0,0.0,0.0,0.0,0.0
4.329999999999952,0.05509442529893313,-0.031510821802362025,-0.25,-0.5195332169532776,-1.0740650990363356,3.139967858745374,-3.141592653589793,-0.5766958484207527,-1.051263109841619,0.0,0.0,0.0,0.0,0.0,0.0
4.339999999999952,0.05535000653794213,-0.03227040033269496,-0.25,-0.5278438925743103,-1.0740913719687768,3.1399572696895888,-3.141592653589793,-0.5766773140427554,-1.0429524342205865,0.0,0.0,0.0,0.0,0.0,0.0
4.349999999999952,0.055611666969163254,-0.033027906195516696,-0.25,-0.535923957824707,-1.0741181085960747,3.139946528230851,-3.141592653589793,-0.5766584820284026,-1.0348723689701895,0.0,0.0,0.0,0.0,0.0,0.0
4.3599999999999515,0.05587938978663595,-0.03378329073764113,-0.25,-0.54377681016922,-1.0741453001935355,3.1399356390458415,-3.141592653589793,-0.57663935952491,-1.0270195166256766,0.0,0.0,0.0,0.0,0.0,0.0
4.369999999999951,0.05615315779502397,-0.034536505442130744,-0.25,-0.5514058470726013,-1.0741729401689,3.1399246072775533,-3.141592653589793,-0.5766199533079734,-1.0193904797222952,0.0,0.0,0.0,0.0,0.0,0.0
4.379999999999951,0.056432953410719675,-0.035287501931412495,-0.25,-0.5588147044181824,-1.0742010169501004,3.139913437025502,-3.141592653589793,-0.5766002710597956,-1.0119816223767142,0.0,0.0,0.0,0.0,0.0,0.0
4.389999999999951,0.05671875866297353,-0.036036231970385316,-0.25,-0.5660069584846497,-1.0742295253213783,3.13990213338605,-3.141592653589793,-0.5765803190192353,-1.004789368310247,0.0,0.0,0.0,0.0,0.0,0.0
4.399999999999951,0.05701055519504823,-0.03678264746951782,-0.25,-0.5729865431785583,-1.0742584552439194,3.13989070021335,-3.141592653589793,-0.5765601041052384,-0.9978097836163383,0.0,0.0,0.0,0.0,0.0,0.0
4.40999999999995,0.057308324265397836,-0.03752670048793738,-0.25,-0.5797569155693054,-1.0742877986937192,3.1398791419329104,-3.141592653589793,-0.5765396329974589,-0.9910394112255912,0.0,0.0,0.0,0.0,0.0,0.0
4.41999999999995,0.057612046748871326,-0.03826834323650897,-0.25,-0.5863221287727356,-1.0743175506869136,3.139867463207425,-3.141592653589793,-0.5765189114805247,-0.984474198022161,0.0,0.0,0.0,0.0,0.0,0.0
4.42999999999995,0.05792170313794118,-0.03900752808090466,-0.25,-0.5926859378814697,-1.074347701574176,3.1398556677732987,-3.141592653589793,-0.5764979462321597,-0.9781103889134269,0.0,0.0,0.0,0.0,0.0,0.0
4.43999999999995,0.05823727354395615,-0.03974420754466326,-0.25,-0.5988521575927734,-1.0743782433733493,3.139843759652793,-3.141592653589793,-0.576476743572378,-0.9719441692021232,0.0,0.0,0.0,0.0,0.0,0.0
4.4499999999999496,0.05855873769841874,-0.04047833431223934,-0.25,-0.6048247814178467,-1.0744091699121263,3.139831742663155,-3.141592653589793,-0.5764553089925505,-0.9659715453770499,0.0,0.0,0.0,0.0,0.0,0.0
4.459999999999949,0.05888607495428705,-0.041209861232042524,-0.25,-0.6106075644493103,-1.0744404734675363,3.1398196207084013,-3.141592653589793,-0.5764336486180887,-0.9601887623455863,0.0,0.0,0.0,0.0,0.0,0.0
4.469999999999949,0.05921926428730079,-0.041938741319465636,-0.25,-0.6162043213844299,-1.0744721485845705,3.1398073977248266,-3.141592653589793,-0.5764117677831196,-0.9545920054104666,0.0,0.0,0.0,0.0,0.0,0.0
4.479999999999949,0.05955828429733172,-0.04266492775990277,-0.25,-0.621618926525116,-1.0745041855840007,3.139795076784768,-3.141592653589793,-0.5763896726087503,-0.9491774002697807,0.0,0.0,0.0,0.0,0.0,0.0
4.489999999999949,0.05990311320975811,-0.043388373911755804,-0.25,-0.6268552541732788,-1.0745365802053914,3.1397826619119265,-3.141592653589793,-0.5763673680724954,-0.9439410726216177,0.0,0.0,0.0,0.0,0.0,0.0
4.4999999999999485,0.06025372887686324,-0.04410903330943023,-0.25,-0.6319169402122498,-1.0745693242688734,3.139770156315219,-3.141592653589793,-0.576344859870814,-0.938879386582647,0.0,0.0,0.0,0.0,0.0,0.0
4.509999999999948,0.06061010877925804,-0.04482685966631969,-0.25,-0.6368077993392944,-1.074602410922715,3.1397575630134558,-3.141592653589793,-0.5763221530581869,-0.933988527455602,0.0,0.0,0.0,0.0,0.0,0.0
4.519999999999948,0.06097223002732732,-0.045541806877778555,-0.25,-0.6415315270423889,-1.0746358360397323,3.139744885683392,-3.141592653589793,-0.5762992522675927,-0.9292647997525078,0.0,0.0,0.0,0.0,0.0,0.0
4.529999999999948,0.06134006936269999,-0.04625382902408351,-0.25,-0.6460916996002197,-1.0746695923091654,3.1397321274237804,-3.141592653589793,-0.5762761627875729,-0.9247046271946769,0.0,0.0,0.0,0.0,0.0,0.0
4.539999999999948,0.06171360315974289,-0.04696288037338253,-0.25,-0.6504920125007629,-1.0747034838799863,3.1397193034322246,-3.141592653589793,-0.5762529683171118,-0.9203043142941337,0.0,0.0,0.0,0.0,0.0,0.0
4.549999999999947,0.06209280742707829,-0.04766891538463251,-0.25,-0.6547359228134155,-1.0747380712047505,3.139706379640632,-3.141592653589793,-0.576229437396183,-0.9160604039814811,0.0,0.0,0.0,0.0,0.0,0.0
4.559999999999947,0.06247765780912462,-0.04837188871052393,-0.25,-0.6588269472122192,-1.0747727829891893,3.1396933960731968,-3.141592653589793,-0.5762058104909151,-0.9119693795826772,0.0,0.0,0.0,0.0,0.0,0.0
4.569999999999947,0.06286812958766107,-0.04907175520039375,-0.25,-0.6627684831619263,-1.0748078019293903,3.1396803432795686,-3.141592653589793,-0.5761820135651581,-0.9080278436329702,0.0,0.0,0.0,0.0,0.0,0.0
4.579999999999947,0.0632641976834149,-0.04976846990312511,-0.25,-0.6665639877319336,-1.0748431216439762,3.1396672238610925,-3.141592653589793,-0.576158051146867,-0.904232339062963,0.0,0.0,0.0,0.0,0.0,0.0
4.589999999999947,0.06366583665767248,-0.050461988070034526,-0.25,-0.6702167391777039,-1.0748787383277723,3.139654040634211,-3.141592653589793,-0.5761339270176858,-0.9005795876171927,0.0,0.0,0.0,0.0,0.0,0.0
4.599999999999946,0.06407302071391299,-0.05115226515774615,-0.25,-0.6737299561500549,-1.074914832528055,3.1396407835147535,-3.141592653589793,-0.5761095673776127,-0.8970663706448418,0.0,0.0,0.0,0.0,0.0,0.0
4.609999999999946,0.06448572369946537,-0.05183925683105246,-0.25,-0.6771067976951599,-1.07495083512163,3.1396274925171745,-3.141592653589793,-0.5760852118947981,-0.8936895290997368,0.0,0.0,0.0,0.0,0.0,0.0
4.619999999999946,0.06490391910718811,-0.052522918965762104,-0.25,-0.6803503632545471,-1.0749873056592083,3.1396141325223113,-3.141592653589793,-0.5760606285425142,-0.8904459635403494,0.0,0.0,0.0,0.0,0.0,0.0
4.629999999999946,0.06532758007717157,-0.05320320765153361,-0.25,-0.6834639310836792,-1.0750240508326527,3.1396007190773982,-3.141592653589793,-0.5760359003984901,-0.8873323957112176,0.0,0.0,0.0,0.0,0.0,0.0
4.6399999999999455,0.06575667939846337,-0.053880079194696,-0.25,-0.686450183391571,-1.0750610645068512,3.139587253451273,-3.141592653589793,-0.5760110307631163,-0.8843461434033254,0.0,0.0,0.0,0.0,0.0,0.0
4.649999999999945,0.06619118951081593,-0.05455349012105485,-0.25,-0.6893122792243958,-1.0750983433501915,3.139573738697404,-3.141592653589793,-0.5759860234496271,-0.881484047570501,0.0,0.0,0.0,0.0,0.0,0.0
4.659999999999945,0.06663108250645666,-0.0552233971786847,-0.25,-0.6920529007911682,-1.075135882322673,3.1395601767544274,-3.141592653589793,-0.5759608819353973,-0.8787434260037283,0.0,0.0,0.0,0.0,0.0,0.0
4.669999999999945,0.0670763301318805,-0.05588975734070714,-0.25,-0.6946750283241272,-1.075173673934442,3.139546569687658,-3.141592653589793,-0.5759356106905003,-0.8761212984707694,0.0,0.0,0.0,0.0,0.0,0.0
4.679999999999945,0.06752690378966442,-0.056552527808054066,-0.25,-0.6971813440322876,-1.0752117159763799,3.1395329195035284,-3.141592653589793,-0.5759102122282109,-0.873614982762609,0.0,0.0,0.0,0.0,0.0,0.0
4.689999999999944,0.06798277454030441,-0.05721166601221694,-0.25,-0.6995744705200195,-1.0752500027713712,3.1395192284216744,-3.141592653589793,-0.5758846904960234,-0.8712218562748771,0.0,0.0,0.0,0.0,0.0,0.0
4.699999999999944,0.06844391310407397,-0.05786712961798053,-0.25,-0.7018569707870483,-1.0752885302443218,3.1395054984099104,-3.141592653589793,-0.5758590486478751,-0.8689393560078483,0.0,0.0,0.0,0.0,0.0,0.0
4.709999999999944,0.0689102898629049,-0.05851887652614234,-0.25,-0.7040315866470337,-1.0753272934757874,3.1394917311887642,-3.141592653589793,-0.57583328993121,-0.8667647401478629,0.0,0.0,0.0,0.0,0.0,0.0
4.719999999999944,0.06938187486228946,-0.05916686487621632,-0.25,-0.7061007022857666,-1.0753662876461245,3.1394779288797334,-3.141592653589793,-0.5758074179000802,-0.8646956245091301,0.0,0.0,0.0,0.0,0.0,0.0
4.729999999999944,0.06985863781320432,-0.05981105304912156,-0.25,-0.7080666422843933,-1.075405508022115,3.139464092959786,-3.141592653589793,-0.5757814355265505,-0.8627296845105035,0.0,0.0,0.0,0.0,0.0,0.0
4.739999999999943,0.07034054809405613,-0.06045139966985557,-0.25,-0.7099319696426392,-1.075444951783858,3.139450225531329,-3.141592653589793,-0.5757553456264206,-0.8608643571522574,0.0,0.0,0.0,0.0,0.0,0.0
4.749999999999943,0.070827574752648,-0.06108786361015139,-0.25,-0.7116989493370056,-1.0754846134152558,3.1394363282111755,-3.141592653589793,-0.5757291515738796,-0.8590973774578908,0.0,0.0,0.0,0.0,0.0,0.0
4.759999999999943,0.0713196865081678,-0.06172040399111955,-0.25,-0.7133696675300598,-1.0755246806063976,3.1394223903111627,-3.141592653589793,-0.5757027764798601,-0.8574266592648369,0.0,0.0,0.0,0.0,0.0,0.0
4.769999999999943,0.071816851753197,-0.06234898018587331,-0.25,-0.7149465084075928,-1.0755645756710717,3.1394084505333524,-3.141592653589793,-0.5756764619648753,-0.8558498183873039,0.0,0.0,0.0,0.0,0.0,0.0
4.7799999999999425,0.07231903855574098,-0.06297355182213833,-0.25,-0.7164316177368164,-1.0756046740588712,3.1393944856116,-3.141592653589793,-0.5756500526087743,-0.8543647090580804,0.0,0.0,0.0,0.0,0.0,0.0
4.789999999999942,0.07282621466127982,-0.0635940787848455,-0.25,-0.7178270220756531,-1.07564535853302,3.1393804725338796,-3.141592653589793,-0.5756233905715242,-0.8529693047192436,0.0,0.0,0.0,0.0,0.0,0.0
4.799999999999942,0.07333834749483997,-0.0642105212187075,-0.25,-0.7191346883773804,-1.075686048183167,3.139366449919933,-3.141592653589793,-0.5755967185647868,-0.8516616384175163,0.0,0.0,0.0,0.0,0.0,0.0
4.809999999999942,0.07385540416308656,-0.06482283953077882,-0.25,-0.7203567624092102,-1.0757267409868625,3.1393524191579854,-3.141592653589793,-0.5755700385049272,-0.8504395643856864,0.0,0.0,0.0,0.0,0.0,0.0
4.819999999999942,0.07437735145643594,-0.06543099439299839,-0.25,-0.7214951515197754,-1.0757680060068644,3.139338344656954,-3.141592653589793,-0.5755431145514085,-0.8493011752751214,0.0,0.0,0.0,0.0,0.0,0.0
4.8299999999999415,0.07490415585118887,-0.06603494674471592,-0.25,-0.7225516438484192,-1.0758092663057486,3.1393242647931068,-3.141592653589793,-0.5755161877699195,-0.8482446829464775,0.0,0.0,0.0,0.0,0.0,0.0
4.839999999999941,0.07543578351168341,-0.06663465779520035,-0.25,-0.7235282063484192,-1.0758507063045855,3.1393101688990495,-3.141592653589793,-0.5754891824711788,-0.8472681204464775,0.0,0.0,0.0,0.0,0.0,0.0
4.849999999999941,0.07597220029246844,-0.06723008902613165,-0.25,-0.7244265675544739,-1.0758923269110596,3.1392960578956774,-3.141592653589793,-0.5754620991156533,-0.8463697592404227,0.0,0.0,0.0,0.0,0.0,0.0
4.859999999999941,0.07651337174049645,-0.06782120219407448,-0.25,-0.7252484560012817,-1.075934120735134,3.1392819331302046,-3.141592653589793,-0.575434941523469,-0.8455478707936148,0.0,0.0,0.0,0.0,0.0,0.0
4.869999999999941,0.07705926309733657,-0.06840795933293457,-0.25,-0.7259956002235413,-1.075976084391197,3.1392677960678324,-3.141592653589793,-0.5754077121700353,-0.8448007265713555,0.0,0.0,0.0,0.0,0.0,0.0
4.87999999999994,0.0776098393014071,-0.06899032275639747,-0.25,-0.7266696691513062,-1.0760182166759087,3.1392536480755187,-3.141592653589793,-0.5753804126590517,-0.8441266576435906,0.0,0.0,0.0,0.0,0.0,0.0
